UWC_LUTs/UWC_04_Rechauffe_Neutre.cube
# UWC Rechauffe neutre
# UWC — correction couleur sous-marine · entree Rec.709
TITLE "UWC Rechauffe neutre"
LUT_3D_SIZE 9
DOMAIN_MIN 0 0 0
DOMAIN_MAX 1 1 1
0.000000 0.000000 0.000000
0.134028 0.000000 0.000000
0.278409 0.000000 0.000000
0.422790 0.000000 0.000000
0.567171 0.000000 0.000000
0.711552 0.000000 0.000000
0.855932 0.000000 0.000000
1.000000 0.000000 0.000000
1.000000 0.000000 0.000000
0.000000 0.113192 0.000000
0.130206 0.111681 0.000000
0.274223 0.110208 0.000000
0.418476 0.108732 0.000000
0.562795 0.107256 0.000000
0.707140 0.105780 0.000000
0.851498 0.104304 0.000000
0.995863 0.102827 0.000000
1.000000 0.102263 0.000000
0.000000 0.242079 0.000000
0.127424 0.240599 0.000000
0.270526 0.239136 0.000000
0.414456 0.237664 0.000000
0.558617 0.236189 0.000000
0.702871 0.234714 0.000000
0.847171 0.233238 0.000000
0.991496 0.231762 0.000000
1.000000 0.231200 0.000000
0.000000 0.370926 0.000000
0.125973 0.369504 0.000000
0.267488 0.368057 0.000000
0.410846 0.366591 0.000000
0.554727 0.365119 0.000000
0.698819 0.363645 0.000000
0.843015 0.362171 0.000000
0.987269 0.360695 0.000000
1.000000 0.360136 0.000000
0.000000 0.499728 0.000000
0.125969 0.498394 0.000000
0.265194 0.496970 0.000000
0.407704 0.495513 0.000000
0.551166 0.494046 0.000000
0.695015 0.492574 0.000000
0.839055 0.491101 0.000000
0.983202 0.489627 0.000000
1.000000 0.489073 0.000000
0.008920 0.628482 0.000000
0.127446 0.627269 0.000000
0.263705 0.625876 0.000000
0.405075 0.624430 0.000000
0.547968 0.622968 0.000000
0.691486 0.621501 0.000000
0.835313 0.620030 0.000000
0.979313 0.618557 0.000000
1.000000 0.618009 0.000000
0.023768 0.757220 0.000000
0.130373 0.756129 0.000000
0.263062 0.754772 0.000000
0.402995 0.753341 0.000000
0.545161 0.751887 0.000000
0.688253 0.750424 0.000000
0.831806 0.748956 0.000000
0.975617 0.747485 0.000000
1.000000 0.746946 0.000000
0.038616 0.885958 0.000000
0.134671 0.884976 0.000000
0.263288 0.883660 0.000000
0.401491 0.882247 0.000000
0.542767 0.880802 0.000000
0.685335 0.879344 0.000000
0.828549 0.877879 0.000000
0.972126 0.876411 0.000000
1.000000 0.875883 0.000000
0.053464 1.000000 0.000000
0.140228 1.000000 0.000000
0.264390 1.000000 0.000000
0.400583 1.000000 0.000000
0.540806 1.000000 0.000000
0.682749 1.000000 0.000000
0.825556 1.000000 0.000000
0.968852 1.000000 0.000000
1.000000 1.000000 0.000000
0.000000 0.000000 0.113080
0.134249 0.000000 0.111567
0.278284 0.000000 0.110094
0.422544 0.000000 0.108619
0.566866 0.000000 0.107143
0.711213 0.000000 0.105667
0.855572 0.000000 0.104190
0.999938 0.000000 0.102714
1.000000 0.000000 0.102150
0.000000 0.112732 0.108540
0.130424 0.111232 0.107040
0.274098 0.109763 0.105570
0.418230 0.108289 0.104096
0.562490 0.106813 0.102621
0.706801 0.105337 0.101145
0.851138 0.103861 0.099669
0.995488 0.102385 0.098193
1.000000 0.101821 0.097629
0.000000 0.241618 0.103943
0.127634 0.240151 0.102476
0.270400 0.238691 0.101016
0.414210 0.237220 0.099545
0.558312 0.235746 0.098071
0.702532 0.234271 0.096596
0.846810 0.232795 0.095121
0.991120 0.231319 0.093645
1.000000 0.230758 0.093083
0.000000 0.370465 0.099308
0.126169 0.369056 0.097898
0.267360 0.367612 0.096454
0.410599 0.366147 0.094989
0.554422 0.364676 0.093518
0.698480 0.363203 0.092045
0.842654 0.361728 0.090571
0.986893 0.360253 0.089095
1.000000 0.359694 0.088537
0.000000 0.499267 0.094627
0.126147 0.497946 0.093306
0.265063 0.496525 0.091885
0.407457 0.495069 0.090429
0.550861 0.493602 0.088962
0.694676 0.492132 0.087491
0.838695 0.490659 0.086019
0.982827 0.489184 0.084544
1.000000 0.488631 0.083991
0.010175 0.628022 0.089900
0.127601 0.626821 0.088699
0.263570 0.625431 0.087308
0.404827 0.623986 0.085863
0.547662 0.622525 0.084403
0.691147 0.621058 0.082935
0.834953 0.619587 0.081464
0.978938 0.618114 0.079992
1.000000 0.617568 0.079445
0.024671 0.756764 0.085159
0.130502 0.755682 0.084076
0.262923 0.754327 0.082722
0.402745 0.752897 0.081292
0.544855 0.751444 0.079839
0.687914 0.749981 0.078376
0.831445 0.748513 0.076908
0.975241 0.747042 0.075437
1.000000 0.746504 0.074899
0.039276 0.885505 0.080417
0.134770 0.884528 0.079440
0.263143 0.883215 0.078127
0.401239 0.881803 0.076715
0.542460 0.880359 0.075271
0.684996 0.878901 0.073813
0.828188 0.877436 0.072348
0.971750 0.875968 0.070880
1.000000 0.875441 0.070353
0.053947 1.000000 0.075674
0.140297 1.000000 0.074791
0.264239 1.000000 0.073524
0.400330 1.000000 0.072132
0.540499 1.000000 0.070698
0.682409 1.000000 0.069247
0.825195 1.000000 0.067786
0.968476 1.000000 0.066321
1.000000 1.000000 0.065807
0.000000 0.000000 0.243155
0.135474 0.000000 0.241673
0.278641 0.000000 0.240209
0.422594 0.000000 0.238736
0.566766 0.000000 0.237262
0.711027 0.000000 0.235786
0.855331 0.000000 0.234311
0.999659 0.000000 0.232835
1.000000 0.000000 0.232272
0.000000 0.112235 0.238615
0.131641 0.110766 0.237145
0.274453 0.109305 0.235685
0.418280 0.107834 0.234214
0.562390 0.106361 0.232740
0.706615 0.104886 0.231265
0.850896 0.103410 0.229789
0.995208 0.101934 0.228313
1.000000 0.101372 0.227752
0.000000 0.241122 0.234018
0.128832 0.239685 0.232582
0.270753 0.238233 0.231130
0.414259 0.236766 0.229662
0.558212 0.235293 0.228190
0.702346 0.233819 0.226716
0.846569 0.232344 0.225241
0.990841 0.230869 0.223765
1.000000 0.230309 0.223205
0.000000 0.369969 0.229383
0.127334 0.368590 0.228004
0.267708 0.367155 0.226569
0.410647 0.365693 0.225107
0.554321 0.364223 0.223637
0.698294 0.362751 0.222165
0.842413 0.361277 0.220691
0.986614 0.359802 0.219216
1.000000 0.359245 0.218659
0.001142 0.498771 0.224702
0.127266 0.497481 0.223412
0.265404 0.496068 0.222000
0.407502 0.494615 0.220546
0.550759 0.493150 0.219081
0.694490 0.491680 0.217611
0.838453 0.490208 0.216139
0.982547 0.488734 0.214665
1.000000 0.488182 0.214113
0.013886 0.627531 0.219980
0.128662 0.626357 0.218806
0.263902 0.624974 0.217423
0.404870 0.623532 0.215981
0.547560 0.622073 0.214521
0.690960 0.620606 0.213055
0.834711 0.619136 0.211585
0.978658 0.617664 0.210112
1.000000 0.617119 0.209567
0.027559 0.756281 0.215247
0.131496 0.755218 0.214184
0.263243 0.753871 0.212837
0.402785 0.752443 0.211410
0.544751 0.750992 0.209958
0.687726 0.749529 0.208495
0.831203 0.748062 0.207028
0.974962 0.746592 0.205558
1.000000 0.746055 0.205021
0.041579 0.885028 0.210511
0.135691 0.884065 0.209549
0.263449 0.882759 0.208242
0.401275 0.881349 0.206833
0.542355 0.879906 0.205390
0.684807 0.878449 0.203933
0.827946 0.876985 0.202469
0.971470 0.875517 0.201001
1.000000 0.874992 0.200475
0.055819 1.000000 0.205773
0.141143 1.000000 0.204900
0.264529 1.000000 0.203639
0.400361 1.000000 0.202249
0.540392 1.000000 0.200817
0.682219 1.000000 0.199367
0.824952 1.000000 0.197907
0.968196 1.000000 0.196442
1.000000 1.000000 0.195929
0.000000 0.000000 0.373192
0.137964 0.000000 0.371765
0.279622 0.000000 0.370317
0.423033 0.000000 0.368850
0.566940 0.000000 0.367378
0.711046 0.000000 0.365904
0.855252 0.000000 0.364429
0.999512 0.000000 0.362954
1.000000 0.000000 0.362395
0.000000 0.111702 0.368652
0.134118 0.110287 0.367238
0.275433 0.108842 0.365793
0.418719 0.107377 0.364327
0.562563 0.105905 0.362856
0.706635 0.104432 0.361383
0.850817 0.102957 0.359908
0.995062 0.101482 0.358433
1.000000 0.100923 0.357874
0.000000 0.240588 0.364056
0.131276 0.239206 0.362674
0.271728 0.237770 0.361238
0.414696 0.236308 0.359776
0.558385 0.234838 0.358306
0.702365 0.233366 0.356834
0.846490 0.231892 0.355360
0.990694 0.230417 0.353885
1.000000 0.229860 0.353328
0.000376 0.369435 0.359421
0.129722 0.368112 0.358098
0.268674 0.366691 0.356677
0.411082 0.365235 0.355220
0.554493 0.363768 0.353754
0.698312 0.362297 0.352283
0.842333 0.360824 0.350810
0.986467 0.359350 0.349336
1.000000 0.358797 0.348782
0.008978 0.498237 0.354740
0.129575 0.497004 0.353507
0.266358 0.495605 0.352108
0.407934 0.494157 0.350660
0.550930 0.492695 0.349197
0.694508 0.491226 0.347729
0.838373 0.489755 0.346258
0.982400 0.488282 0.344785
1.000000 0.487733 0.344236
0.020359 0.627011 0.350031
0.130872 0.625881 0.348901
0.264840 0.624511 0.347531
0.405297 0.623074 0.346094
0.547729 0.621617 0.344638
0.690977 0.620152 0.343173
0.834631 0.618683 0.341703
0.978511 0.617212 0.340232
1.000000 0.616670 0.339690
0.032780 0.755774 0.345312
0.133590 0.754743 0.344281
0.264160 0.753408 0.342945
0.403206 0.751986 0.341523
0.544917 0.750536 0.340074
0.687742 0.749076 0.338613
0.831122 0.747609 0.337147
0.974814 0.746140 0.335677
1.000000 0.745606 0.335144
0.045869 0.884530 0.340585
0.137659 0.883592 0.339647
0.264342 0.882296 0.338351
0.401688 0.880891 0.336946
0.542518 0.879451 0.335506
0.684822 0.877996 0.334050
0.827864 0.876533 0.332588
0.971322 0.875065 0.331120
1.000000 0.874543 0.330598
0.059401 1.000000 0.335854
0.142979 1.000000 0.335000
0.265394 1.000000 0.333748
0.400766 1.000000 0.332363
0.540551 1.000000 0.330933
0.682232 1.000000 0.329484
0.824870 1.000000 0.328026
0.968047 1.000000 0.326561
1.000000 1.000000 0.326052
0.010448 0.000000 0.503187
0.141834 0.000000 0.501844
0.281311 0.000000 0.500417
0.423916 0.000000 0.498959
0.567425 0.000000 0.497491
0.711302 0.000000 0.496019
0.855359 0.000000 0.494546
0.999518 0.000000 0.493072
1.000000 0.000000 0.492517
0.007853 0.111125 0.498647
0.137970 0.109794 0.497316
0.277119 0.108371 0.495893
0.419601 0.106914 0.494436
0.563049 0.105447 0.492969
0.706890 0.103976 0.491498
0.850925 0.102503 0.490025
0.995068 0.101028 0.488551
1.000000 0.100474 0.487997
0.008207 0.240012 0.494051
0.135081 0.238714 0.492753
0.273407 0.237299 0.491339
0.415577 0.235845 0.489885
0.558869 0.234380 0.488419
0.702620 0.232910 0.486949
0.846597 0.231437 0.485477
0.990700 0.229963 0.484003
1.000000 0.229411 0.483450
0.012401 0.368859 0.489416
0.133448 0.367621 0.488178
0.270341 0.366221 0.486778
0.411959 0.364772 0.485329
0.554976 0.363310 0.483867
0.698567 0.361841 0.482398
0.842440 0.360370 0.480927
0.986473 0.358897 0.479453
1.000000 0.358348 0.478904
0.019872 0.497672 0.484747
0.133188 0.496514 0.483588
0.268006 0.495135 0.482209
0.408806 0.493695 0.480769
0.551411 0.492236 0.479310
0.694761 0.490770 0.477844
0.838480 0.489300 0.476374
0.982405 0.487828 0.474903
1.000000 0.487284 0.474358
0.029368 0.626465 0.480057
0.134343 0.625392 0.478983
0.266464 0.624041 0.477632
0.406161 0.622612 0.476203
0.548207 0.621159 0.474751
0.691229 0.619696 0.473288
0.834736 0.618229 0.471820
0.978516 0.616758 0.470350
1.000000 0.616221 0.469812
0.040284 0.755244 0.475353
0.136897 0.754256 0.474365
0.265754 0.752938 0.473047
0.404061 0.751523 0.471632
0.545392 0.750078 0.470187
0.687993 0.748620 0.468729
0.831227 0.747155 0.467264
0.974818 0.745686 0.465795
1.000000 0.745157 0.465266
0.052186 0.884012 0.470639
0.140786 0.883106 0.469732
0.265900 0.881827 0.468453
0.402534 0.880429 0.467055
0.542989 0.878993 0.465619
0.685070 0.877540 0.464166
0.827968 0.876078 0.462704
0.971326 0.874612 0.461238
1.000000 0.874094 0.460720
0.064779 1.000000 0.465917
0.145916 1.000000 0.465087
0.266911 1.000000 0.463850
0.401598 1.000000 0.462472
0.541017 1.000000 0.461047
0.682478 1.000000 0.459600
0.824972 1.000000 0.458143
0.968050 1.000000 0.456679
1.000000 1.000000 0.456174
0.027086 0.000000 0.633135
0.147121 0.000000 0.631907
0.283765 0.000000 0.630510
0.425287 0.000000 0.629063
0.568255 0.000000 0.627600
0.711817 0.000000 0.626132
0.855673 0.000000 0.624661
0.999693 0.000000 0.623188
1.000000 0.000000 0.622640
0.024409 0.110502 0.628596
0.143234 0.109287 0.627381
0.279570 0.107893 0.625986
0.420970 0.106446 0.624540
0.563879 0.104985 0.623078
0.707405 0.103517 0.621611
0.851238 0.102046 0.620140
0.995242 0.100573 0.618667
1.000000 0.100025 0.618119
0.024363 0.239393 0.624004
0.140287 0.238207 0.622818
0.275848 0.236821 0.621432
0.416943 0.235378 0.619989
0.559698 0.233918 0.618529
0.703135 0.232451 0.617062
0.846910 0.230980 0.615591
0.990875 0.229508 0.614119
1.000000 0.228962 0.613573
0.027255 0.368253 0.619382
0.138554 0.367115 0.618243
0.272766 0.365742 0.616871
0.413321 0.364305 0.615433
0.555803 0.362848 0.613976
0.699081 0.361382 0.612511
0.842753 0.359913 0.611041
0.986647 0.358441 0.609570
1.000000 0.357899 0.609027
0.032793 0.497087 0.614732
0.138151 0.496009 0.613655
0.270407 0.494657 0.612302
0.410161 0.493227 0.610873
0.552235 0.491774 0.609420
0.695274 0.490311 0.607957
0.838792 0.488844 0.606489
0.982579 0.487373 0.605019
1.000000 0.486835 0.604481
0.040485 0.625898 0.610061
0.139127 0.624889 0.609052
0.268832 0.623563 0.607726
0.407507 0.622145 0.606308
0.549028 0.620697 0.604860
0.691740 0.619238 0.603401
0.835048 0.617772 0.601935
0.978689 0.616303 0.600466
1.000000 0.615772 0.599935
0.049831 0.754693 0.605373
0.141470 0.753756 0.604436
0.268081 0.752461 0.603141
0.405395 0.751056 0.601737
0.546208 0.749616 0.600296
0.688502 0.748161 0.598841
0.831537 0.746698 0.597378
0.974991 0.745231 0.595911
1.000000 0.744708 0.595389
0.060413 0.883475 0.600672
0.145127 0.882608 0.599806
0.268179 0.881350 0.598547
0.403852 0.879962 0.597160
0.543799 0.878531 0.595729
0.685576 0.877081 0.594279
0.828277 0.875621 0.592819
0.971498 0.874157 0.591354
1.000000 0.873645 0.590843
0.071911 1.000000 0.595962
0.150013 1.000000 0.595163
0.269134 1.000000 0.593945
0.402900 1.000000 0.592577
0.541820 1.000000 0.591156
0.682981 1.000000 0.589713
0.825279 1.000000 0.588257
0.968221 1.000000 0.586795
1.000000 1.000000 0.586297
0.045608 0.000000 0.763064
0.153803 0.000000 0.761957
0.287026 0.000000 0.760595
0.427178 0.000000 0.759161
0.569456 0.000000 0.757706
0.712614 0.000000 0.756242
0.856209 0.000000 0.754773
1.000000 0.000000 0.753302
1.000000 0.000000 0.752762
0.042549 0.109863 0.758528
0.149888 0.108765 0.757430
0.282825 0.107406 0.756071
0.422861 0.105974 0.754639
0.565079 0.104519 0.753184
0.708202 0.103055 0.751720
0.851775 0.101587 0.750252
0.995599 0.100116 0.748781
1.000000 0.099577 0.748242
0.041619 0.238763 0.753945
0.146873 0.237686 0.752869
0.279092 0.236334 0.751516
0.418830 0.234905 0.750087
0.560897 0.233452 0.748634
0.703931 0.231989 0.747171
0.847446 0.230521 0.745704
0.991231 0.229051 0.744233
1.000000 0.228513 0.743696
0.043186 0.367637 0.749337
0.145023 0.366595 0.748295
0.275989 0.365256 0.746956
0.415202 0.363832 0.745532
0.557000 0.362382 0.744082
0.699876 0.360921 0.742620
0.843289 0.359454 0.741154
0.987003 0.357984 0.739684
1.000000 0.357450 0.739149
0.047162 0.496486 0.744703
0.144454 0.495491 0.743708
0.273600 0.494170 0.742388
0.412033 0.492755 0.740972
0.553429 0.491309 0.739526
0.696067 0.489850 0.738067
0.839327 0.488385 0.736602
0.982935 0.486916 0.735133
1.000000 0.486386 0.734603
0.053255 0.625314 0.740049
0.145219 0.624374 0.739108
0.271984 0.623077 0.737812
0.409367 0.621672 0.736406
0.550216 0.620232 0.734966
0.692531 0.618776 0.733510
0.835581 0.617313 0.732047
0.979044 0.615846 0.730580
1.000000 0.615323 0.730057
0.061098 0.754124 0.735376
0.147314 0.753242 0.734494
0.271182 0.751975 0.733227
0.407240 0.750584 0.731836
0.547391 0.749151 0.730402
0.689290 0.747699 0.728951
0.832069 0.746239 0.727491
0.975345 0.744774 0.726025
1.000000 0.744260 0.725511
0.070337 0.882920 0.730689
0.150695 0.882098 0.729867
0.271220 0.880865 0.728634
0.405678 0.879490 0.727259
0.544974 0.878065 0.725834
0.686361 0.876619 0.724388
0.828807 0.875162 0.722932
0.971851 0.873700 0.721469
1.000000 0.873196 0.720965
0.080667 1.000000 0.725991
0.155288 1.000000 0.725227
0.272106 1.000000 0.724033
0.404703 1.000000 0.722677
0.542986 1.000000 0.721262
0.683762 1.000000 0.719823
0.825807 1.000000 0.718370
0.968573 1.000000 0.716910
1.000000 1.000000 0.716419
0.064130 0.000000 0.892992
0.161808 0.000000 0.891993
0.291115 0.000000 0.890671
0.429618 0.000000 0.889254
0.571050 0.000000 0.887808
0.713710 0.000000 0.886349
0.856984 0.000000 0.884883
1.000000 0.000000 0.883414
1.000000 0.000000 0.882885
0.060807 0.109223 0.888459
0.157863 0.108230 0.887467
0.286909 0.106911 0.886147
0.425299 0.105495 0.884732
0.566672 0.104049 0.883286
0.709298 0.102591 0.881827
0.852549 0.101126 0.880362
0.996151 0.099657 0.878893
1.000000 0.099128 0.878364
0.059246 0.238129 0.883883
0.154774 0.237152 0.882906
0.283162 0.235839 0.881593
0.421264 0.234427 0.880180
0.562489 0.232982 0.878736
0.705026 0.231524 0.877278
0.848220 0.230060 0.875814
0.991783 0.228592 0.874345
1.000000 0.228064 0.873818
0.059821 0.367013 0.879284
0.152796 0.366062 0.878333
0.280034 0.364761 0.877032
0.417629 0.363354 0.875625
0.558589 0.361912 0.874183
0.700969 0.360456 0.872727
0.844062 0.358993 0.871264
0.987554 0.357525 0.869796
1.000000 0.357001 0.869272
0.062551 0.495875 0.874664
0.152044 0.494960 0.873749
0.277609 0.493676 0.872464
0.414449 0.492276 0.871065
0.555013 0.490839 0.869627
0.697159 0.489385 0.868174
0.840099 0.487923 0.866712
0.983486 0.486457 0.865245
1.000000 0.485937 0.864726
0.067280 0.624717 0.870023
0.152574 0.623845 0.869151
0.275945 0.622583 0.867889
0.411768 0.621194 0.866500
0.551795 0.619762 0.865068
0.693620 0.618311 0.863617
0.836351 0.616852 0.862157
0.979594 0.615387 0.860692
1.000000 0.614874 0.860180
0.073760 0.753541 0.865364
0.154392 0.752716 0.864540
0.275083 0.751482 0.863305
0.409622 0.750106 0.861929
0.548962 0.748681 0.860504
0.690375 0.747235 0.859058
0.832838 0.745778 0.857601
0.975894 0.744315 0.856138
1.000000 0.743811 0.855634
0.081711 0.882350 0.860690
0.157463 0.881575 0.859916
0.275047 0.880372 0.858713
0.408038 0.879012 0.857353
0.546536 0.877596 0.855936
0.687442 0.876155 0.854495
0.829573 0.874701 0.853042
0.972398 0.873240 0.851581
1.000000 0.872747 0.851088
0.090870 1.000000 0.856004
0.161725 1.000000 0.855280
0.275850 1.000000 0.854112
0.407036 1.000000 0.852771
0.544538 1.000000 0.851364
0.684837 1.000000 0.849929
0.826570 1.000000 0.848480
0.969118 1.000000 0.847022
1.000000 1.000000 0.846542
0.082653 0.000000 1.000000
0.171038 0.000000 1.000000
0.296043 0.000000 1.000000
0.432626 0.000000 1.000000
0.573056 0.000000 1.000000
0.715121 0.000000 1.000000
0.858008 0.000000 1.000000
1.000000 0.000000 1.000000
1.000000 0.000000 1.000000
0.079137 0.108582 1.000000
0.167062 0.107683 1.000000
0.291830 0.106407 1.000000
0.428305 0.105011 1.000000
0.568677 0.103575 1.000000
0.710708 0.102123 1.000000
0.853573 0.100662 1.000000
0.996909 0.099196 1.000000
1.000000 0.098679 1.000000
0.077110 0.237493 1.000000
0.163895 0.236605 1.000000
0.288067 0.235335 1.000000
0.424266 0.233942 1.000000
0.564492 0.232508 1.000000
0.706435 0.231056 1.000000
0.849244 0.229596 1.000000
0.992540 0.228130 1.000000
1.000000 0.227615 1.000000
0.076927 0.366385 1.000000
0.161782 0.365517 1.000000
0.284912 0.364258 1.000000
0.420622 0.362870 1.000000
0.560588 0.361438 1.000000
0.702377 0.359988 1.000000
0.845085 0.358529 1.000000
0.988311 0.357064 0.999906
1.000000 0.356552 0.999394
0.078662 0.495257 1.000000
0.160837 0.494417 1.000000
0.282444 0.493173 1.000000
0.417429 0.491792 1.000000
0.557007 0.490365 0.999725
0.698564 0.488917 0.998277
0.841120 0.487459 0.996819
0.984242 0.485995 0.995355
1.000000 0.485489 0.994848
0.082249 0.624111 0.999988
0.161118 0.623304 0.999181
0.280725 0.622081 0.997958
0.414731 0.620710 0.996587
0.553782 0.619288 0.995165
0.695022 0.617844 0.993721
0.837372 0.616388 0.992265
0.980349 0.614925 0.990803
1.000000 0.614425 0.990302
0.087528 0.752947 0.995341
0.162640 0.752178 0.994573
0.279793 0.750980 0.993375
0.412563 0.749622 0.992017
0.550940 0.748207 0.990602
0.691773 0.746767 0.989161
0.833856 0.745314 0.987708
0.976648 0.743853 0.986248
1.000000 0.743362 0.985756
0.094292 0.881768 0.990680
0.165378 0.881041 0.989953
0.279674 0.879872 0.988784
0.410951 0.878529 0.987441
0.548504 0.877122 0.986034
0.688835 0.875687 0.984599
0.830588 0.874237 0.983149
0.973150 0.872779 0.981691
1.000000 0.872298 0.981210
0.102325 1.000000 0.986005
0.169280 1.000000 0.985320
0.280381 1.000000 0.984184
0.409918 1.000000 0.982859
0.546492 1.000000 0.981462
0.686224 1.000000 0.980033
0.827582 1.000000 0.978587
0.969869 1.000000 0.977132
1.000000 1.000000 0.976664
