UWC_LUTs/UWC_02_EauVerte_Forte.cube
# UWC Eau verte - forte
# UWC — correction couleur sous-marine · entree Rec.709
TITLE "UWC Eau verte - forte"
LUT_3D_SIZE 9
DOMAIN_MIN 0 0 0
DOMAIN_MAX 1 1 1
0.000000 0.000000 0.000000
0.165404 0.000000 0.000000
0.349721 0.000000 0.000000
0.534038 0.000000 0.000000
0.718354 0.000000 0.000000
0.902671 0.000000 0.000000
1.000000 0.000000 0.000000
1.000000 0.000000 0.000000
1.000000 0.000000 0.000000
0.000000 0.084722 0.000000
0.156975 0.080135 0.000000
0.340502 0.075857 0.000000
0.524542 0.071567 0.000000
0.708724 0.067274 0.000000
0.892963 0.062980 0.000000
1.000000 0.058684 0.000000
1.000000 0.057289 0.000000
1.000000 0.057289 0.000000
0.000000 0.210301 0.000000
0.150334 0.205929 0.000000
0.331898 0.201697 0.000000
0.515237 0.197424 0.000000
0.699077 0.193139 0.000000
0.883118 0.188849 0.000000
1.000000 0.184556 0.000000
1.000000 0.183172 0.000000
1.000000 0.183172 0.000000
0.000000 0.335642 0.000000
0.146494 0.331659 0.000000
0.324711 0.327504 0.000000
0.506821 0.323260 0.000000
0.690054 0.318989 0.000000
0.873744 0.314707 0.000000
1.000000 0.310420 0.000000
1.000000 0.309055 0.000000
1.000000 0.309055 0.000000
0.000000 0.460808 0.000000
0.145594 0.457319 0.000000
0.319109 0.453275 0.000000
0.499412 0.449072 0.000000
0.681744 0.444822 0.000000
0.864909 0.440552 0.000000
1.000000 0.436273 0.000000
1.000000 0.434938 0.000000
1.000000 0.434938 0.000000
0.016387 0.585971 0.000000
0.147562 0.582913 0.000000
0.315194 0.579006 0.000000
0.493100 0.574859 0.000000
0.674215 0.570637 0.000000
0.856667 0.566384 0.000000
1.000000 0.562116 0.000000
1.000000 0.560821 0.000000
1.000000 0.560821 0.000000
0.036847 0.711133 0.000000
0.152181 0.708445 0.000000
0.313015 0.704696 0.000000
0.487950 0.700618 0.000000
0.667523 0.696433 0.000000
0.849063 0.692201 0.000000
1.000000 0.687946 0.000000
1.000000 0.686705 0.000000
1.000000 0.686705 0.000000
0.057307 0.836296 0.000000
0.159159 0.833922 0.000000
0.312574 0.830346 0.000000
0.484004 0.826350 0.000000
0.661711 0.822208 0.000000
0.842135 0.818002 0.000000
1.000000 0.813765 0.000000
1.000000 0.812588 0.000000
1.000000 0.812588 0.000000
0.077766 0.961459 0.000000
0.168175 0.959352 0.000000
0.313833 0.955956 0.000000
0.481288 0.952053 0.000000
0.656812 0.947962 0.000000
0.835913 0.943787 0.000000
1.000000 0.939569 0.000000
1.000000 0.938471 0.000000
1.000000 0.938471 0.000000
0.000000 0.000000 0.103689
0.166031 0.000000 0.099113
0.349458 0.000000 0.094837
0.533462 0.000000 0.090548
0.717627 0.000000 0.086256
0.901856 0.000000 0.081961
1.000000 0.000000 0.077666
1.000000 0.000000 0.076271
1.000000 0.000000 0.076271
0.000000 0.083505 0.093624
0.157588 0.079013 0.089133
0.340238 0.074756 0.084875
0.523966 0.070473 0.080592
0.707996 0.066183 0.076303
0.892147 0.061891 0.072010
1.000000 0.057597 0.067716
1.000000 0.056206 0.066326
1.000000 0.056206 0.066326
0.000000 0.209084 0.082873
0.150915 0.204808 0.078598
0.331629 0.200596 0.074385
0.514660 0.196330 0.070119
0.698349 0.192048 0.065837
0.882303 0.187760 0.061550
1.000000 0.183469 0.057259
1.000000 0.182090 0.055879
1.000000 0.182090 0.055879
0.000000 0.334424 0.071884
0.147020 0.330539 0.067998
0.324433 0.326403 0.063863
0.506241 0.322166 0.059625
0.689325 0.317898 0.055357
0.872928 0.313618 0.051078
1.000000 0.309333 0.046792
1.000000 0.307973 0.045432
1.000000 0.307973 0.045432
0.000000 0.459627 0.060757
0.146046 0.456201 0.057331
0.318820 0.452174 0.053303
0.498829 0.447978 0.049108
0.681013 0.443731 0.044861
0.864092 0.439464 0.040593
1.000000 0.435186 0.036316
1.000000 0.433856 0.034985
1.000000 0.433856 0.034985
0.018516 0.584814 0.049613
0.147926 0.581797 0.046597
0.314890 0.577905 0.042705
0.492513 0.573765 0.038564
0.673483 0.569547 0.034346
0.855849 0.565296 0.030095
1.000000 0.561029 0.025828
1.000000 0.559739 0.024539
1.000000 0.559739 0.024539
0.038311 0.709992 0.038461
0.152450 0.707331 0.035801
0.312692 0.703596 0.032066
0.487357 0.699525 0.027994
0.666789 0.695342 0.023812
0.848244 0.691113 0.019582
1.000000 0.686859 0.015329
1.000000 0.685622 0.014092
1.000000 0.685622 0.014092
0.058310 0.835165 0.027305
0.159330 0.832811 0.024950
0.312228 0.829247 0.021386
0.483405 0.825257 0.017396
0.660974 0.821117 0.013257
0.841315 0.816914 0.009054
1.000000 0.812677 0.004817
1.000000 0.811505 0.003645
1.000000 0.811505 0.003645
0.078436 0.960336 0.016146
0.168250 0.958242 0.014052
0.313464 0.954857 0.010667
0.480681 0.950960 0.006769
0.656072 0.946871 0.002681
0.835092 0.942699 0.000000
1.000000 0.938482 0.000000
1.000000 0.937389 0.000000
1.000000 0.937389 0.000000
0.000000 0.000000 0.245594
0.169206 0.000000 0.241261
0.350426 0.000000 0.237037
0.533642 0.000000 0.232767
0.717421 0.000000 0.228483
0.901427 0.000000 0.224194
1.000000 0.000000 0.219902
1.000000 0.000000 0.218519
1.000000 0.000000 0.218519
0.000000 0.082053 0.235529
0.160731 0.077805 0.231282
0.341201 0.073598 0.227075
0.524144 0.069334 0.222811
0.707789 0.065053 0.218530
0.891718 0.060766 0.214243
1.000000 0.056476 0.209952
1.000000 0.055097 0.208574
1.000000 0.055097 0.208574
0.000000 0.207632 0.224778
0.153976 0.203602 0.220749
0.332580 0.199439 0.216586
0.514835 0.195191 0.212337
0.698141 0.190918 0.208065
0.881872 0.186635 0.203782
1.000000 0.182348 0.199494
1.000000 0.180981 0.198127
1.000000 0.180981 0.198127
0.000000 0.333002 0.213819
0.149948 0.329336 0.210152
0.325365 0.325247 0.206064
0.506411 0.321027 0.201843
0.689115 0.316768 0.197585
0.872497 0.312494 0.193310
1.000000 0.308211 0.189028
1.000000 0.306864 0.187680
1.000000 0.306864 0.187680
0.008015 0.458284 0.202771
0.148792 0.455002 0.199489
0.319721 0.451018 0.195505
0.498990 0.446839 0.191326
0.680800 0.442602 0.187088
0.863659 0.438339 0.182826
1.000000 0.434065 0.178551
1.000000 0.432747 0.177234
1.000000 0.432747 0.177234
0.025223 0.583522 0.191679
0.150456 0.580603 0.188760
0.315753 0.576750 0.184907
0.492663 0.572627 0.180783
0.673265 0.568417 0.176574
0.855414 0.564171 0.172328
1.000000 0.559907 0.168064
1.000000 0.558630 0.166787
1.000000 0.558630 0.166787
0.043490 0.708736 0.180563
0.154744 0.706143 0.177970
0.313507 0.702442 0.174269
0.487492 0.698387 0.170214
0.666565 0.694213 0.166040
0.847807 0.689988 0.161815
1.000000 0.685738 0.157565
1.000000 0.684513 0.156340
1.000000 0.684513 0.156340
0.062397 0.833935 0.169432
0.161381 0.831628 0.167125
0.312989 0.828094 0.163591
0.483523 0.824119 0.159616
0.660744 0.819988 0.155485
0.840874 0.815789 0.151286
1.000000 0.811556 0.147053
1.000000 0.810396 0.145893
1.000000 0.810396 0.145893
0.081712 0.959125 0.158292
0.170063 0.957065 0.156232
0.314164 0.953706 0.152873
0.480779 0.949823 0.148990
0.655833 0.945742 0.144909
0.834647 0.941574 0.140741
1.000000 0.937361 0.136528
1.000000 0.936280 0.135447
1.000000 0.936280 0.135447
0.008475 0.000000 0.387230
0.175511 0.000000 0.383337
0.352989 0.000000 0.379200
0.534822 0.000000 0.374961
0.717917 0.000000 0.370694
0.901528 0.000000 0.366414
1.000000 0.000000 0.362128
1.000000 0.000000 0.360768
1.000000 0.000000 0.360768
0.003493 0.080335 0.377169
0.166981 0.076525 0.373358
0.343756 0.072404 0.369238
0.525322 0.068172 0.365006
0.708285 0.063907 0.360741
0.891818 0.059629 0.356463
1.000000 0.055344 0.352178
1.000000 0.053989 0.350822
1.000000 0.053989 0.350822
0.004486 0.205952 0.366456
0.160094 0.202325 0.362829
0.335115 0.198245 0.358749
0.516007 0.194029 0.354532
0.698634 0.189772 0.350276
0.881972 0.185498 0.346002
1.000000 0.181217 0.341720
1.000000 0.179872 0.340375
1.000000 0.179872 0.340375
0.011489 0.331428 0.355602
0.155844 0.328064 0.352237
0.327864 0.324054 0.348228
0.507572 0.319865 0.344039
0.689605 0.315622 0.339796
0.872595 0.311356 0.335530
1.000000 0.307080 0.331254
1.000000 0.305755 0.329929
1.000000 0.305755 0.329929
0.022812 0.456804 0.344648
0.154387 0.453737 0.341581
0.322168 0.449826 0.337670
0.500137 0.445678 0.333522
0.681284 0.441455 0.329299
0.863755 0.437202 0.325046
1.000000 0.432933 0.320777
1.000000 0.431638 0.319482
1.000000 0.431638 0.319482
0.036977 0.582114 0.333628
0.155689 0.579346 0.330860
0.318132 0.575560 0.327074
0.493789 0.571466 0.322980
0.673741 0.567271 0.318785
0.855506 0.563034 0.314548
1.000000 0.558776 0.310290
1.000000 0.557521 0.309035
1.000000 0.557521 0.309035
0.052976 0.707380 0.322564
0.159580 0.704895 0.320080
0.315803 0.701254 0.316438
0.488594 0.697226 0.312410
0.667031 0.693067 0.308251
0.847894 0.688851 0.304035
1.000000 0.684607 0.299791
1.000000 0.683404 0.298588
1.000000 0.683404 0.298588
0.070176 0.832619 0.311473
0.165807 0.830390 0.309244
0.315189 0.826908 0.305762
0.484594 0.822959 0.301813
0.661198 0.818843 0.297697
0.840955 0.814653 0.293507
1.000000 0.810425 0.289279
1.000000 0.809287 0.288142
1.000000 0.809287 0.288142
0.088184 0.957839 0.300363
0.174084 0.955837 0.298361
0.316258 0.952523 0.295047
0.481815 0.948664 0.291188
0.656273 0.944597 0.287121
0.834721 0.940438 0.282962
1.000000 0.936230 0.278754
1.000000 0.935171 0.277695
1.000000 0.935171 0.277695
0.039877 0.000000 0.528721
0.185065 0.000000 0.525336
0.357329 0.000000 0.521321
0.537135 0.000000 0.517130
0.719217 0.000000 0.512886
0.902236 0.000000 0.508620
1.000000 0.000000 0.504343
1.000000 0.000000 0.503016
1.000000 0.000000 0.503016
0.033444 0.078503 0.518693
0.176463 0.075169 0.515360
0.348084 0.071168 0.511359
0.527632 0.066983 0.507174
0.709583 0.062742 0.502933
0.892526 0.058478 0.498669
1.000000 0.054202 0.494393
1.000000 0.052880 0.493071
1.000000 0.052880 0.493071
0.031450 0.204189 0.508050
0.169398 0.200973 0.504834
0.339413 0.197010 0.500871
0.518309 0.192840 0.496701
0.699929 0.188607 0.492468
0.882678 0.184347 0.488208
1.000000 0.180074 0.483935
1.000000 0.178763 0.482624
1.000000 0.178763 0.482624
0.034665 0.329753 0.497284
0.164850 0.326719 0.494250
0.332111 0.322820 0.490351
0.509859 0.318677 0.486208
0.690894 0.314457 0.481988
0.873298 0.310205 0.477736
1.000000 0.305938 0.473469
1.000000 0.304646 0.472177
1.000000 0.304646 0.472177
0.042270 0.455216 0.486417
0.162986 0.452402 0.483603
0.326340 0.448594 0.479795
0.502402 0.444490 0.475691
0.682564 0.440291 0.471492
0.864454 0.436051 0.467252
1.000000 0.431791 0.462992
1.000000 0.430529 0.461730
1.000000 0.430529 0.461730
0.053215 0.580600 0.475472
0.163797 0.578023 0.472894
0.322205 0.574330 0.469201
0.496025 0.570279 0.465150
0.675010 0.566107 0.460978
0.856200 0.561883 0.456754
1.000000 0.557634 0.452505
1.000000 0.556412 0.451283
1.000000 0.556412 0.451283
0.066575 0.705929 0.464470
0.167141 0.703584 0.462126
0.319756 0.700027 0.458568
0.490792 0.696040 0.454582
0.668285 0.691903 0.450444
0.848580 0.687700 0.446242
1.000000 0.683465 0.442006
1.000000 0.682295 0.440837
1.000000 0.682295 0.440837
0.081653 0.831217 0.453428
0.172799 0.829092 0.451304
0.319003 0.825684 0.447896
0.486747 0.821774 0.443986
0.662434 0.817679 0.439890
0.841633 0.813502 0.435713
1.000000 0.809283 0.431494
1.000000 0.808179 0.430390
1.000000 0.808179 0.430390
0.097959 0.956476 0.442358
0.180507 0.954552 0.440434
0.319916 0.951303 0.437184
0.483916 0.947480 0.433361
0.657488 0.943434 0.429315
0.835389 0.939287 0.425169
1.000000 0.935088 0.420970
1.000000 0.934062 0.419943
1.000000 0.934062 0.419943
0.071268 0.000000 0.670211
0.197745 0.000000 0.667263
0.363551 0.000000 0.663398
0.540680 0.000000 0.659270
0.721396 0.000000 0.655057
0.903612 0.000000 0.650810
1.000000 0.000000 0.646545
1.000000 0.000000 0.645264
1.000000 0.000000 0.645264
0.063983 0.076656 0.660204
0.189059 0.073740 0.657289
0.354291 0.069889 0.653437
0.531172 0.065766 0.649314
0.711760 0.061556 0.645105
0.893901 0.057311 0.640859
1.000000 0.053047 0.636595
1.000000 0.051771 0.635319
1.000000 0.051771 0.635319
0.060070 0.202387 0.649605
0.181785 0.199550 0.646768
0.345581 0.195732 0.642950
0.521838 0.191623 0.638841
0.702102 0.187421 0.634639
0.884051 0.183180 0.630398
1.000000 0.178919 0.626138
1.000000 0.177654 0.624872
1.000000 0.177654 0.624872
0.060540 0.328015 0.638904
0.176886 0.325303 0.636192
0.338212 0.321543 0.632431
0.513369 0.317460 0.628349
0.693059 0.313272 0.624160
0.874668 0.309038 0.619927
1.000000 0.304783 0.615671
1.000000 0.303537 0.614425
1.000000 0.303537 0.614425
0.065081 0.453549 0.628108
0.174538 0.450998 0.625556
0.332343 0.447319 0.621878
0.505882 0.443274 0.617833
0.684718 0.439106 0.613664
0.865818 0.434884 0.609443
1.000000 0.430636 0.605195
1.000000 0.429420 0.603978
1.000000 0.429420 0.603978
0.073052 0.579003 0.617232
0.174756 0.576632 0.614861
0.328079 0.573058 0.611287
0.499465 0.569064 0.607292
0.677147 0.564922 0.603150
0.857556 0.560717 0.598945
1.000000 0.556479 0.594708
1.000000 0.555303 0.593532
1.000000 0.555303 0.593532
0.083745 0.704393 0.606292
0.177436 0.702210 0.604108
0.325473 0.698759 0.600657
0.494182 0.694826 0.596725
0.670403 0.690719 0.592617
0.849927 0.686534 0.588433
1.000000 0.682310 0.584209
1.000000 0.681186 0.583085
1.000000 0.681186 0.583085
0.096529 0.829735 0.595304
0.182392 0.827734 0.593302
0.324536 0.824420 0.589989
0.490077 0.820562 0.586130
0.664526 0.816495 0.582064
0.842969 0.812336 0.577905
1.000000 0.808129 0.573697
1.000000 0.807070 0.572638
1.000000 0.807070 0.572638
0.110897 0.955040 0.584279
0.189393 0.953210 0.582449
0.325245 0.950044 0.579282
0.487176 0.946269 0.575508
0.659551 0.942251 0.571490
0.836711 0.938121 0.567360
1.000000 0.933934 0.563173
1.000000 0.932953 0.562191
1.000000 0.932953 0.562191
0.102659 0.000000 0.811702
0.213272 0.000000 0.809124
0.371697 0.000000 0.805431
0.545525 0.000000 0.801379
0.724514 0.000000 0.797207
0.905706 0.000000 0.792983
1.000000 0.000000 0.788734
1.000000 0.000000 0.787512
1.000000 0.000000 0.787512
0.094821 0.074802 0.801708
0.204495 0.072246 0.799151
0.362418 0.068565 0.795470
0.536012 0.064518 0.791424
0.714877 0.060349 0.787254
0.895995 0.056127 0.783033
1.000000 0.051879 0.778784
1.000000 0.050662 0.777567
1.000000 0.050662 0.777567
0.089611 0.200563 0.791139
0.196998 0.198060 0.788636
0.353663 0.194408 0.784984
0.526663 0.190376 0.780951
0.705213 0.186214 0.776789
0.886142 0.181997 0.772572
1.000000 0.177751 0.768327
1.000000 0.176545 0.767120
1.000000 0.176545 0.767120
0.088088 0.326238 0.780484
0.191719 0.323823 0.778068
0.346211 0.320222 0.774467
0.518169 0.316213 0.770459
0.696159 0.312065 0.766310
0.876754 0.307855 0.762101
1.000000 0.303615 0.757860
1.000000 0.302428 0.756673
1.000000 0.302428 0.756673
0.090206 0.451829 0.769744
0.188842 0.449530 0.767445
0.340224 0.446001 0.763917
0.510644 0.442029 0.759944
0.687804 0.437899 0.755815
0.867897 0.433701 0.751617
1.000000 0.429468 0.747384
1.000000 0.428311 0.746227
1.000000 0.428311 0.746227
0.095617 0.577342 0.758928
0.188407 0.575179 0.756765
0.335803 0.571744 0.753329
0.504178 0.567819 0.749405
0.680213 0.563716 0.745301
0.859626 0.559534 0.741119
1.000000 0.555311 0.736897
1.000000 0.554194 0.735780
1.000000 0.554194 0.735780
0.103834 0.702790 0.748046
0.190344 0.700774 0.746030
0.333005 0.697449 0.742704
0.498832 0.693583 0.738839
0.673443 0.689513 0.734769
0.851985 0.685351 0.730607
1.000000 0.681142 0.726398
1.000000 0.680077 0.725333
1.000000 0.680077 0.725333
0.114347 0.828185 0.737111
0.194505 0.826317 0.735242
0.331845 0.823115 0.732041
0.494652 0.819320 0.728246
0.667535 0.815290 0.724216
0.845011 0.811154 0.720079
1.000000 0.806961 0.715887
1.000000 0.805961 0.714886
1.000000 0.805961 0.714886
0.126700 0.953537 0.726133
0.200692 0.951812 0.724408
0.332304 0.948744 0.721340
0.491663 0.945030 0.717625
0.662523 0.941047 0.713643
0.838735 0.936939 0.709535
1.000000 0.932767 0.705363
1.000000 0.931844 0.704440
1.000000 0.931844 0.704440
0.134049 0.000000 0.953193
0.231290 0.000000 0.950926
0.381755 0.000000 0.947419
0.551713 0.000000 0.943457
0.728619 0.000000 0.939334
0.908560 0.000000 0.935139
1.000000 0.000000 0.930909
1.000000 0.000000 0.929761
1.000000 0.000000 0.929761
0.125830 0.072945 0.943207
0.222422 0.070693 0.940956
0.372455 0.067196 0.937458
0.542193 0.063239 0.933502
0.718979 0.059119 0.929381
0.898847 0.054926 0.925189
1.000000 0.050697 0.920959
1.000000 0.049553 0.919815
1.000000 0.049553 0.919815
0.119700 0.198727 0.932660
0.214698 0.196513 0.930445
0.363646 0.193041 0.926974
0.532827 0.189097 0.923030
0.709308 0.184984 0.918916
0.888991 0.180795 0.914728
1.000000 0.176569 0.910502
1.000000 0.175436 0.909368
1.000000 0.175436 0.909368
0.116702 0.324437 0.922039
0.209034 0.322284 0.919887
0.356101 0.318856 0.916459
0.524303 0.314936 0.912538
0.700243 0.310835 0.908437
0.879597 0.306654 0.904257
1.000000 0.302433 0.900035
1.000000 0.301319 0.898922
1.000000 0.301319 0.898922
0.116922 0.450071 0.911344
0.205615 0.448004 0.909277
0.349977 0.444639 0.905912
0.516734 0.440752 0.902025
0.691869 0.436669 0.897942
0.870732 0.432500 0.893773
1.000000 0.428286 0.889559
1.000000 0.427202 0.888475
1.000000 0.427202 0.888475
0.120200 0.575634 0.900577
0.204502 0.573669 0.898612
0.345376 0.570386 0.895329
0.510208 0.566544 0.891486
0.684254 0.562487 0.887429
0.862449 0.558333 0.883276
1.000000 0.554129 0.879072
1.000000 0.553085 0.878028
1.000000 0.553085 0.878028
0.126224 0.701134 0.889747
0.205658 0.699282 0.887895
0.342357 0.696096 0.884709
0.504787 0.692310 0.880923
0.677453 0.688285 0.876898
0.854793 0.684151 0.872764
1.000000 0.679961 0.868574
1.000000 0.678968 0.867581
1.000000 0.678968 0.867581
0.134615 0.826578 0.878861
0.208971 0.824845 0.877128
0.340938 0.821768 0.874051
0.500516 0.818049 0.870332
0.671507 0.814063 0.866346
0.847800 0.809954 0.862237
1.000000 0.805780 0.858063
1.000000 0.804852 0.857135
1.000000 0.804852 0.857135
0.144994 0.951975 0.867929
0.214277 0.950360 0.866314
0.341106 0.947404 0.863357
0.497422 0.943761 0.859714
0.666450 0.939821 0.855774
0.841502 0.935740 0.851693
1.000000 0.931586 0.847539
1.000000 0.930735 0.846688
1.000000 0.930735 0.846688
0.165440 0.000000 1.000000
0.251427 0.000000 1.000000
0.393669 0.000000 1.000000
0.559265 0.000000 1.000000
0.733745 0.000000 1.000000
0.912206 0.000000 1.000000
1.000000 0.000000 1.000000
1.000000 0.000000 1.000000
1.000000 0.000000 1.000000
0.156943 0.071085 1.000000
0.242472 0.069091 1.000000
0.384346 0.065784 1.000000
0.549737 0.061929 1.000000
0.724101 0.057864 1.000000
0.902492 0.053706 1.000000
1.000000 0.049500 1.000000
1.000000 0.048444 1.000000
1.000000 0.048444 1.000000
0.150136 0.196883 1.000000
0.234529 0.194916 1.000000
0.375478 0.191630 1.000000
0.540352 0.187787 1.000000
0.714423 0.183730 1.000000
0.892632 0.179576 1.000000
1.000000 0.175372 1.000000
1.000000 0.174327 1.000000
1.000000 0.174327 1.000000
0.146019 0.322618 1.000000
0.228489 0.320696 1.000000
0.367831 0.317448 1.000000
0.531793 0.313626 1.000000
0.705343 0.309581 1.000000
0.883231 0.305434 1.000000
1.000000 0.301236 1.000000
1.000000 0.300210 1.000000
1.000000 0.300210 1.000000
0.144745 0.448288 1.000000
0.224538 0.446428 1.000000
0.361556 0.443234 1.000000
0.524174 0.439444 1.000000
0.696948 0.435416 1.000000
0.874355 0.431281 1.000000
1.000000 0.427090 1.000000
1.000000 0.426093 1.000000
1.000000 0.426093 1.000000
0.146266 0.573892 1.000000
0.222754 0.572109 1.000000
0.356756 0.568986 1.000000
0.517578 0.565237 1.000000
0.689304 0.561234 1.000000
0.866059 0.557114 1.000000
1.000000 0.552933 1.000000
1.000000 0.551976 1.000000
1.000000 0.551976 1.000000
0.150397 0.699435 1.000000
0.223125 0.697740 1.000000
0.353490 0.694701 1.000000
0.512070 0.691005 1.000000
0.682466 0.687033 1.000000
0.858384 0.682933 1.000000
1.000000 0.678764 1.000000
1.000000 0.677859 1.000000
1.000000 0.677859 1.000000
0.156874 0.824924 1.000000
0.225573 0.823323 1.000000
0.351784 0.820381 1.000000
0.507695 0.816747 1.000000
0.676475 0.812812 1.000000
0.851370 0.808736 1.000000
1.000000 0.804583 1.000000
1.000000 0.803743 0.999383
1.000000 0.803743 0.999383
0.165397 0.950365 1.000000
0.229970 0.948860 1.000000
0.351628 0.946024 1.000000
0.504479 0.942461 1.000000
0.671366 0.938571 0.997881
0.845046 0.934523 0.993833
1.000000 0.930390 0.989700
1.000000 0.929626 0.988936
1.000000 0.929626 0.988936
