UWC_LUTs/UWC_04_Rechauffe_Neutre.cube
# UWC Rechauffe neutre
# UWC — correction couleur sous-marine · entree Rec.709
TITLE "UWC Rechauffe neutre"
LUT_3D_SIZE 5
DOMAIN_MIN 0 0 0
DOMAIN_MAX 1 1 1
0.000000 0.000000 0.000000
0.278409 0.000000 0.000000
0.567171 0.000000 0.000000
0.855932 0.000000 0.000000
1.000000 0.000000 0.000000
0.000000 0.242079 0.000000
0.270526 0.239136 0.000000
0.558617 0.236189 0.000000
0.847171 0.233238 0.000000
1.000000 0.231200 0.000000
0.000000 0.499728 0.000000
0.265194 0.496970 0.000000
0.551166 0.494046 0.000000
0.839055 0.491101 0.000000
1.000000 0.489073 0.000000
0.023768 0.757220 0.000000
0.263062 0.754772 0.000000
0.545161 0.751887 0.000000
0.831806 0.748956 0.000000
1.000000 0.746946 0.000000
0.053464 1.000000 0.000000
0.264390 1.000000 0.000000
0.540806 1.000000 0.000000
0.825556 1.000000 0.000000
1.000000 1.000000 0.000000
0.000000 0.000000 0.243155
0.278641 0.000000 0.240209
0.566766 0.000000 0.237262
0.855331 0.000000 0.234311
1.000000 0.000000 0.232272
0.000000 0.241122 0.234018
0.270753 0.238233 0.231130
0.558212 0.235293 0.228190
0.846569 0.232344 0.225241
1.000000 0.230309 0.223205
0.001142 0.498771 0.224702
0.265404 0.496068 0.222000
0.550759 0.493150 0.219081
0.838453 0.490208 0.216139
1.000000 0.488182 0.214113
0.027559 0.756281 0.215247
0.263243 0.753871 0.212837
0.544751 0.750992 0.209958
0.831203 0.748062 0.207028
1.000000 0.746055 0.205021
0.055819 1.000000 0.205773
0.264529 1.000000 0.203639
0.540392 1.000000 0.200817
0.824952 1.000000 0.197907
1.000000 1.000000 0.195929
0.010448 0.000000 0.503187
0.281311 0.000000 0.500417
0.567425 0.000000 0.497491
0.855359 0.000000 0.494546
1.000000 0.000000 0.492517
0.008207 0.240012 0.494051
0.273407 0.237299 0.491339
0.558869 0.234380 0.488419
0.846597 0.231437 0.485477
1.000000 0.229411 0.483450
0.019872 0.497672 0.484747
0.268006 0.495135 0.482209
0.551411 0.492236 0.479310
0.838480 0.489300 0.476374
1.000000 0.487284 0.474358
0.040284 0.755244 0.475353
0.265754 0.752938 0.473047
0.545392 0.750078 0.470187
0.831227 0.747155 0.467264
1.000000 0.745157 0.465266
0.064779 1.000000 0.465917
0.266911 1.000000 0.463850
0.541017 1.000000 0.461047
0.824972 1.000000 0.458143
1.000000 1.000000 0.456174
0.045608 0.000000 0.763064
0.287026 0.000000 0.760595
0.569456 0.000000 0.757706
0.856209 0.000000 0.754773
1.000000 0.000000 0.752762
0.041619 0.238763 0.753945
0.279092 0.236334 0.751516
0.560897 0.233452 0.748634
0.847446 0.230521 0.745704
1.000000 0.228513 0.743696
0.047162 0.496486 0.744703
0.273600 0.494170 0.742388
0.553429 0.491309 0.739526
0.839327 0.488385 0.736602
1.000000 0.486386 0.734603
0.061098 0.754124 0.735376
0.271182 0.751975 0.733227
0.547391 0.749151 0.730402
0.832069 0.746239 0.727491
1.000000 0.744260 0.725511
0.080667 1.000000 0.725991
0.272106 1.000000 0.724033
0.542986 1.000000 0.721262
0.825807 1.000000 0.718370
1.000000 1.000000 0.716419
0.082653 0.000000 1.000000
0.296043 0.000000 1.000000
0.573056 0.000000 1.000000
0.858008 0.000000 1.000000
1.000000 0.000000 1.000000
0.077110 0.237493 1.000000
0.288067 0.235335 1.000000
0.564492 0.232508 1.000000
0.849244 0.229596 1.000000
1.000000 0.227615 1.000000
0.078662 0.495257 1.000000
0.282444 0.493173 1.000000
0.557007 0.490365 0.999725
0.841120 0.487459 0.996819
1.000000 0.485489 0.994848
0.087528 0.752947 0.995341
0.279793 0.750980 0.993375
0.550940 0.748207 0.990602
0.833856 0.745314 0.987708
1.000000 0.743362 0.985756
0.102325 1.000000 0.986005
0.280381 1.000000 0.984184
0.546492 1.000000 0.981462
0.827582 1.000000 0.978587
1.000000 1.000000 0.976664
