UWC_LUTs/UWC_04_Rechauffe_Neutre.cube
# UWC Rechauffe neutre
# UWC — correction couleur sous-marine · entree Rec.709
TITLE "UWC Rechauffe neutre"
LUT_3D_SIZE 33
DOMAIN_MIN 0 0 0
DOMAIN_MAX 1 1 1
0.000000 0.000000 0.000000
0.025146 0.000000 0.000000
0.061838 0.000000 0.000000
0.097933 0.000000 0.000000
0.134028 0.000000 0.000000
0.170123 0.000000 0.000000
0.206219 0.000000 0.000000
0.242314 0.000000 0.000000
0.278409 0.000000 0.000000
0.314504 0.000000 0.000000
0.350599 0.000000 0.000000
0.386695 0.000000 0.000000
0.422790 0.000000 0.000000
0.458885 0.000000 0.000000
0.494980 0.000000 0.000000
0.531075 0.000000 0.000000
0.567171 0.000000 0.000000
0.603266 0.000000 0.000000
0.639361 0.000000 0.000000
0.675456 0.000000 0.000000
0.711552 0.000000 0.000000
0.747647 0.000000 0.000000
0.783742 0.000000 0.000000
0.819837 0.000000 0.000000
0.855932 0.000000 0.000000
0.892028 0.000000 0.000000
0.928123 0.000000 0.000000
0.964218 0.000000 0.000000
1.000000 0.000000 0.000000
1.000000 0.000000 0.000000
1.000000 0.000000 0.000000
1.000000 0.000000 0.000000
1.000000 0.000000 0.000000
0.000000 0.016663 0.000000
0.024354 0.016253 0.000000
0.060935 0.015878 0.000000
0.096970 0.015510 0.000000
0.133030 0.015141 0.000000
0.169101 0.014772 0.000000
0.205180 0.014403 0.000000
0.241263 0.014034 0.000000
0.277349 0.013665 0.000000
0.313437 0.013296 0.000000
0.349526 0.012927 0.000000
0.385617 0.012558 0.000000
0.421708 0.012189 0.000000
0.457800 0.011820 0.000000
0.493893 0.011450 0.000000
0.529985 0.011081 0.000000
0.566079 0.010712 0.000000
0.602172 0.010343 0.000000
0.638266 0.009974 0.000000
0.674359 0.009605 0.000000
0.710453 0.009236 0.000000
0.746547 0.008866 0.000000
0.782642 0.008497 0.000000
0.818736 0.008128 0.000000
0.854830 0.007759 0.000000
0.890925 0.007390 0.000000
0.927019 0.007021 0.000000
0.963114 0.006652 0.000000
0.999209 0.006282 0.000000
1.000000 0.005913 0.000000
1.000000 0.005718 0.000000
1.000000 0.005718 0.000000
1.000000 0.005718 0.000000
0.000000 0.048737 0.000000
0.023590 0.048326 0.000000
0.060046 0.047953 0.000000
0.096014 0.047585 0.000000
0.132032 0.047217 0.000000
0.168077 0.046848 0.000000
0.204137 0.046480 0.000000
0.240206 0.046111 0.000000
0.276282 0.045742 0.000000
0.312362 0.045373 0.000000
0.348445 0.045004 0.000000
0.384530 0.044635 0.000000
0.420617 0.044266 0.000000
0.456705 0.043896 0.000000
0.492794 0.043527 0.000000
0.528884 0.043158 0.000000
0.564975 0.042789 0.000000
0.601067 0.042420 0.000000
0.637158 0.042051 0.000000
0.673251 0.041682 0.000000
0.709343 0.041313 0.000000
0.745436 0.040943 0.000000
0.781529 0.040574 0.000000
0.817622 0.040205 0.000000
0.853716 0.039836 0.000000
0.889809 0.039467 0.000000
0.925903 0.039098 0.000000
0.961997 0.038729 0.000000
0.998091 0.038359 0.000000
1.000000 0.037990 0.000000
1.000000 0.037795 0.000000
1.000000 0.037795 0.000000
1.000000 0.037795 0.000000
0.000000 0.080965 0.000000
0.022980 0.080555 0.000000
0.059255 0.080184 0.000000
0.095126 0.079817 0.000000
0.131087 0.079449 0.000000
0.167093 0.079081 0.000000
0.203126 0.078712 0.000000
0.239176 0.078344 0.000000
0.275237 0.077975 0.000000
0.311305 0.077606 0.000000
0.347378 0.077237 0.000000
0.383456 0.076868 0.000000
0.419537 0.076499 0.000000
0.455620 0.076130 0.000000
0.491705 0.075761 0.000000
0.527791 0.075392 0.000000
0.563878 0.075023 0.000000
0.599967 0.074654 0.000000
0.636056 0.074285 0.000000
0.672146 0.073916 0.000000
0.708236 0.073546 0.000000
0.744327 0.073177 0.000000
0.780419 0.072808 0.000000
0.816511 0.072439 0.000000
0.852603 0.072070 0.000000
0.888695 0.071701 0.000000
0.924788 0.071332 0.000000
0.960881 0.070963 0.000000
0.996974 0.070593 0.000000
1.000000 0.070224 0.000000
1.000000 0.070029 0.000000
1.000000 0.070029 0.000000
1.000000 0.070029 0.000000
0.000000 0.113192 0.000000
0.022550 0.112782 0.000000
0.058581 0.112413 0.000000
0.094324 0.112048 0.000000
0.130206 0.111681 0.000000
0.166162 0.111313 0.000000
0.202159 0.110945 0.000000
0.238182 0.110576 0.000000
0.274223 0.110208 0.000000
0.310275 0.109839 0.000000
0.346337 0.109470 0.000000
0.382404 0.109101 0.000000
0.418476 0.108732 0.000000
0.454552 0.108363 0.000000
0.490631 0.107995 0.000000
0.526712 0.107625 0.000000
0.562795 0.107256 0.000000
0.598879 0.106887 0.000000
0.634965 0.106518 0.000000
0.671052 0.106149 0.000000
0.707140 0.105780 0.000000
0.743229 0.105411 0.000000
0.779318 0.105042 0.000000
0.815408 0.104673 0.000000
0.851498 0.104304 0.000000
0.887589 0.103935 0.000000
0.923680 0.103566 0.000000
0.959771 0.103196 0.000000
0.995863 0.102827 0.000000
1.000000 0.102458 0.000000
1.000000 0.102263 0.000000
1.000000 0.102263 0.000000
1.000000 0.102263 0.000000
0.000000 0.145417 0.000000
0.022316 0.145007 0.000000
0.058031 0.144641 0.000000
0.093612 0.144277 0.000000
0.129396 0.143912 0.000000
0.165286 0.143544 0.000000
0.201238 0.143177 0.000000
0.237228 0.142809 0.000000
0.273243 0.142440 0.000000
0.309276 0.142072 0.000000
0.345321 0.141703 0.000000
0.381375 0.141334 0.000000
0.417437 0.140966 0.000000
0.453503 0.140597 0.000000
0.489574 0.140228 0.000000
0.525649 0.139859 0.000000
0.561726 0.139490 0.000000
0.597806 0.139121 0.000000
0.633887 0.138752 0.000000
0.669970 0.138383 0.000000
0.706054 0.138014 0.000000
0.742140 0.137645 0.000000
0.778226 0.137276 0.000000
0.814314 0.136907 0.000000
0.850402 0.136538 0.000000
0.886490 0.136168 0.000000
0.922580 0.135799 0.000000
0.958669 0.135430 0.000000
0.994759 0.135061 0.000000
1.000000 0.134692 0.000000
1.000000 0.134497 0.000000
1.000000 0.134497 0.000000
1.000000 0.134497 0.000000
0.000000 0.177640 0.000000
0.022272 0.177230 0.000000
0.057612 0.176868 0.000000
0.092995 0.176506 0.000000
0.128660 0.176142 0.000000
0.164470 0.175775 0.000000
0.200366 0.175408 0.000000
0.236315 0.175041 0.000000
0.272299 0.174673 0.000000
0.308307 0.174304 0.000000
0.344333 0.173936 0.000000
0.380371 0.173567 0.000000
0.416419 0.173199 0.000000
0.452475 0.172830 0.000000
0.488536 0.172461 0.000000
0.524603 0.172092 0.000000
0.560673 0.171723 0.000000
0.596746 0.171354 0.000000
0.632822 0.170985 0.000000
0.668901 0.170616 0.000000
0.704981 0.170247 0.000000
0.741062 0.169878 0.000000
0.777145 0.169509 0.000000
0.813230 0.169140 0.000000
0.849315 0.168771 0.000000
0.885401 0.168402 0.000000
0.921488 0.168033 0.000000
0.957575 0.167664 0.000000
0.993663 0.167295 0.000000
1.000000 0.166926 0.000000
1.000000 0.166731 0.000000
1.000000 0.166731 0.000000
1.000000 0.166731 0.000000
0.000000 0.209861 0.000000
0.022418 0.209451 0.000000
0.057327 0.209094 0.000000
0.092479 0.208734 0.000000
0.128001 0.208371 0.000000
0.163717 0.208006 0.000000
0.199546 0.207639 0.000000
0.235446 0.207272 0.000000
0.271393 0.206904 0.000000
0.307372 0.206536 0.000000
0.343374 0.206168 0.000000
0.379393 0.205800 0.000000
0.415425 0.205431 0.000000
0.451468 0.205063 0.000000
0.487518 0.204694 0.000000
0.523575 0.204325 0.000000
0.559636 0.203956 0.000000
0.595702 0.203587 0.000000
0.631772 0.203219 0.000000
0.667844 0.202850 0.000000
0.703919 0.202481 0.000000
0.739996 0.202112 0.000000
0.776075 0.201743 0.000000
0.812156 0.201374 0.000000
0.848238 0.201005 0.000000
0.884321 0.200636 0.000000
0.920405 0.200267 0.000000
0.956490 0.199898 0.000000
0.992575 0.199529 0.000000
1.000000 0.199159 0.000000
1.000000 0.198966 0.000000
1.000000 0.198966 0.000000
1.000000 0.198966 0.000000
0.000000 0.242079 0.000000
0.022758 0.241670 0.000000
0.057181 0.241318 0.000000
0.092067 0.240961 0.000000
0.127424 0.240599 0.000000
0.163030 0.240235 0.000000
0.198781 0.239869 0.000000
0.234623 0.239503 0.000000
0.270526 0.239136 0.000000
0.306471 0.238768 0.000000
0.342445 0.238400 0.000000
0.378442 0.238032 0.000000
0.414456 0.237664 0.000000
0.450483 0.237295 0.000000
0.486520 0.236927 0.000000
0.522565 0.236558 0.000000
0.558617 0.236189 0.000000
0.594674 0.235821 0.000000
0.630736 0.235452 0.000000
0.666802 0.235083 0.000000
0.702871 0.234714 0.000000
0.738943 0.234345 0.000000
0.775017 0.233976 0.000000
0.811093 0.233607 0.000000
0.847171 0.233238 0.000000
0.883250 0.232869 0.000000
0.919331 0.232500 0.000000
0.955413 0.232131 0.000000
0.991496 0.231762 0.000000
1.000000 0.231393 0.000000
1.000000 0.231200 0.000000
1.000000 0.231200 0.000000
1.000000 0.231200 0.000000
0.000000 0.274295 0.000000
0.023291 0.273887 0.000000
0.057176 0.273540 0.000000
0.091761 0.273187 0.000000
0.126930 0.272827 0.000000
0.162410 0.272464 0.000000
0.198072 0.272099 0.000000
0.233849 0.271733 0.000000
0.269701 0.271367 0.000000
0.305606 0.270999 0.000000
0.341549 0.270632 0.000000
0.377520 0.270264 0.000000
0.413513 0.269896 0.000000
0.449521 0.269528 0.000000
0.485543 0.269159 0.000000
0.521575 0.268791 0.000000
0.557616 0.268422 0.000000
0.593663 0.268053 0.000000
0.629716 0.267685 0.000000
0.665774 0.267316 0.000000
0.701836 0.266947 0.000000
0.737902 0.266578 0.000000
0.773970 0.266209 0.000000
0.810041 0.265840 0.000000
0.846115 0.265471 0.000000
0.882190 0.265103 0.000000
0.918267 0.264734 0.000000
0.954345 0.264365 0.000000
0.990425 0.263996 0.000000
1.000000 0.263627 0.000000
1.000000 0.263434 0.000000
1.000000 0.263434 0.000000
1.000000 0.263434 0.000000
0.000000 0.306508 0.000000
0.024013 0.306102 0.000000
0.057313 0.305761 0.000000
0.091564 0.305411 0.000000
0.126522 0.305054 0.000000
0.161860 0.304692 0.000000
0.197421 0.304328 0.000000
0.233123 0.303963 0.000000
0.268919 0.303597 0.000000
0.304779 0.303230 0.000000
0.340686 0.302863 0.000000
0.376628 0.302496 0.000000
0.412596 0.302128 0.000000
0.448584 0.301760 0.000000
0.484589 0.301391 0.000000
0.520606 0.301023 0.000000
0.556633 0.300655 0.000000
0.592669 0.300286 0.000000
0.628712 0.299917 0.000000
0.664762 0.299549 0.000000
0.700816 0.299180 0.000000
0.736874 0.298811 0.000000
0.772936 0.298442 0.000000
0.809002 0.298074 0.000000
0.845070 0.297705 0.000000
0.881140 0.297336 0.000000
0.917213 0.296967 0.000000
0.953287 0.296598 0.000000
0.989363 0.296229 0.000000
1.000000 0.295860 0.000000
1.000000 0.295668 0.000000
1.000000 0.295668 0.000000
1.000000 0.295668 0.000000
0.000000 0.338718 0.000000
0.024919 0.338315 0.000000
0.057592 0.337981 0.000000
0.091478 0.337634 0.000000
0.126203 0.337279 0.000000
0.161382 0.336920 0.000000
0.196831 0.336557 0.000000
0.232449 0.336193 0.000000
0.268180 0.335827 0.000000
0.303991 0.335461 0.000000
0.339857 0.335094 0.000000
0.375766 0.334727 0.000000
0.411707 0.334359 0.000000
0.447672 0.333992 0.000000
0.483657 0.333624 0.000000
0.519657 0.333255 0.000000
0.555670 0.332887 0.000000
0.591693 0.332519 0.000000
0.627725 0.332150 0.000000
0.663764 0.331781 0.000000
0.699810 0.331413 0.000000
0.735860 0.331044 0.000000
0.771915 0.330675 0.000000
0.807974 0.330307 0.000000
0.844036 0.329938 0.000000
0.880101 0.329569 0.000000
0.916169 0.329200 0.000000
0.952239 0.328831 0.000000
0.988311 0.328462 0.000000
1.000000 0.328093 0.000000
1.000000 0.327902 0.000000
1.000000 0.327902 0.000000
1.000000 0.327902 0.000000
0.000000 0.370926 0.000000
0.026001 0.370527 0.000000
0.058012 0.370199 0.000000
0.091503 0.369857 0.000000
0.125973 0.369504 0.000000
0.160978 0.369146 0.000000
0.196302 0.368785 0.000000
0.231827 0.368422 0.000000
0.267488 0.368057 0.000000
0.303242 0.367691 0.000000
0.339064 0.367325 0.000000
0.374936 0.366958 0.000000
0.410846 0.366591 0.000000
0.446786 0.366223 0.000000
0.482749 0.365855 0.000000
0.518730 0.365487 0.000000
0.554727 0.365119 0.000000
0.590736 0.364751 0.000000
0.626755 0.364383 0.000000
0.662784 0.364014 0.000000
0.698819 0.363645 0.000000
0.734861 0.363277 0.000000
0.770908 0.362908 0.000000
0.806959 0.362540 0.000000
0.843015 0.362171 0.000000
0.879074 0.361802 0.000000
0.915136 0.361433 0.000000
0.951201 0.361064 0.000000
0.987269 0.360695 0.000000
1.000000 0.360327 0.000000
1.000000 0.360136 0.000000
1.000000 0.360136 0.000000
1.000000 0.360136 0.000000
0.000000 0.403131 0.000000
0.027252 0.402736 0.000000
0.058573 0.402416 0.000000
0.091640 0.402078 0.000000
0.125833 0.401728 0.000000
0.160649 0.401372 0.000000
0.195836 0.401012 0.000000
0.231259 0.400650 0.000000
0.266842 0.400286 0.000000
0.302534 0.399921 0.000000
0.338307 0.399555 0.000000
0.374138 0.399189 0.000000
0.410015 0.398822 0.000000
0.445926 0.398454 0.000000
0.481865 0.398087 0.000000
0.517826 0.397719 0.000000
0.553804 0.397351 0.000000
0.589798 0.396983 0.000000
0.625803 0.396615 0.000000
0.661819 0.396246 0.000000
0.697844 0.395878 0.000000
0.733875 0.395509 0.000000
0.769914 0.395141 0.000000
0.805957 0.394772 0.000000
0.842006 0.394404 0.000000
0.878058 0.394035 0.000000
0.914114 0.393666 0.000000
0.950174 0.393297 0.000000
0.986236 0.392929 0.000000
1.000000 0.392560 0.000000
1.000000 0.392370 0.000000
1.000000 0.392370 0.000000
1.000000 0.392370 0.000000
0.000000 0.435333 0.000000
0.028664 0.434944 0.000000
0.059272 0.434631 0.000000
0.091890 0.434298 0.000000
0.125786 0.433951 0.000000
0.160395 0.433597 0.000000
0.195434 0.433239 0.000000
0.230747 0.432878 0.000000
0.266243 0.432515 0.000000
0.301869 0.432150 0.000000
0.337587 0.431785 0.000000
0.373374 0.431419 0.000000
0.409214 0.431052 0.000000
0.445094 0.430685 0.000000
0.481006 0.430318 0.000000
0.516944 0.429951 0.000000
0.552903 0.429583 0.000000
0.588879 0.429215 0.000000
0.624870 0.428847 0.000000
0.660872 0.428479 0.000000
0.696884 0.428110 0.000000
0.732905 0.427742 0.000000
0.768934 0.427373 0.000000
0.804969 0.427005 0.000000
0.841009 0.426636 0.000000
0.877054 0.426268 0.000000
0.913104 0.425899 0.000000
0.949157 0.425530 0.000000
0.985214 0.425161 0.000000
1.000000 0.424793 0.000000
1.000000 0.424605 0.000000
1.000000 0.424605 0.000000
1.000000 0.424605 0.000000
0.000000 0.467532 0.000000
0.030227 0.467151 0.000000
0.060105 0.466845 0.000000
0.092252 0.466517 0.000000
0.125831 0.466173 0.000000
0.160219 0.465822 0.000000
0.195097 0.465465 0.000000
0.230290 0.465105 0.000000
0.265694 0.464743 0.000000
0.301246 0.464379 0.000000
0.336905 0.464014 0.000000
0.372644 0.463649 0.000000
0.408443 0.463283 0.000000
0.444289 0.462916 0.000000
0.480173 0.462549 0.000000
0.516086 0.462182 0.000000
0.552023 0.461814 0.000000
0.587981 0.461447 0.000000
0.623954 0.461079 0.000000
0.659942 0.460711 0.000000
0.695941 0.460342 0.000000
0.731951 0.459974 0.000000
0.767969 0.459606 0.000000
0.803994 0.459237 0.000000
0.840026 0.458869 0.000000
0.876063 0.458500 0.000000
0.912105 0.458132 0.000000
0.948152 0.457763 0.000000
0.984203 0.457394 0.000000
1.000000 0.457026 0.000000
1.000000 0.456839 0.000000
1.000000 0.456839 0.000000
1.000000 0.456839 0.000000
0.000000 0.499728 0.000000
0.031933 0.499356 0.000000
0.061070 0.499058 0.000000
0.092725 0.498734 0.000000
0.125969 0.498394 0.000000
0.160121 0.498045 0.000000
0.194827 0.497690 0.000000
0.229890 0.497331 0.000000
0.265194 0.496970 0.000000
0.300667 0.496608 0.000000
0.336262 0.496244 0.000000
0.371948 0.495879 0.000000
0.407704 0.495513 0.000000
0.443514 0.495147 0.000000
0.479366 0.494780 0.000000
0.515252 0.494413 0.000000
0.551166 0.494046 0.000000
0.587103 0.493678 0.000000
0.623059 0.493310 0.000000
0.659030 0.492943 0.000000
0.695015 0.492574 0.000000
0.731012 0.492206 0.000000
0.767018 0.491838 0.000000
0.803033 0.491470 0.000000
0.839055 0.491101 0.000000
0.875084 0.490733 0.000000
0.911119 0.490364 0.000000
0.947158 0.489996 0.000000
0.983202 0.489627 0.000000
1.000000 0.489258 0.000000
1.000000 0.489073 0.000000
1.000000 0.489073 0.000000
1.000000 0.489073 0.000000
0.000000 0.531921 0.000000
0.033773 0.531560 0.000000
0.062163 0.531269 0.000000
0.093308 0.530951 0.000000
0.126199 0.530614 0.000000
0.160101 0.530268 0.000000
0.194623 0.529915 0.000000
0.229547 0.529558 0.000000
0.264744 0.529198 0.000000
0.300132 0.528836 0.000000
0.335658 0.528472 0.000000
0.371288 0.528108 0.000000
0.406997 0.527743 0.000000
0.442767 0.527377 0.000000
0.478586 0.527011 0.000000
0.514443 0.526644 0.000000
0.550331 0.526277 0.000000
0.586246 0.525909 0.000000
0.622182 0.525542 0.000000
0.658137 0.525174 0.000000
0.694106 0.524806 0.000000
0.730089 0.524438 0.000000
0.766083 0.524070 0.000000
0.802087 0.523702 0.000000
0.838099 0.523334 0.000000
0.874118 0.522965 0.000000
0.910144 0.522597 0.000000
0.946176 0.522228 0.000000
0.982213 0.521860 0.000000
1.000000 0.521491 0.000000
1.000000 0.521307 0.000000
1.000000 0.521307 0.000000
1.000000 0.521307 0.000000
0.001668 0.564111 0.000000
0.035738 0.563762 0.000000
0.063380 0.563480 0.000000
0.094001 0.563166 0.000000
0.126523 0.562834 0.000000
0.160160 0.562490 0.000000
0.194487 0.562139 0.000000
0.229264 0.561783 0.000000
0.264346 0.561424 0.000000
0.299642 0.561063 0.000000
0.335095 0.560701 0.000000
0.370665 0.560337 0.000000
0.406323 0.559972 0.000000
0.442050 0.559607 0.000000
0.477832 0.559241 0.000000
0.513658 0.558874 0.000000
0.549520 0.558508 0.000000
0.585411 0.558141 0.000000
0.621326 0.557773 0.000000
0.657262 0.557406 0.000000
0.693215 0.557038 0.000000
0.729183 0.556670 0.000000
0.765163 0.556302 0.000000
0.801155 0.555934 0.000000
0.837156 0.555566 0.000000
0.873165 0.555198 0.000000
0.909182 0.554829 0.000000
0.945205 0.554461 0.000000
0.981234 0.554092 0.000000
1.000000 0.553724 0.000000
1.000000 0.553541 0.000000
1.000000 0.553541 0.000000
1.000000 0.553541 0.000000
0.005198 0.596297 0.000000
0.037819 0.595963 0.000000
0.064715 0.595688 0.000000
0.094800 0.595381 0.000000
0.126939 0.595052 0.000000
0.160298 0.594711 0.000000
0.194419 0.594362 0.000000
0.229039 0.594008 0.000000
0.263999 0.593650 0.000000
0.299199 0.593290 0.000000
0.334573 0.592928 0.000000
0.370078 0.592565 0.000000
0.405682 0.592201 0.000000
0.441364 0.591836 0.000000
0.477107 0.591471 0.000000
0.512900 0.591105 0.000000
0.548732 0.590738 0.000000
0.584597 0.590371 0.000000
0.620490 0.590004 0.000000
0.656406 0.589637 0.000000
0.692341 0.589269 0.000000
0.728293 0.588902 0.000000
0.764260 0.588534 0.000000
0.800238 0.588166 0.000000
0.836227 0.587798 0.000000
0.872226 0.587430 0.000000
0.908233 0.587061 0.000000
0.944247 0.586693 0.000000
0.980268 0.586325 0.000000
1.000000 0.585956 0.000000
1.000000 0.585775 0.000000
1.000000 0.585775 0.000000
1.000000 0.585775 0.000000
0.008920 0.628482 0.000000
0.040009 0.628164 0.000000
0.066166 0.627896 0.000000
0.095704 0.627594 0.000000
0.127446 0.627269 0.000000
0.160515 0.626931 0.000000
0.194420 0.626584 0.000000
0.228874 0.626232 0.000000
0.263705 0.625876 0.000000
0.298801 0.625517 0.000000
0.334092 0.625156 0.000000
0.369528 0.624793 0.000000
0.405075 0.624430 0.000000
0.440708 0.624065 0.000000
0.476410 0.623700 0.000000
0.512167 0.623335 0.000000
0.547968 0.622968 0.000000
0.583806 0.622602 0.000000
0.619675 0.622235 0.000000
0.655570 0.621868 0.000000
0.691486 0.621501 0.000000
0.727421 0.621133 0.000000
0.763372 0.620765 0.000000
0.799337 0.620398 0.000000
0.835313 0.620030 0.000000
0.871300 0.619662 0.000000
0.907297 0.619294 0.000000
0.943301 0.618925 0.000000
0.979313 0.618557 0.000000
1.000000 0.618189 0.000000
1.000000 0.618009 0.000000
1.000000 0.618009 0.000000
1.000000 0.618009 0.000000
0.012632 0.660666 0.000000
0.042298 0.660363 0.000000
0.067726 0.660103 0.000000
0.096711 0.659806 0.000000
0.128044 0.659486 0.000000
0.160811 0.659151 0.000000
0.194489 0.658806 0.000000
0.228769 0.658456 0.000000
0.263463 0.658101 0.000000
0.298451 0.657743 0.000000
0.333654 0.657383 0.000000
0.369017 0.657021 0.000000
0.404502 0.656658 0.000000
0.440084 0.656294 0.000000
0.475742 0.655930 0.000000
0.511460 0.655564 0.000000
0.547229 0.655199 0.000000
0.583038 0.654832 0.000000
0.618881 0.654466 0.000000
0.654753 0.654099 0.000000
0.690649 0.653732 0.000000
0.726566 0.653364 0.000000
0.762501 0.652997 0.000000
0.798450 0.652629 0.000000
0.834414 0.652261 0.000000
0.870389 0.651894 0.000000
0.906374 0.651525 0.000000
0.942368 0.651157 0.000000
0.978371 0.650789 0.000000
1.000000 0.650421 0.000000
1.000000 0.650244 0.000000
1.000000 0.650244 0.000000
1.000000 0.650244 0.000000
0.016344 0.692851 0.000000
0.044681 0.692561 0.000000
0.069392 0.692308 0.000000
0.097818 0.692017 0.000000
0.128732 0.691701 0.000000
0.161187 0.691369 0.000000
0.194628 0.691027 0.000000
0.228725 0.690679 0.000000
0.263276 0.690325 0.000000
0.298148 0.689969 0.000000
0.333257 0.689609 0.000000
0.368543 0.689249 0.000000
0.403964 0.688886 0.000000
0.439492 0.688523 0.000000
0.475102 0.688159 0.000000
0.510781 0.687794 0.000000
0.546514 0.687428 0.000000
0.582293 0.687062 0.000000
0.618109 0.686696 0.000000
0.653957 0.686330 0.000000
0.689831 0.685963 0.000000
0.725729 0.685596 0.000000
0.761646 0.685228 0.000000
0.797580 0.684861 0.000000
0.833529 0.684493 0.000000
0.869491 0.684125 0.000000
0.905465 0.683757 0.000000
0.941448 0.683389 0.000000
0.977440 0.683021 0.000000
1.000000 0.682653 0.000000
1.000000 0.682478 0.000000
1.000000 0.682478 0.000000
1.000000 0.682478 0.000000
0.020056 0.725035 0.000000
0.047151 0.724758 0.000000
0.071158 0.724513 0.000000
0.099023 0.724228 0.000000
0.129509 0.723916 0.000000
0.161640 0.723587 0.000000
0.194835 0.723248 0.000000
0.228742 0.722901 0.000000
0.263142 0.722549 0.000000
0.297894 0.722194 0.000000
0.332904 0.721836 0.000000
0.368109 0.721476 0.000000
0.403462 0.721114 0.000000
0.438931 0.720751 0.000000
0.474493 0.720388 0.000000
0.510128 0.720023 0.000000
0.545825 0.719658 0.000000
0.581571 0.719292 0.000000
0.617358 0.718926 0.000000
0.653181 0.718560 0.000000
0.689033 0.718193 0.000000
0.724910 0.717826 0.000000
0.760808 0.717459 0.000000
0.796726 0.717092 0.000000
0.832660 0.716724 0.000000
0.868608 0.716357 0.000000
0.904569 0.715989 0.000000
0.940541 0.715621 0.000000
0.976522 0.715253 0.000000
1.000000 0.714885 0.000000
1.000000 0.714712 0.000000
1.000000 0.714712 0.000000
1.000000 0.714712 0.000000
0.023768 0.757220 0.000000
0.049699 0.756955 0.000000
0.073019 0.756716 0.000000
0.100323 0.756437 0.000000
0.130373 0.756129 0.000000
0.162172 0.755804 0.000000
0.195111 0.755467 0.000000
0.228819 0.755123 0.000000
0.263062 0.754772 0.000000
0.297687 0.754418 0.000000
0.332594 0.754061 0.000000
0.367713 0.753702 0.000000
0.402995 0.753341 0.000000
0.438403 0.752979 0.000000
0.473913 0.752616 0.000000
0.509504 0.752252 0.000000
0.545161 0.751887 0.000000
0.580873 0.751522 0.000000
0.616630 0.751156 0.000000
0.652425 0.750790 0.000000
0.688253 0.750424 0.000000
0.724109 0.750057 0.000000
0.759988 0.749690 0.000000
0.795888 0.749323 0.000000
0.831806 0.748956 0.000000
0.867740 0.748588 0.000000
0.903687 0.748221 0.000000
0.939647 0.747853 0.000000
0.975617 0.747485 0.000000
1.000000 0.747117 0.000000
1.000000 0.746946 0.000000
1.000000 0.746946 0.000000
1.000000 0.746946 0.000000
0.027480 0.789404 0.000000
0.052322 0.789150 0.000000
0.074972 0.788919 0.000000
0.101715 0.788645 0.000000
0.131323 0.788342 0.000000
0.162780 0.788021 0.000000
0.195456 0.787686 0.000000
0.228957 0.787344 0.000000
0.263036 0.786995 0.000000
0.297530 0.786642 0.000000
0.332328 0.786287 0.000000
0.367358 0.785928 0.000000
0.402564 0.785568 0.000000
0.437909 0.785207 0.000000
0.473363 0.784844 0.000000
0.508907 0.784481 0.000000
0.544523 0.784116 0.000000
0.580198 0.783751 0.000000
0.615924 0.783386 0.000000
0.651691 0.783020 0.000000
0.687493 0.782654 0.000000
0.723326 0.782288 0.000000
0.759185 0.781921 0.000000
0.795067 0.781554 0.000000
0.830968 0.781187 0.000000
0.866886 0.780819 0.000000
0.902819 0.780452 0.000000
0.938766 0.780084 0.000000
0.974724 0.779717 0.000000
1.000000 0.779349 0.000000
1.000000 0.779180 0.000000
1.000000 0.779180 0.000000
1.000000 0.779180 0.000000
0.031192 0.821589 0.000000
0.055013 0.821345 0.000000
0.077011 0.821120 0.000000
0.103196 0.820852 0.000000
0.132357 0.820554 0.000000
0.163465 0.820236 0.000000
0.195869 0.819905 0.000000
0.229157 0.819564 0.000000
0.263065 0.819217 0.000000
0.297421 0.818866 0.000000
0.332107 0.818511 0.000000
0.367042 0.818154 0.000000
0.402169 0.817795 0.000000
0.437447 0.817434 0.000000
0.472844 0.817072 0.000000
0.508338 0.816709 0.000000
0.543911 0.816345 0.000000
0.579549 0.815981 0.000000
0.615240 0.815616 0.000000
0.650978 0.815250 0.000000
0.686754 0.814884 0.000000
0.722563 0.814518 0.000000
0.758400 0.814151 0.000000
0.794262 0.813785 0.000000
0.830145 0.813418 0.000000
