UWC_LUTs/UWC_05_Recif_Punch.cube
# UWC Recif punch (look)
# UWC — correction couleur sous-marine · entree Rec.709
TITLE "UWC Recif punch (look)"
LUT_3D_SIZE 33
DOMAIN_MIN 0 0 0
DOMAIN_MAX 1 1 1
0.000000 0.000000 0.000000
0.000000 0.000000 0.000000
0.031024 0.000000 0.000000
0.071535 0.000000 0.000000
0.112047 0.000000 0.000000
0.152559 0.000000 0.000000
0.193071 0.000000 0.000000
0.233583 0.000000 0.000000
0.274094 0.000000 0.000000
0.314606 0.000000 0.000000
0.355118 0.000000 0.000000
0.395630 0.000000 0.000000
0.436142 0.000000 0.000000
0.476653 0.000000 0.000000
0.517165 0.000000 0.000000
0.557677 0.000000 0.000000
0.598189 0.000000 0.000000
0.638701 0.000000 0.000000
0.679212 0.000000 0.000000
0.719724 0.000000 0.000000
0.760236 0.000000 0.000000
0.800748 0.000000 0.000000
0.841260 0.000000 0.000000
0.881771 0.000000 0.000000
0.922283 0.000000 0.000000
0.962795 0.000000 0.000000
1.000000 0.000000 0.000000
1.000000 0.000000 0.000000
1.000000 0.000000 0.000000
1.000000 0.000000 0.000000
1.000000 0.000000 0.000000
1.000000 0.000000 0.000000
1.000000 0.000000 0.000000
0.000000 0.000000 0.000000
0.000000 0.000000 0.000000
0.026017 0.000000 0.000000
0.066529 0.000000 0.000000
0.107041 0.000000 0.000000
0.147553 0.000000 0.000000
0.188064 0.000000 0.000000
0.228576 0.000000 0.000000
0.269088 0.000000 0.000000
0.309600 0.000000 0.000000
0.350112 0.000000 0.000000
0.390623 0.000000 0.000000
0.431135 0.000000 0.000000
0.471647 0.000000 0.000000
0.512159 0.000000 0.000000
0.552671 0.000000 0.000000
0.593182 0.000000 0.000000
0.633694 0.000000 0.000000
0.674206 0.000000 0.000000
0.714718 0.000000 0.000000
0.755230 0.000000 0.000000
0.795741 0.000000 0.000000
0.836253 0.000000 0.000000
0.876765 0.000000 0.000000
0.917277 0.000000 0.000000
0.957789 0.000000 0.000000
0.998300 0.000000 0.000000
1.000000 0.000000 0.000000
1.000000 0.000000 0.000000
1.000000 0.000000 0.000000
1.000000 0.000000 0.000000
1.000000 0.000000 0.000000
1.000000 0.000000 0.000000
0.000000 0.023987 0.000000
0.000000 0.022499 0.000000
0.021011 0.021011 0.000000
0.061523 0.019523 0.000000
0.102034 0.018034 0.000000
0.142546 0.016546 0.000000
0.183058 0.015058 0.000000
0.223570 0.013570 0.000000
0.264082 0.012082 0.000000
0.304593 0.010593 0.000000
0.345105 0.009105 0.000000
0.385617 0.007617 0.000000
0.426129 0.006129 0.000000
0.466641 0.004641 0.000000
0.507152 0.003152 0.000000
0.547664 0.001664 0.000000
0.588176 0.000176 0.000000
0.628688 0.000000 0.000000
0.669200 0.000000 0.000000
0.709711 0.000000 0.000000
0.750223 0.000000 0.000000
0.790735 0.000000 0.000000
0.831247 0.000000 0.000000
0.871759 0.000000 0.000000
0.912270 0.000000 0.000000
0.952782 0.000000 0.000000
0.993294 0.000000 0.000000
1.000000 0.000000 0.000000
1.000000 0.000000 0.000000
1.000000 0.000000 0.000000
1.000000 0.000000 0.000000
1.000000 0.000000 0.000000
1.000000 0.000000 0.000000
0.000000 0.060981 0.000000
0.000000 0.059493 0.000000
0.016004 0.058004 0.000000
0.056516 0.056516 0.000000
0.097028 0.055028 0.000000
0.137540 0.053540 0.000000
0.178052 0.052052 0.000000
0.218563 0.050563 0.000000
0.259075 0.049075 0.000000
0.299587 0.047587 0.000000
0.340099 0.046099 0.000000
0.380611 0.044611 0.000000
0.421122 0.043122 0.000000
0.461634 0.041634 0.000000
0.502146 0.040146 0.000000
0.542658 0.038658 0.000000
0.583170 0.037170 0.000000
0.623681 0.035681 0.000000
0.664193 0.034193 0.000000
0.704705 0.032705 0.000000
0.745217 0.031217 0.000000
0.785729 0.029729 0.000000
0.826240 0.028240 0.000000
0.866752 0.026752 0.000000
0.907264 0.025264 0.000000
0.947776 0.023776 0.000000
0.988288 0.022288 0.000000
1.000000 0.020799 0.000000
1.000000 0.019311 0.000000
1.000000 0.017823 0.000000
1.000000 0.016335 0.000000
1.000000 0.014847 0.000000
1.000000 0.013358 0.000000
0.000000 0.097974 0.000000
0.000000 0.096486 0.000000
0.010998 0.094998 0.000000
0.051510 0.093510 0.000000
0.092022 0.092022 0.000000
0.132533 0.090533 0.000000
0.173045 0.089045 0.000000
0.213557 0.087557 0.000000
0.254069 0.086069 0.000000
0.294581 0.084581 0.000000
0.335092 0.083092 0.000000
0.375604 0.081604 0.000000
0.416116 0.080116 0.000000
0.456628 0.078628 0.000000
0.497140 0.077140 0.000000
0.537651 0.075651 0.000000
0.578163 0.074163 0.000000
0.618675 0.072675 0.000000
0.659187 0.071187 0.000000
0.699699 0.069699 0.000000
0.740210 0.068210 0.000000
0.780722 0.066722 0.000000
0.821234 0.065234 0.000000
0.861746 0.063746 0.000000
0.902258 0.062258 0.000000
0.942769 0.060769 0.000000
0.983281 0.059281 0.000000
1.000000 0.057793 0.000000
1.000000 0.056305 0.000000
1.000000 0.054817 0.000000
1.000000 0.053328 0.000000
1.000000 0.051840 0.000000
1.000000 0.050352 0.000000
0.000000 0.134968 0.000000
0.000000 0.133480 0.000000
0.005992 0.131992 0.000000
0.046503 0.130503 0.000000
0.087015 0.129015 0.000000
0.127527 0.127527 0.000000
0.168039 0.126039 0.000000
0.208551 0.124551 0.000000
0.249062 0.123062 0.000000
0.289574 0.121574 0.000000
0.330086 0.120086 0.000000
0.370598 0.118598 0.000000
0.411110 0.117110 0.000000
0.451621 0.115621 0.000000
0.492133 0.114133 0.000000
0.532645 0.112645 0.000000
0.573157 0.111157 0.000000
0.613669 0.109669 0.000000
0.654180 0.108180 0.000000
0.694692 0.106692 0.000000
0.735204 0.105204 0.000000
0.775716 0.103716 0.000000
0.816228 0.102228 0.000000
0.856739 0.100739 0.000000
0.897251 0.099251 0.000000
0.937763 0.097763 0.000000
0.978275 0.096275 0.000000
1.000000 0.094787 0.000000
1.000000 0.093298 0.000000
1.000000 0.091810 0.000000
1.000000 0.090322 0.000000
1.000000 0.088834 0.000000
1.000000 0.087346 0.000000
0.000000 0.171962 0.000000
0.000000 0.170473 0.000000
0.000985 0.168985 0.000000
0.041497 0.167497 0.000000
0.082009 0.166009 0.000000
0.122521 0.164521 0.000000
0.163032 0.163032 0.000000
0.203544 0.161544 0.000000
0.244056 0.160056 0.000000
0.284568 0.158568 0.000000
0.325080 0.157080 0.000000
0.365591 0.155591 0.000000
0.406103 0.154103 0.000000
0.446615 0.152615 0.000000
0.487127 0.151127 0.000000
0.527639 0.149639 0.000000
0.568150 0.148150 0.000000
0.608662 0.146662 0.000000
0.649174 0.145174 0.000000
0.689686 0.143686 0.000000
0.730198 0.142198 0.000000
0.770709 0.140709 0.000000
0.811221 0.139221 0.000000
0.851733 0.137733 0.000000
0.892245 0.136245 0.000000
0.932757 0.134757 0.000000
0.973268 0.133268 0.000000
1.000000 0.131780 0.000000
1.000000 0.130292 0.000000
1.000000 0.128804 0.000000
1.000000 0.127316 0.000000
1.000000 0.125827 0.000000
1.000000 0.124339 0.000000
0.000000 0.208955 0.000000
0.000000 0.207467 0.000000
0.000000 0.205979 0.000000
0.036491 0.204491 0.000000
0.077002 0.203002 0.000000
0.117514 0.201514 0.000000
0.158026 0.200026 0.000000
0.198538 0.198538 0.000000
0.239050 0.197050 0.000000
0.279561 0.195561 0.000000
0.320073 0.194073 0.000000
0.360585 0.192585 0.000000
0.401097 0.191097 0.000000
0.441609 0.189609 0.000000
0.482120 0.188120 0.000000
0.522632 0.186632 0.000000
0.563144 0.185144 0.000000
0.603656 0.183656 0.000000
0.644168 0.182168 0.000000
0.684679 0.180679 0.000000
0.725191 0.179191 0.000000
0.765703 0.177703 0.000000
0.806215 0.176215 0.000000
0.846727 0.174727 0.000000
0.887238 0.173238 0.000000
0.927750 0.171750 0.000000
0.968262 0.170262 0.000000
1.000000 0.168774 0.000000
1.000000 0.167286 0.000000
1.000000 0.165797 0.000000
1.000000 0.164309 0.000000
1.000000 0.162821 0.000000
1.000000 0.161333 0.000000
0.000000 0.245949 0.000000
0.000000 0.244461 0.000000
0.000000 0.242972 0.000000
0.031484 0.241484 0.000000
0.071996 0.239996 0.000000
0.112508 0.238508 0.000000
0.153020 0.237020 0.000000
0.193531 0.235531 0.000000
0.234043 0.234043 0.000000
0.274555 0.232555 0.000000
0.315067 0.231067 0.000000
0.355579 0.229579 0.000000
0.396090 0.228090 0.000000
0.436602 0.226602 0.000000
0.477114 0.225114 0.000000
0.517626 0.223626 0.000000
0.558138 0.222138 0.000000
0.598649 0.220649 0.000000
0.639161 0.219161 0.000000
0.679673 0.217673 0.000000
0.720185 0.216185 0.000000
0.760697 0.214697 0.000000
0.801208 0.213208 0.000000
0.841720 0.211720 0.000000
0.882232 0.210232 0.000000
0.922744 0.208744 0.000000
0.963256 0.207256 0.000000
1.000000 0.205767 0.000000
1.000000 0.204279 0.000000
1.000000 0.202791 0.000000
1.000000 0.201303 0.000000
1.000000 0.199815 0.000000
1.000000 0.198326 0.000000
0.000000 0.282942 0.000000
0.000000 0.281454 0.000000
0.000000 0.279966 0.000000
0.026478 0.278478 0.000000
0.066990 0.276990 0.000000
0.107501 0.275501 0.000000
0.148013 0.274013 0.000000
0.188525 0.272525 0.000000
0.229037 0.271037 0.000000
0.269549 0.269549 0.000000
0.310060 0.268060 0.000000
0.350572 0.266572 0.000000
0.391084 0.265084 0.000000
0.431596 0.263596 0.000000
0.472108 0.262108 0.000000
0.512619 0.260619 0.000000
0.553131 0.259131 0.000000
0.593643 0.257643 0.000000
0.634155 0.256155 0.000000
0.674667 0.254667 0.000000
0.715178 0.253178 0.000000
0.755690 0.251690 0.000000
0.796202 0.250202 0.000000
0.836714 0.248714 0.000000
0.877226 0.247226 0.000000
0.917737 0.245737 0.000000
0.958249 0.244249 0.000000
0.998761 0.242761 0.000000
1.000000 0.241273 0.000000
1.000000 0.239785 0.000000
1.000000 0.238296 0.000000
1.000000 0.236808 0.000000
1.000000 0.235320 0.000000
0.000000 0.319936 0.000000
0.000000 0.318448 0.000000
0.000000 0.316960 0.000000
0.021471 0.315471 0.000000
0.061983 0.313983 0.000000
0.102495 0.312495 0.000000
0.143007 0.311007 0.000000
0.183519 0.309519 0.000000
0.224030 0.308030 0.000000
0.264542 0.306542 0.000000
0.305054 0.305054 0.000000
0.345566 0.303566 0.000000
0.386078 0.302078 0.000000
0.426589 0.300589 0.000000
0.467101 0.299101 0.000000
0.507613 0.297613 0.000000
0.548125 0.296125 0.000000
0.588637 0.294637 0.000000
0.629148 0.293148 0.000000
0.669660 0.291660 0.000000
0.710172 0.290172 0.000000
0.750684 0.288684 0.000000
0.791196 0.287196 0.000000
0.831707 0.285707 0.000000
0.872219 0.284219 0.000000
0.912731 0.282731 0.000000
0.953243 0.281243 0.000000
0.993755 0.279755 0.000000
1.000000 0.278266 0.000000
1.000000 0.276778 0.000000
1.000000 0.275290 0.000000
1.000000 0.273802 0.000000
1.000000 0.272314 0.000000
0.000000 0.356930 0.000000
0.000000 0.355441 0.000000
0.000000 0.353953 0.000000
0.016465 0.352465 0.000000
0.056977 0.350977 0.000000
0.097489 0.349489 0.000000
0.138000 0.348000 0.000000
0.178512 0.346512 0.000000
0.219024 0.345024 0.000000
0.259536 0.343536 0.000000
0.300048 0.342048 0.000000
0.340559 0.340559 0.000000
0.381071 0.339071 0.000000
0.421583 0.337583 0.000000
0.462095 0.336095 0.000000
0.502607 0.334607 0.000000
0.543118 0.333118 0.000000
0.583630 0.331630 0.000000
0.624142 0.330142 0.000000
0.664654 0.328654 0.000000
0.705166 0.327166 0.000000
0.745677 0.325677 0.000000
0.786189 0.324189 0.000000
0.826701 0.322701 0.000000
0.867213 0.321213 0.000000
0.907725 0.319725 0.000000
0.948236 0.318236 0.000000
0.988748 0.316748 0.000000
1.000000 0.315260 0.000000
1.000000 0.313772 0.000000
1.000000 0.312284 0.000000
1.000000 0.310795 0.000000
1.000000 0.309307 0.000000
0.000000 0.393923 0.000000
0.000000 0.392435 0.000000
0.000000 0.390947 0.000000
0.011459 0.389459 0.000000
0.051970 0.387970 0.000000
0.092482 0.386482 0.000000
0.132994 0.384994 0.000000
0.173506 0.383506 0.000000
0.214018 0.382018 0.000000
0.254529 0.380529 0.000000
0.295041 0.379041 0.000000
0.335553 0.377553 0.000000
0.376065 0.376065 0.000000
0.416577 0.374577 0.000000
0.457088 0.373088 0.000000
0.497600 0.371600 0.000000
0.538112 0.370112 0.000000
0.578624 0.368624 0.000000
0.619136 0.367136 0.000000
0.659647 0.365647 0.000000
0.700159 0.364159 0.000000
0.740671 0.362671 0.000000
0.781183 0.361183 0.000000
0.821695 0.359695 0.000000
0.862206 0.358206 0.000000
0.902718 0.356718 0.000000
0.943230 0.355230 0.000000
0.983742 0.353742 0.000000
1.000000 0.352254 0.000000
1.000000 0.350765 0.000000
1.000000 0.349277 0.000000
1.000000 0.347789 0.000000
1.000000 0.346301 0.000000
0.000000 0.430917 0.000000
0.000000 0.429429 0.000000
0.000000 0.427940 0.000000
0.006452 0.426452 0.000000
0.046964 0.424964 0.000000
0.087476 0.423476 0.000000
0.127988 0.421988 0.000000
0.168499 0.420499 0.000000
0.209011 0.419011 0.000000
0.249523 0.417523 0.000000
0.290035 0.416035 0.000000
0.330547 0.414547 0.000000
0.371058 0.413058 0.000000
0.411570 0.411570 0.000000
0.452082 0.410082 0.000000
0.492594 0.408594 0.000000
0.533106 0.407106 0.000000
0.573617 0.405617 0.000000
0.614129 0.404129 0.000000
0.654641 0.402641 0.000000
0.695153 0.401153 0.000000
0.735665 0.399665 0.000000
0.776176 0.398176 0.000000
0.816688 0.396688 0.000000
0.857200 0.395200 0.000000
0.897712 0.393712 0.000000
0.938224 0.392224 0.000000
0.978735 0.390735 0.000000
1.000000 0.389247 0.000000
1.000000 0.387759 0.000000
1.000000 0.386271 0.000000
1.000000 0.384783 0.000000
1.000000 0.383294 0.000000
0.000000 0.467910 0.000000
0.000000 0.466422 0.000000
0.000000 0.464934 0.000000
0.001446 0.463446 0.000000
0.041958 0.461958 0.000000
0.082469 0.460469 0.000000
0.122981 0.458981 0.000000
0.163493 0.457493 0.000000
0.204005 0.456005 0.000000
0.244517 0.454517 0.000000
0.285028 0.453028 0.000000
0.325540 0.451540 0.000000
0.366052 0.450052 0.000000
0.406564 0.448564 0.000000
0.447076 0.447076 0.000000
0.487587 0.445587 0.000000
0.528099 0.444099 0.000000
0.568611 0.442611 0.000000
0.609123 0.441123 0.000000
0.649635 0.439635 0.000000
0.690146 0.438146 0.000000
0.730658 0.436658 0.000000
0.771170 0.435170 0.000000
0.811682 0.433682 0.000000
0.852194 0.432194 0.000000
0.892705 0.430705 0.000000
0.933217 0.429217 0.000000
0.973729 0.427729 0.000000
1.000000 0.426241 0.000000
1.000000 0.424753 0.000000
1.000000 0.423264 0.000000
1.000000 0.421776 0.000000
1.000000 0.420288 0.000000
0.000000 0.504904 0.000000
0.000000 0.503416 0.000000
0.000000 0.501928 0.000000
0.000000 0.500439 0.000000
0.036951 0.498951 0.000000
0.077463 0.497463 0.000000
0.117975 0.495975 0.000000
0.158487 0.494487 0.000000
0.198998 0.492998 0.000000
0.239510 0.491510 0.000000
0.280022 0.490022 0.000000
0.320534 0.488534 0.000000
0.361046 0.487046 0.000000
0.401557 0.485557 0.000000
0.442069 0.484069 0.000000
0.482581 0.482581 0.000000
0.523093 0.481093 0.000000
0.563605 0.479605 0.000000
0.604116 0.478116 0.000000
0.644628 0.476628 0.000000
0.685140 0.475140 0.000000
0.725652 0.473652 0.000000
0.766164 0.472164 0.000000
0.806675 0.470675 0.000000
0.847187 0.469187 0.000000
0.887699 0.467699 0.000000
0.928211 0.466211 0.000000
0.968723 0.464723 0.000000
1.000000 0.463234 0.000000
1.000000 0.461746 0.000000
1.000000 0.460258 0.000000
1.000000 0.458770 0.000000
1.000000 0.457282 0.000000
0.000000 0.541898 0.000000
0.000000 0.540409 0.000000
0.000000 0.538921 0.000000
0.000000 0.537433 0.000000
0.031945 0.535945 0.000000
0.072457 0.534457 0.000000
0.112968 0.532968 0.000000
0.153480 0.531480 0.000000
0.193992 0.529992 0.000000
0.234504 0.528504 0.000000
0.275016 0.527016 0.000000
0.315527 0.525527 0.000000
0.356039 0.524039 0.000000
0.396551 0.522551 0.000000
0.437063 0.521063 0.000000
0.477575 0.519575 0.000000
0.518086 0.518086 0.000000
0.558598 0.516598 0.000000
0.599110 0.515110 0.000000
0.639622 0.513622 0.000000
0.680134 0.512134 0.000000
0.720645 0.510645 0.000000
0.761157 0.509157 0.000000
0.801669 0.507669 0.000000
0.842181 0.506181 0.000000
0.882693 0.504693 0.000000
0.923204 0.503204 0.000000
0.963716 0.501716 0.000000
1.000000 0.500228 0.000000
1.000000 0.498740 0.000000
1.000000 0.497252 0.000000
1.000000 0.495763 0.000000
1.000000 0.494275 0.000000
0.000000 0.578891 0.000000
0.000000 0.577403 0.000000
0.000000 0.575915 0.000000
0.000000 0.574427 0.000000
0.026938 0.572938 0.000000
0.067450 0.571450 0.000000
0.107962 0.569962 0.000000
0.148474 0.568474 0.000000
0.188986 0.566986 0.000000
0.229497 0.565497 0.000000
0.270009 0.564009 0.000000
0.310521 0.562521 0.000000
0.351033 0.561033 0.000000
0.391545 0.559545 0.000000
0.432056 0.558056 0.000000
0.472568 0.556568 0.000000
0.513080 0.555080 0.000000
0.553592 0.553592 0.000000
0.594104 0.552104 0.000000
0.634615 0.550615 0.000000
0.675127 0.549127 0.000000
0.715639 0.547639 0.000000
0.756151 0.546151 0.000000
0.796663 0.544663 0.000000
0.837174 0.543174 0.000000
0.877686 0.541686 0.000000
0.918198 0.540198 0.000000
0.958710 0.538710 0.000000
0.999222 0.537222 0.000000
1.000000 0.535733 0.000000
1.000000 0.534245 0.000000
1.000000 0.532757 0.000000
1.000000 0.531269 0.000000
0.000000 0.615885 0.000000
0.000000 0.614397 0.000000
0.000000 0.612908 0.000000
0.000000 0.611420 0.000000
0.021932 0.609932 0.000000
0.062444 0.608444 0.000000
0.102956 0.606956 0.000000
0.143467 0.605467 0.000000
0.183979 0.603979 0.000000
0.224491 0.602491 0.000000
0.265003 0.601003 0.000000
0.305515 0.599515 0.000000
0.346026 0.598026 0.000000
0.386538 0.596538 0.000000
0.427050 0.595050 0.000000
0.467562 0.593562 0.000000
0.508074 0.592074 0.000000
0.548585 0.590585 0.000000
0.589097 0.589097 0.000000
0.629609 0.587609 0.000000
0.670121 0.586121 0.000000
0.710633 0.584633 0.000000
0.751144 0.583144 0.000000
0.791656 0.581656 0.000000
0.832168 0.580168 0.000000
0.872680 0.578680 0.000000
0.913192 0.577192 0.000000
0.953703 0.575703 0.000000
0.994215 0.574215 0.000000
1.000000 0.572727 0.000000
1.000000 0.571239 0.000000
1.000000 0.569751 0.000000
1.000000 0.568262 0.000000
0.000000 0.652878 0.000000
0.000000 0.651390 0.000000
0.000000 0.649902 0.000000
0.000000 0.648414 0.000000
0.016926 0.646926 0.000000
0.057437 0.645437 0.000000
0.097949 0.643949 0.000000
0.138461 0.642461 0.000000
0.178973 0.640973 0.000000
0.219485 0.639485 0.000000
0.259996 0.637996 0.000000
0.300508 0.636508 0.000000
0.341020 0.635020 0.000000
0.381532 0.633532 0.000000
0.422044 0.632044 0.000000
0.462555 0.630555 0.000000
0.503067 0.629067 0.000000
0.543579 0.627579 0.000000
0.584091 0.626091 0.000000
0.624603 0.624603 0.000000
0.665114 0.623114 0.000000
0.705626 0.621626 0.000000
0.746138 0.620138 0.000000
0.786650 0.618650 0.000000
0.827162 0.617162 0.000000
0.867673 0.615673 0.000000
0.908185 0.614185 0.000000
0.948697 0.612697 0.000000
0.989209 0.611209 0.000000
1.000000 0.609721 0.000000
1.000000 0.608232 0.000000
1.000000 0.606744 0.000000
1.000000 0.605256 0.000000
0.000000 0.689872 0.000000
0.000000 0.688384 0.000000
0.000000 0.686896 0.000000
0.000000 0.685407 0.000000
0.011919 0.683919 0.000000
0.052431 0.682431 0.000000
0.092943 0.680943 0.000000
0.133455 0.679455 0.000000
0.173966 0.677966 0.000000
0.214478 0.676478 0.000000
0.254990 0.674990 0.000000
0.295502 0.673502 0.000000
0.336014 0.672014 0.000000
0.376525 0.670525 0.000000
0.417037 0.669037 0.000000
0.457549 0.667549 0.000000
0.498061 0.666061 0.000000
0.538573 0.664573 0.000000
0.579084 0.663084 0.000000
0.619596 0.661596 0.000000
0.660108 0.660108 0.000000
0.700620 0.658620 0.000000
0.741132 0.657132 0.000000
0.781643 0.655643 0.000000
0.822155 0.654155 0.000000
0.862667 0.652667 0.000000
0.903179 0.651179 0.000000
0.943691 0.649691 0.000000
0.984202 0.648202 0.000000
1.000000 0.646714 0.000000
1.000000 0.645226 0.000000
1.000000 0.643738 0.000000
1.000000 0.642250 0.000000
0.000000 0.726866 0.000000
0.000000 0.725377 0.000000
0.000000 0.723889 0.000000
0.000000 0.722401 0.000000
0.006913 0.720913 0.000000
0.047425 0.719425 0.000000
0.087936 0.717936 0.000000
0.128448 0.716448 0.000000
0.168960 0.714960 0.000000
0.209472 0.713472 0.000000
0.249984 0.711984 0.000000
0.290495 0.710495 0.000000
0.331007 0.709007 0.000000
0.371519 0.707519 0.000000
0.412031 0.706031 0.000000
0.452543 0.704543 0.000000
0.493054 0.703054 0.000000
0.533566 0.701566 0.000000
0.574078 0.700078 0.000000
0.614590 0.698590 0.000000
0.655102 0.697102 0.000000
0.695613 0.695613 0.000000
0.736125 0.694125 0.000000
0.776637 0.692637 0.000000
0.817149 0.691149 0.000000
0.857661 0.689661 0.000000
0.898172 0.688172 0.000000
0.938684 0.686684 0.000000
0.979196 0.685196 0.000000
1.000000 0.683708 0.000000
1.000000 0.682220 0.000000
1.000000 0.680731 0.000000
1.000000 0.679243 0.000000
0.000000 0.763859 0.000000
0.000000 0.762371 0.000000
0.000000 0.760883 0.000000
0.000000 0.759395 0.000000
0.001906 0.757906 0.000000
0.042418 0.756418 0.000000
0.082930 0.754930 0.000000
0.123442 0.753442 0.000000
0.163954 0.751954 0.000000
0.204465 0.750465 0.000000
0.244977 0.748977 0.000000
0.285489 0.747489 0.000000
0.326001 0.746001 0.000000
0.366513 0.744513 0.000000
0.407024 0.743024 0.000000
0.447536 0.741536 0.000000
0.488048 0.740048 0.000000
0.528560 0.738560 0.000000
0.569072 0.737072 0.000000
0.609583 0.735583 0.000000
0.650095 0.734095 0.000000
0.690607 0.732607 0.000000
0.731119 0.731119 0.000000
0.771631 0.729631 0.000000
0.812142 0.728142 0.000000
0.852654 0.726654 0.000000
0.893166 0.725166 0.000000
0.933678 0.723678 0.000000
0.974190 0.722190 0.000000
1.000000 0.720701 0.000000
1.000000 0.719213 0.000000
1.000000 0.717725 0.000000
1.000000 0.716237 0.000000
0.000000 0.800853 0.000000
0.000000 0.799365 0.000000
0.000000 0.797876 0.000000
0.000000 0.796388 0.000000
0.000000 0.794900 0.000000
0.037412 0.793412 0.000000
0.077924 0.791924 0.000000
0.118435 0.790435 0.000000
0.158947 0.788947 0.000000
0.199459 0.787459 0.000000
0.239971 0.785971 0.000000
0.280483 0.784483 0.000000
0.320994 0.782994 0.000000
0.361506 0.781506 0.000000
0.402018 0.780018 0.000000
0.442530 0.778530 0.000000
0.483042 0.777042 0.000000
0.523553 0.775553 0.000000
0.564065 0.774065 0.000000
0.604577 0.772577 0.000000
0.645089 0.771089 0.000000
0.685601 0.769601 0.000000
0.726112 0.768112 0.000000
0.766624 0.766624 0.000000
0.807136 0.765136 0.000000
0.847648 0.763648 0.000000
0.888160 0.762160 0.000000
0.928671 0.760671 0.000000
0.969183 0.759183 0.000000
1.000000 0.757695 0.000000
1.000000 0.756207 0.000000
1.000000 0.754719 0.000000
1.000000 0.753230 0.000000
0.000000 0.837846 0.000000
0.000000 0.836358 0.000000
0.000000 0.834870 0.000000
0.000000 0.833382 0.000000
0.000000 0.831894 0.000000
0.032405 0.830405 0.000000
0.072917 0.828917 0.000000
0.113429 0.827429 0.000000
0.153941 0.825941 0.000000
0.194453 0.824453 0.000000
0.234964 0.822964 0.000000
0.275476 0.821476 0.000000
0.315988 0.819988 0.000000
0.356500 0.818500 0.000000
0.397012 0.817012 0.000000
0.437523 0.815523 0.000000
0.478035 0.814035 0.000000
0.518547 0.812547 0.000000
0.559059 0.811059 0.000000
0.599571 0.809571 0.000000
0.640082 0.808082 0.000000
0.680594 0.806594 0.000000
0.721106 0.805106 0.000000
0.761618 0.803618 0.000000
0.802130 0.802130 0.000000
0.842641 0.800641 0.000000
0.883153 0.799153 0.000000
0.923665 0.797665 0.000000
0.964177 0.796177 0.000000
1.000000 0.794689 0.000000
1.000000 0.793200 0.000000
1.000000 0.791712 0.000000
1.000000 0.790224 0.000000
0.000000 0.874840 0.000000
0.000000 0.873352 0.000000
0.000000 0.871864 0.000000
0.000000 0.870375 0.000000
0.000000 0.868887 0.000000
0.027399 0.867399 0.000000
0.067911 0.865911 0.000000
0.108423 0.864423 0.000000
0.148934 0.862934 0.000000
0.189446 0.861446 0.000000
0.229958 0.859958 0.000000
0.270470 0.858470 0.000000
0.310982 0.856982 0.000000
0.351493 0.855493 0.000000
0.392005 0.854005 0.000000
0.432517 0.852517 0.000000
0.473029 0.851029 0.000000
0.513541 0.849541 0.000000
0.554052 0.848052 0.000000
0.594564 0.846564 0.000000
0.635076 0.845076 0.000000
0.675588 0.843588 0.000000
0.716100 0.842100 0.000000
0.756611 0.840611 0.000000
0.797123 0.839123 0.000000
0.837635 0.837635 0.000000
0.878147 0.836147 0.000000
0.918659 0.834659 0.000000
0.959170 0.833170 0.000000
0.999682 0.831682 0.000000
1.000000 0.830194 0.000000
1.000000 0.828706 0.000000
1.000000 0.827218 0.000000
0.000000 0.911834 0.000000
0.000000 0.910345 0.000000
0.000000 0.908857 0.000000
0.000000 0.907369 0.000000
0.000000 0.905881 0.000000
0.022393 0.904393 0.000000
0.062904 0.902904 0.000000
0.103416 0.901416 0.000000
0.143928 0.899928 0.000000
0.184440 0.898440 0.000000
0.224952 0.896952 0.000000
0.265463 0.895463 0.000000
0.305975 0.893975 0.000000
0.346487 0.892487 0.000000
0.386999 0.890999 0.000000
0.427511 0.889511 0.000000
0.468022 0.888022 0.000000
0.508534 0.886534 0.000000
0.549046 0.885046 0.000000
0.589558 0.883558 0.000000
0.630070 0.882070 0.000000
0.670581 0.880581 0.000000
0.711093 0.879093 0.000000
0.751605 0.877605 0.000000
