UWC_LUTs/UWC_01_EauVerte_Legere.cube
# UWC Eau verte - legere
# UWC — correction couleur sous-marine · entree Rec.709
TITLE "UWC Eau verte - legere"
LUT_3D_SIZE 33
DOMAIN_MIN 0 0 0
DOMAIN_MAX 1 1 1
0.000000 0.000000 0.000000
0.026696 0.000000 0.000000
0.066768 0.000000 0.000000
0.106171 0.000000 0.000000
0.145574 0.000000 0.000000
0.184977 0.000000 0.000000
0.224380 0.000000 0.000000
0.263783 0.000000 0.000000
0.303186 0.000000 0.000000
0.342589 0.000000 0.000000
0.381992 0.000000 0.000000
0.421395 0.000000 0.000000
0.460798 0.000000 0.000000
0.500201 0.000000 0.000000
0.539604 0.000000 0.000000
0.579007 0.000000 0.000000
0.618410 0.000000 0.000000
0.657813 0.000000 0.000000
0.697216 0.000000 0.000000
0.736619 0.000000 0.000000
0.776022 0.000000 0.000000
0.815425 0.000000 0.000000
0.854828 0.000000 0.000000
0.894231 0.000000 0.000000
0.933634 0.000000 0.000000
0.973037 0.000000 0.000000
1.000000 0.000000 0.000000
1.000000 0.000000 0.000000
1.000000 0.000000 0.000000
1.000000 0.000000 0.000000
1.000000 0.000000 0.000000
1.000000 0.000000 0.000000
1.000000 0.000000 0.000000
0.000000 0.010197 0.000000
0.025459 0.009450 0.000000
0.065369 0.008811 0.000000
0.104691 0.008182 0.000000
0.144045 0.007552 0.000000
0.183415 0.006922 0.000000
0.222796 0.006292 0.000000
0.262182 0.005662 0.000000
0.301573 0.005032 0.000000
0.340966 0.004402 0.000000
0.380361 0.003771 0.000000
0.419758 0.003141 0.000000
0.459156 0.002511 0.000000
0.498554 0.001880 0.000000
0.537954 0.001250 0.000000
0.577353 0.000619 0.000000
0.616754 0.000000 0.000000
0.656154 0.000000 0.000000
0.695555 0.000000 0.000000
0.734956 0.000000 0.000000
0.774358 0.000000 0.000000
0.813759 0.000000 0.000000
0.853161 0.000000 0.000000
0.892562 0.000000 0.000000
0.931964 0.000000 0.000000
0.971366 0.000000 0.000000
1.000000 0.000000 0.000000
1.000000 0.000000 0.000000
1.000000 0.000000 0.000000
1.000000 0.000000 0.000000
1.000000 0.000000 0.000000
1.000000 0.000000 0.000000
1.000000 0.000000 0.000000
0.000000 0.041684 0.000000
0.024205 0.040938 0.000000
0.063936 0.040302 0.000000
0.103165 0.039675 0.000000
0.142464 0.039046 0.000000
0.181798 0.038416 0.000000
0.221154 0.037787 0.000000
0.260521 0.037157 0.000000
0.299898 0.036527 0.000000
0.339280 0.035897 0.000000
0.378666 0.035267 0.000000
0.418056 0.034636 0.000000
0.457447 0.034006 0.000000
0.496841 0.033376 0.000000
0.536236 0.032745 0.000000
0.575632 0.032115 0.000000
0.615029 0.031485 0.000000
0.654427 0.030854 0.000000
0.693825 0.030224 0.000000
0.733224 0.029594 0.000000
0.772624 0.028963 0.000000
0.812024 0.028333 0.000000
0.851424 0.027702 0.000000
0.890824 0.027072 0.000000
0.930225 0.026442 0.000000
0.969626 0.025811 0.000000
1.000000 0.025181 0.000000
1.000000 0.024550 0.000000
1.000000 0.023920 0.000000
1.000000 0.023842 0.000000
1.000000 0.023842 0.000000
1.000000 0.023842 0.000000
1.000000 0.023842 0.000000
0.000000 0.073791 0.000000
0.023132 0.073045 0.000000
0.062609 0.072413 0.000000
0.101707 0.071788 0.000000
0.140927 0.071160 0.000000
0.180210 0.070532 0.000000
0.219528 0.069903 0.000000
0.258869 0.069273 0.000000
0.298225 0.068643 0.000000
0.337592 0.068014 0.000000
0.376965 0.067384 0.000000
0.416344 0.066754 0.000000
0.455728 0.066123 0.000000
0.495114 0.065493 0.000000
0.534503 0.064863 0.000000
0.573894 0.064233 0.000000
0.613286 0.063602 0.000000
0.652680 0.062972 0.000000
0.692075 0.062342 0.000000
0.731471 0.061712 0.000000
0.770868 0.061081 0.000000
0.810265 0.060451 0.000000
0.849663 0.059820 0.000000
0.889061 0.059190 0.000000
0.928460 0.058560 0.000000
0.967859 0.057929 0.000000
1.000000 0.057299 0.000000
1.000000 0.056668 0.000000
1.000000 0.056038 0.000000
1.000000 0.055961 0.000000
1.000000 0.055961 0.000000
1.000000 0.055961 0.000000
1.000000 0.055961 0.000000
0.000000 0.105893 0.000000
0.022297 0.105148 0.000000
0.061440 0.104522 0.000000
0.100364 0.103899 0.000000
0.139478 0.103273 0.000000
0.178691 0.102646 0.000000
0.217961 0.102018 0.000000
0.257267 0.101389 0.000000
0.296596 0.100760 0.000000
0.335941 0.100130 0.000000
0.375297 0.099500 0.000000
0.414663 0.098870 0.000000
0.454034 0.098240 0.000000
0.493411 0.097610 0.000000
0.532792 0.096980 0.000000
0.572175 0.096350 0.000000
0.611562 0.095720 0.000000
0.650950 0.095090 0.000000
0.690341 0.094460 0.000000
0.729732 0.093829 0.000000
0.769125 0.093199 0.000000
0.808519 0.092569 0.000000
0.847914 0.091938 0.000000
0.887310 0.091308 0.000000
0.926706 0.090678 0.000000
0.966103 0.090047 0.000000
1.000000 0.089417 0.000000
1.000000 0.088787 0.000000
1.000000 0.088156 0.000000
1.000000 0.088079 0.000000
1.000000 0.088079 0.000000
1.000000 0.088079 0.000000
1.000000 0.088079 0.000000
0.000000 0.137991 0.000000
0.021710 0.137248 0.000000
0.060438 0.136628 0.000000
0.099144 0.136009 0.000000
0.138125 0.135385 0.000000
0.177250 0.134759 0.000000
0.216458 0.134132 0.000000
0.255718 0.133503 0.000000
0.295012 0.132875 0.000000
0.334330 0.132246 0.000000
0.373665 0.131616 0.000000
0.413012 0.130987 0.000000
0.452369 0.130357 0.000000
0.491734 0.129727 0.000000
0.531104 0.129097 0.000000
0.570479 0.128467 0.000000
0.609857 0.127837 0.000000
0.649239 0.127207 0.000000
0.688623 0.126577 0.000000
0.728010 0.125947 0.000000
0.767398 0.125317 0.000000
0.806788 0.124686 0.000000
0.846179 0.124056 0.000000
0.885571 0.123426 0.000000
0.924964 0.122795 0.000000
0.964358 0.122165 0.000000
1.000000 0.121535 0.000000
1.000000 0.120904 0.000000
1.000000 0.120274 0.000000
1.000000 0.120198 0.000000
1.000000 0.120198 0.000000
1.000000 0.120198 0.000000
1.000000 0.120198 0.000000
0.000000 0.170084 0.000000
0.021377 0.169343 0.000000
0.059611 0.168731 0.000000
0.098053 0.168116 0.000000
0.136872 0.167495 0.000000
0.175889 0.166871 0.000000
0.215021 0.166245 0.000000
0.254225 0.165617 0.000000
0.293477 0.164989 0.000000
0.332761 0.164361 0.000000
0.372070 0.163732 0.000000
0.411395 0.163103 0.000000
0.450734 0.162473 0.000000
0.490084 0.161844 0.000000
0.529441 0.161214 0.000000
0.568805 0.160584 0.000000
0.608174 0.159954 0.000000
0.647547 0.159324 0.000000
0.686924 0.158694 0.000000
0.726304 0.158064 0.000000
0.765686 0.157434 0.000000
0.805071 0.156804 0.000000
0.844457 0.156174 0.000000
0.883845 0.155543 0.000000
0.923235 0.154913 0.000000
0.962626 0.154283 0.000000
1.000000 0.153653 0.000000
1.000000 0.153022 0.000000
1.000000 0.152392 0.000000
1.000000 0.152317 0.000000
1.000000 0.152317 0.000000
1.000000 0.152317 0.000000
1.000000 0.152317 0.000000
0.000000 0.202172 0.000000
0.021299 0.201434 0.000000
0.058965 0.200831 0.000000
0.097096 0.200221 0.000000
0.135724 0.199603 0.000000
0.174613 0.198981 0.000000
0.213655 0.198356 0.000000
0.252792 0.197730 0.000000
0.291993 0.197103 0.000000
0.331238 0.196475 0.000000
0.370514 0.195847 0.000000
0.409814 0.195218 0.000000
0.449132 0.194589 0.000000
0.488463 0.193959 0.000000
0.527805 0.193330 0.000000
0.567155 0.192700 0.000000
0.606513 0.192071 0.000000
0.645876 0.191441 0.000000
0.685244 0.190811 0.000000
0.724617 0.190181 0.000000
0.763992 0.189551 0.000000
0.803370 0.188921 0.000000
0.842751 0.188291 0.000000
0.882134 0.187661 0.000000
0.921519 0.187030 0.000000
0.960905 0.186400 0.000000
1.000000 0.185770 0.000000
1.000000 0.185140 0.000000
1.000000 0.184510 0.000000
1.000000 0.184435 0.000000
1.000000 0.184435 0.000000
1.000000 0.184435 0.000000
1.000000 0.184435 0.000000
0.000000 0.234254 0.000000
0.021475 0.233521 0.000000
0.058503 0.232929 0.000000
0.096279 0.232324 0.000000
0.134685 0.231710 0.000000
0.173425 0.231090 0.000000
0.212362 0.230467 0.000000
0.251422 0.229842 0.000000
0.290563 0.229216 0.000000
0.329762 0.228589 0.000000
0.369001 0.227961 0.000000
0.408270 0.227332 0.000000
0.447563 0.226704 0.000000
0.486872 0.226075 0.000000
0.526196 0.225446 0.000000
0.565531 0.224816 0.000000
0.604876 0.224187 0.000000
0.644227 0.223557 0.000000
0.683585 0.222927 0.000000
0.722948 0.222298 0.000000
0.762315 0.221668 0.000000
0.801686 0.221038 0.000000
0.841060 0.220408 0.000000
0.880437 0.219778 0.000000
0.919817 0.219148 0.000000
0.959198 0.218517 0.000000
0.998582 0.217887 0.000000
1.000000 0.217257 0.000000
1.000000 0.216627 0.000000
1.000000 0.216554 0.000000
1.000000 0.216554 0.000000
1.000000 0.216554 0.000000
1.000000 0.216554 0.000000
0.000000 0.266331 0.000000
0.021899 0.265604 0.000000
0.058228 0.265023 0.000000
0.095605 0.264425 0.000000
0.133759 0.263815 0.000000
0.172329 0.263197 0.000000
0.211145 0.262576 0.000000
0.250116 0.261953 0.000000
0.289189 0.261328 0.000000
0.328334 0.260701 0.000000
0.367531 0.260074 0.000000
0.406765 0.259446 0.000000
0.446028 0.258818 0.000000
0.485314 0.258190 0.000000
0.524617 0.257561 0.000000
0.563934 0.256932 0.000000
0.603263 0.256302 0.000000
0.642601 0.255673 0.000000
0.681947 0.255043 0.000000
0.721299 0.254414 0.000000
0.760657 0.253784 0.000000
0.800019 0.253154 0.000000
0.839386 0.252524 0.000000
0.878756 0.251894 0.000000
0.918129 0.251265 0.000000
0.957505 0.250635 0.000000
0.996883 0.250004 0.000000
1.000000 0.249374 0.000000
1.000000 0.248744 0.000000
1.000000 0.248673 0.000000
1.000000 0.248673 0.000000
1.000000 0.248673 0.000000
1.000000 0.248673 0.000000
0.000000 0.298402 0.000000
0.022564 0.297684 0.000000
0.058139 0.297114 0.000000
0.095075 0.296523 0.000000
0.132948 0.295917 0.000000
0.171328 0.295303 0.000000
0.210008 0.294684 0.000000
0.248878 0.294063 0.000000
0.287874 0.293439 0.000000
0.326958 0.292813 0.000000
0.366106 0.292187 0.000000
0.405300 0.291560 0.000000
0.444530 0.290932 0.000000
0.483788 0.290304 0.000000
0.523067 0.289675 0.000000
0.562364 0.289047 0.000000
0.601675 0.288418 0.000000
0.640998 0.287789 0.000000
0.680330 0.287159 0.000000
0.719671 0.286530 0.000000
0.759018 0.285900 0.000000
0.798371 0.285271 0.000000
0.837729 0.284641 0.000000
0.877091 0.284011 0.000000
0.916457 0.283381 0.000000
0.955827 0.282751 0.000000
0.995199 0.282121 0.000000
1.000000 0.281491 0.000000
1.000000 0.280861 0.000000
1.000000 0.280791 0.000000
1.000000 0.280791 0.000000
1.000000 0.280791 0.000000
1.000000 0.280791 0.000000
0.000000 0.330467 0.000000
0.023458 0.329759 0.000000
0.058235 0.329203 0.000000
0.094693 0.328619 0.000000
0.132255 0.328018 0.000000
0.170423 0.327408 0.000000
0.208951 0.326791 0.000000
0.247708 0.326171 0.000000
0.286618 0.325549 0.000000
0.325634 0.324924 0.000000
0.364727 0.324299 0.000000
0.403877 0.323672 0.000000
0.443070 0.323045 0.000000
0.482296 0.322418 0.000000
0.521549 0.321790 0.000000
0.560823 0.321161 0.000000
0.600114 0.320533 0.000000
0.639420 0.319904 0.000000
0.678737 0.319275 0.000000
0.718063 0.318645 0.000000
0.757399 0.318016 0.000000
0.796741 0.317387 0.000000
0.836089 0.316757 0.000000
0.875443 0.316127 0.000000
0.914801 0.315498 0.000000
0.954163 0.314868 0.000000
0.993528 0.314238 0.000000
1.000000 0.313608 0.000000
1.000000 0.312978 0.000000
1.000000 0.312910 0.000000
1.000000 0.312910 0.000000
1.000000 0.312910 0.000000
1.000000 0.312910 0.000000
0.000000 0.362526 0.000000
0.024572 0.361831 0.000000
0.058515 0.361288 0.000000
0.094457 0.360713 0.000000
0.131682 0.360118 0.000000
0.169617 0.359511 0.000000
0.207978 0.358897 0.000000
0.246610 0.358279 0.000000
0.285423 0.357658 0.000000
0.324364 0.357035 0.000000
0.363396 0.356410 0.000000
0.402496 0.355784 0.000000
0.441648 0.355158 0.000000
0.480840 0.354531 0.000000
0.520063 0.353903 0.000000
0.559311 0.353275 0.000000
0.598581 0.352647 0.000000
0.637867 0.352019 0.000000
0.677166 0.351390 0.000000
0.716478 0.350761 0.000000
0.755800 0.350132 0.000000
0.795130 0.349502 0.000000
0.834468 0.348873 0.000000
0.873811 0.348243 0.000000
0.913160 0.347614 0.000000
0.952514 0.346984 0.000000
0.991873 0.346354 0.000000
1.000000 0.345725 0.000000
1.000000 0.345095 0.000000
1.000000 0.345029 0.000000
1.000000 0.345029 0.000000
1.000000 0.345029 0.000000
1.000000 0.345029 0.000000
0.000000 0.394578 0.000000
0.025893 0.393900 0.000000
0.058974 0.393371 0.000000
0.094369 0.392804 0.000000
0.131229 0.392215 0.000000
0.168911 0.391612 0.000000
0.207089 0.391001 0.000000
0.245584 0.390385 0.000000
0.284292 0.389766 0.000000
0.323150 0.389144 0.000000
0.362115 0.388521 0.000000
0.401160 0.387896 0.000000
0.440266 0.387270 0.000000
0.479419 0.386644 0.000000
0.518610 0.386017 0.000000
0.557830 0.385389 0.000000
0.597075 0.384761 0.000000
0.636339 0.384133 0.000000
0.675621 0.383504 0.000000
0.714916 0.382876 0.000000
0.754222 0.382247 0.000000
0.793539 0.381618 0.000000
0.832865 0.380988 0.000000
0.872198 0.380359 0.000000
0.911537 0.379730 0.000000
0.950882 0.379100 0.000000
0.990232 0.378471 0.000000
1.000000 0.377841 0.000000
1.000000 0.377211 0.000000
1.000000 0.377147 0.000000
1.000000 0.377147 0.000000
1.000000 0.377147 0.000000
1.000000 0.377147 0.000000
0.000000 0.426624 0.000000
0.027407 0.425966 0.000000
0.059608 0.425451 0.000000
0.094427 0.424893 0.000000
0.130898 0.424310 0.000000
0.168306 0.423711 0.000000
0.206286 0.423104 0.000000
0.244632 0.422490 0.000000
0.283225 0.421873 0.000000
0.321992 0.421252 0.000000
0.360883 0.420630 0.000000
0.399869 0.420006 0.000000
0.438925 0.419381 0.000000
0.478036 0.418756 0.000000
0.517190 0.418129 0.000000
0.556380 0.417502 0.000000
0.595598 0.416875 0.000000
0.634839 0.416247 0.000000
0.674099 0.415619 0.000000
0.713376 0.414990 0.000000
0.752667 0.414362 0.000000
0.791969 0.413733 0.000000
0.831281 0.413104 0.000000
0.870602 0.412475 0.000000
0.909931 0.411845 0.000000
0.949266 0.411216 0.000000
0.988607 0.410587 0.000000
1.000000 0.409957 0.000000
1.000000 0.409327 0.000000
1.000000 0.409266 0.000000
1.000000 0.409266 0.000000
1.000000 0.409266 0.000000
1.000000 0.409266 0.000000
0.000000 0.458663 0.000000
0.029103 0.458029 0.000000
0.060412 0.457528 0.000000
0.094631 0.456980 0.000000
0.130688 0.456403 0.000000
0.167805 0.455809 0.000000
0.205570 0.455205 0.000000
0.243755 0.454594 0.000000
0.282224 0.453979 0.000000
0.320892 0.453360 0.000000
0.359704 0.452739 0.000000
0.398623 0.452116 0.000000
0.437625 0.451492 0.000000
0.476690 0.450867 0.000000
0.515806 0.450241 0.000000
0.554962 0.449615 0.000000
0.594150 0.448988 0.000000
0.633366 0.448360 0.000000
0.672604 0.447733 0.000000
0.711860 0.447104 0.000000
0.751133 0.446476 0.000000
0.790419 0.445847 0.000000
0.829717 0.445219 0.000000
0.869025 0.444590 0.000000
0.908342 0.443961 0.000000
0.947666 0.443331 0.000000
0.986997 0.442702 0.000000
1.000000 0.442073 0.000000
1.000000 0.441443 0.000000
1.000000 0.441385 0.000000
1.000000 0.441385 0.000000
1.000000 0.441385 0.000000
1.000000 0.441385 0.000000
0.000000 0.490695 0.000000
0.030967 0.490089 0.000000
0.061381 0.489602 0.000000
0.094978 0.489065 0.000000
0.130600 0.488495 0.000000
0.167406 0.487906 0.000000
0.204943 0.487305 0.000000
0.242955 0.486697 0.000000
0.281289 0.486084 0.000000
0.319850 0.485467 0.000000
0.358576 0.484847 0.000000
0.397425 0.484225 0.000000
0.436368 0.483602 0.000000
0.475384 0.482978 0.000000
0.514457 0.482353 0.000000
0.553576 0.481727 0.000000
0.592733 0.481100 0.000000
0.631921 0.480473 0.000000
0.671134 0.479846 0.000000
0.710369 0.479218 0.000000
0.749622 0.478590 0.000000
0.788891 0.477962 0.000000
0.828174 0.477333 0.000000
0.867467 0.476705 0.000000
0.906771 0.476076 0.000000
0.946084 0.475447 0.000000
0.985404 0.474818 0.000000
1.000000 0.474188 0.000000
1.000000 0.473559 0.000000
1.000000 0.473503 0.000000
1.000000 0.473503 0.000000
1.000000 0.473503 0.000000
1.000000 0.473503 0.000000
0.000000 0.522721 0.000000
0.032987 0.522146 0.000000
0.062508 0.521674 0.000000
0.095466 0.521147 0.000000
0.130634 0.520584 0.000000
0.167111 0.520000 0.000000
0.204405 0.519404 0.000000
0.242232 0.518798 0.000000
0.280422 0.518187 0.000000
0.318869 0.517572 0.000000
0.357503 0.516954 0.000000
0.396275 0.516334 0.000000
0.435155 0.515712 0.000000
0.474116 0.515088 0.000000
0.513144 0.514464 0.000000
0.552224 0.513838 0.000000
0.591346 0.513213 0.000000
0.630504 0.512586 0.000000
0.669691 0.511959 0.000000
0.708903 0.511332 0.000000
0.748135 0.510704 0.000000
0.787385 0.510076 0.000000
0.826651 0.509448 0.000000
0.865929 0.508819 0.000000
0.905219 0.508191 0.000000
0.944519 0.507562 0.000000
0.983828 0.506933 0.000000
1.000000 0.506304 0.000000
1.000000 0.505674 0.000000
1.000000 0.505622 0.000000
1.000000 0.505622 0.000000
1.000000 0.505622 0.000000
1.000000 0.505622 0.000000
0.001050 0.554747 0.000000
0.035151 0.554202 0.000000
0.063787 0.553743 0.000000
0.096093 0.553227 0.000000
0.130788 0.552671 0.000000
0.166920 0.552093 0.000000
0.203956 0.551501 0.000000
0.241587 0.550899 0.000000
0.279624 0.550290 0.000000
0.317949 0.549677 0.000000
0.356483 0.549060 0.000000
0.395174 0.548441 0.000000
0.433985 0.547820 0.000000
0.472890 0.547198 0.000000
0.511868 0.546574 0.000000
0.550905 0.545949 0.000000
0.589991 0.545324 0.000000
0.629117 0.544698 0.000000
0.668275 0.544072 0.000000
0.707462 0.543445 0.000000
0.746671 0.542817 0.000000
0.785901 0.542190 0.000000
0.825149 0.541562 0.000000
0.864411 0.540933 0.000000
0.903686 0.540305 0.000000
0.942972 0.539676 0.000000
0.982269 0.539048 0.000000
1.000000 0.538419 0.000000
1.000000 0.537790 0.000000
1.000000 0.537741 0.000000
1.000000 0.537741 0.000000
1.000000 0.537741 0.000000
1.000000 0.537741 0.000000
0.005055 0.586773 0.000000
0.037448 0.586255 0.000000
0.065210 0.585811 0.000000
0.096854 0.585304 0.000000
0.131061 0.584757 0.000000
0.166833 0.584185 0.000000
0.203598 0.583596 0.000000
0.241021 0.582998 0.000000
0.278895 0.582392 0.000000
0.317090 0.581780 0.000000
0.355518 0.581166 0.000000
0.394123 0.580548 0.000000
0.432861 0.579928 0.000000
0.471704 0.579307 0.000000
0.510629 0.578684 0.000000
0.549621 0.578060 0.000000
0.588668 0.577435 0.000000
0.627759 0.576810 0.000000
0.666887 0.576184 0.000000
0.706046 0.575557 0.000000
0.745232 0.574930 0.000000
0.784440 0.574303 0.000000
0.823668 0.573675 0.000000
0.862913 0.573047 0.000000
0.902172 0.572419 0.000000
0.941444 0.571791 0.000000
0.980727 0.571162 0.000000
1.000000 0.570534 0.000000
1.000000 0.569905 0.000000
1.000000 0.569860 0.000000
1.000000 0.569860 0.000000
1.000000 0.569860 0.000000
1.000000 0.569860 0.000000
0.009060 0.618799 0.000000
0.039867 0.618306 0.000000
0.066772 0.617876 0.000000
0.097747 0.617380 0.000000
0.131452 0.616841 0.000000
0.166849 0.616274 0.000000
0.203330 0.615691 0.000000
0.240534 0.615095 0.000000
0.278236 0.614492 0.000000
0.316293 0.613883 0.000000
0.354610 0.613270 0.000000
0.393121 0.612654 0.000000
0.431782 0.612035 0.000000
0.470559 0.611415 0.000000
0.509429 0.610793 0.000000
0.548373 0.610170 0.000000
0.587377 0.609546 0.000000
0.626431 0.608921 0.000000
0.665527 0.608295 0.000000
0.704657 0.607669 0.000000
0.743818 0.607043 0.000000
0.783003 0.606416 0.000000
0.822210 0.605788 0.000000
0.861435 0.605161 0.000000
0.900677 0.604533 0.000000
0.939934 0.603905 0.000000
0.979202 0.603277 0.000000
1.000000 0.602648 0.000000
1.000000 0.602019 0.000000
1.000000 0.601978 0.000000
1.000000 0.601978 0.000000
1.000000 0.601978 0.000000
1.000000 0.601978 0.000000
0.013065 0.650825 0.000000
0.042398 0.650355 0.000000
0.068464 0.649938 0.000000
0.098768 0.649454 0.000000
0.131959 0.648922 0.000000
0.166968 0.648362 0.000000
0.203153 0.647783 0.000000
0.240127 0.647192 0.000000
0.277648 0.646591 0.000000
0.315559 0.645985 0.000000
0.353758 0.645374 0.000000
0.392171 0.644759 0.000000
0.430750 0.644142 0.000000
0.469457 0.643522 0.000000
0.508267 0.642901 0.000000
0.547160 0.642279 0.000000
0.586120 0.641656 0.000000
0.625135 0.641032 0.000000
0.664196 0.640407 0.000000
0.703295 0.639781 0.000000
0.742428 0.639155 0.000000
0.781589 0.638528 0.000000
0.820773 0.637901 0.000000
0.859979 0.637274 0.000000
0.899203 0.636646 0.000000
0.938442 0.636019 0.000000
0.977696 0.635391 0.000000
1.000000 0.634762 0.000000
1.000000 0.634134 0.000000
1.000000 0.634097 0.000000
1.000000 0.634097 0.000000
1.000000 0.634097 0.000000
1.000000 0.634097 0.000000
0.017069 0.682851 0.000000
0.045033 0.682403 0.000000
0.070281 0.681999 0.000000
0.099913 0.681525 0.000000
0.132581 0.681002 0.000000
0.167189 0.680449 0.000000
0.203066 0.679875 0.000000
0.239800 0.679287 0.000000
0.277131 0.678690 0.000000
0.314889 0.678085 0.000000
0.352962 0.677476 0.000000
0.391272 0.676863 0.000000
0.429764 0.676247 0.000000
0.468398 0.675629 0.000000
0.507145 0.675009 0.000000
0.545983 0.674388 0.000000
0.584896 0.673765 0.000000
0.623869 0.673142 0.000000
0.662893 0.672517 0.000000
0.701961 0.671892 0.000000
0.741064 0.671267 0.000000
0.780199 0.670640 0.000000
0.819360 0.670014 0.000000
0.858544 0.669387 0.000000
0.897749 0.668760 0.000000
0.936970 0.668132 0.000000
0.976208 0.667504 0.000000
1.000000 0.666876 0.000000
1.000000 0.666248 0.000000
1.000000 0.666216 0.000000
1.000000 0.666216 0.000000
1.000000 0.666216 0.000000
1.000000 0.666216 0.000000
0.021074 0.714876 0.000000
0.047761 0.714449 0.000000
0.072215 0.714058 0.000000
0.101177 0.713595 0.000000
0.133314 0.713081 0.000000
0.167510 0.712533 0.000000
0.203069 0.711965 0.000000
0.239553 0.711381 0.000000
0.276685 0.710787 0.000000
0.314283 0.710185 0.000000
0.352225 0.709578 0.000000
0.390426 0.708967 0.000000
0.428826 0.708352 0.000000
0.467382 0.707736 0.000000
0.506063 0.707117 0.000000
0.544843 0.706496 0.000000
0.583706 0.705874 0.000000
0.622635 0.705251 0.000000
0.661621 0.704628 0.000000
0.700653 0.704003 0.000000
0.739726 0.703378 0.000000
0.778833 0.702752 0.000000
0.817969 0.702126 0.000000
0.857131 0.701499 0.000000
0.896315 0.700873 0.000000
0.935518 0.700245 0.000000
0.974738 0.699618 0.000000
1.000000 0.698990 0.000000
1.000000 0.698362 0.000000
1.000000 0.698334 0.000000
1.000000 0.698334 0.000000
1.000000 0.698334 0.000000
1.000000 0.698334 0.000000
0.025079 0.746902 0.000000
0.050577 0.746494 0.000000
0.074260 0.746115 0.000000
0.102557 0.745663 0.000000
0.134157 0.745157 0.000000
0.167932 0.744617 0.000000
0.203161 0.744053 0.000000
0.239386 0.743473 0.000000
0.276311 0.742883 0.000000
0.313741 0.742284 0.000000
0.351545 0.741679 0.000000
0.389631 0.741069 0.000000
0.427936 0.740457 0.000000
0.466410 0.739841 0.000000
0.505021 0.739223 0.000000
0.543741 0.738604 0.000000
0.582550 0.737983 0.000000
0.621433 0.737361 0.000000
0.660378 0.736737 0.000000
0.699374 0.736114 0.000000
0.738414 0.735489 0.000000
0.777492 0.734864 0.000000
0.816602 0.734238 0.000000
0.855740 0.733612 0.000000
0.894902 0.732985 0.000000
0.934086 0.732358 0.000000
0.973288 0.731731 0.000000
1.000000 0.731103 0.000000
1.000000 0.730476 0.000000
1.000000 0.730453 0.000000
1.000000 0.730453 0.000000
1.000000 0.730453 0.000000
1.000000 0.730453 0.000000
0.029084 0.778928 0.000000
0.053472 0.778538 0.000000
0.076410 0.778171 0.000000
0.104048 0.777729 0.000000
0.135106 0.777232 0.000000
0.168453 0.776698 0.000000
0.203343 0.776140 0.000000
0.239299 0.775565 0.000000
0.276008 0.774977 0.000000
0.313264 0.774381 0.000000
0.350924 0.773779 0.000000
0.388890 0.773171 0.000000
0.427094 0.772560 0.000000
0.465483 0.771946 0.000000
0.504020 0.771329 0.000000
0.542676 0.770711 0.000000
0.581430 0.770091 0.000000
0.620264 0.769469 0.000000
0.659165 0.768847 0.000000
0.698123 0.768223 0.000000
0.737129 0.767599 0.000000
0.776176 0.766975 0.000000
0.815259 0.766349 0.000000
0.854371 0.765723 0.000000
0.893511 0.765097 0.000000
0.932673 0.764471 0.000000
0.971857 0.763844 0.000000
1.000000 0.763216 0.000000
1.000000 0.762589 0.000000
1.000000 0.762572 0.000000
1.000000 0.762572 0.000000
1.000000 0.762572 0.000000
1.000000 0.762572 0.000000
0.033088 0.810954 0.000000
0.056441 0.810580 0.000000
0.078659 0.810225 0.000000
0.105646 0.809793 0.000000
0.136161 0.809305 0.000000
0.169070 0.808778 0.000000
0.203613 0.808226 0.000000
0.239292 0.807655 0.000000
0.275778 0.807071 0.000000
0.312851 0.806478 0.000000
0.350361 0.805878 0.000000
0.388203 0.805272 0.000000
0.426301 0.804663 0.000000
0.464600 0.804050 0.000000
0.503060 0.803434 0.000000
0.541649 0.802817 0.000000
0.580345 0.802198 0.000000
0.619128 0.801577 0.000000
0.657984 0.800956 0.000000
0.696902 0.800333 0.000000
0.735872 0.799709 0.000000
0.774886 0.799085 0.000000
0.813939 0.798460 0.000000
0.853026 0.797835 0.000000
