UWC_LUTs/UWC_03_EauBleue_Tropicale.cube
# UWC Eau bleue tropicale
# UWC — correction couleur sous-marine · entree Rec.709
TITLE "UWC Eau bleue tropicale"
LUT_3D_SIZE 33
DOMAIN_MIN 0 0 0
DOMAIN_MAX 1 1 1
0.000000 0.000000 0.000000
0.024764 0.000000 0.000000
0.068384 0.000000 0.000000
0.111276 0.000000 0.000000
0.154168 0.000000 0.000000
0.197060 0.000000 0.000000
0.239952 0.000000 0.000000
0.282844 0.000000 0.000000
0.325737 0.000000 0.000000
0.368629 0.000000 0.000000
0.411521 0.000000 0.000000
0.454413 0.000000 0.000000
0.497305 0.000000 0.000000
0.540197 0.000000 0.000000
0.583089 0.000000 0.000000
0.625981 0.000000 0.000000
0.668874 0.000000 0.000000
0.711766 0.000000 0.000000
0.754658 0.000000 0.000000
0.797550 0.000000 0.000000
0.840442 0.000000 0.000000
0.883334 0.000000 0.000000
0.926226 0.000000 0.000000
0.969118 0.000000 0.000000
1.000000 0.000000 0.000000
1.000000 0.000000 0.000000
1.000000 0.000000 0.000000
1.000000 0.000000 0.000000
1.000000 0.000000 0.000000
1.000000 0.000000 0.000000
1.000000 0.000000 0.000000
1.000000 0.000000 0.000000
1.000000 0.000000 0.000000
0.000000 0.004051 0.000000
0.023182 0.002974 0.000000
0.066522 0.002119 0.000000
0.109272 0.001277 0.000000
0.152079 0.000433 0.000000
0.194915 0.000000 0.000000
0.237768 0.000000 0.000000
0.280631 0.000000 0.000000
0.323501 0.000000 0.000000
0.366376 0.000000 0.000000
0.409255 0.000000 0.000000
0.452136 0.000000 0.000000
0.495019 0.000000 0.000000
0.537903 0.000000 0.000000
0.580789 0.000000 0.000000
0.623675 0.000000 0.000000
0.666562 0.000000 0.000000
0.709450 0.000000 0.000000
0.752339 0.000000 0.000000
0.795227 0.000000 0.000000
0.838116 0.000000 0.000000
0.881006 0.000000 0.000000
0.923896 0.000000 0.000000
0.966786 0.000000 0.000000
1.000000 0.000000 0.000000
1.000000 0.000000 0.000000
1.000000 0.000000 0.000000
1.000000 0.000000 0.000000
1.000000 0.000000 0.000000
1.000000 0.000000 0.000000
1.000000 0.000000 0.000000
1.000000 0.000000 0.000000
1.000000 0.000000 0.000000
0.000000 0.038099 0.000000
0.021694 0.037025 0.000000
0.064724 0.036177 0.000000
0.107315 0.035337 0.000000
0.150025 0.034495 0.000000
0.192798 0.033652 0.000000
0.235607 0.032809 0.000000
0.278438 0.031965 0.000000
0.321283 0.031120 0.000000
0.364139 0.030276 0.000000
0.407002 0.029431 0.000000
0.449871 0.028586 0.000000
0.492743 0.027741 0.000000
0.535619 0.026896 0.000000
0.578497 0.026051 0.000000
0.621377 0.025206 0.000000
0.664259 0.024361 0.000000
0.707142 0.023516 0.000000
0.750026 0.022671 0.000000
0.792911 0.021825 0.000000
0.835797 0.020980 0.000000
0.878683 0.020135 0.000000
0.921570 0.019290 0.000000
0.964458 0.018444 0.000000
1.000000 0.017599 0.000000
1.000000 0.016754 0.000000
1.000000 0.015909 0.000000
1.000000 0.015601 0.000000
1.000000 0.015601 0.000000
1.000000 0.015601 0.000000
1.000000 0.015601 0.000000
1.000000 0.015601 0.000000
1.000000 0.015601 0.000000
0.000000 0.072139 0.000000
0.020574 0.071068 0.000000
0.063170 0.070229 0.000000
0.105534 0.069394 0.000000
0.148108 0.068555 0.000000
0.190791 0.067714 0.000000
0.233536 0.066871 0.000000
0.276321 0.066028 0.000000
0.319131 0.065184 0.000000
0.361959 0.064340 0.000000
0.404800 0.063496 0.000000
0.447651 0.062652 0.000000
0.490508 0.061807 0.000000
0.533371 0.060962 0.000000
0.576239 0.060117 0.000000
0.619110 0.059272 0.000000
0.661983 0.058427 0.000000
0.704859 0.057582 0.000000
0.747738 0.056737 0.000000
0.790617 0.055892 0.000000
0.833498 0.055047 0.000000
0.876380 0.054202 0.000000
0.919263 0.053357 0.000000
0.962148 0.052512 0.000000
1.000000 0.051667 0.000000
1.000000 0.050821 0.000000
1.000000 0.049976 0.000000
1.000000 0.049670 0.000000
1.000000 0.049670 0.000000
1.000000 0.049670 0.000000
1.000000 0.049670 0.000000
1.000000 0.049670 0.000000
1.000000 0.049670 0.000000
0.000000 0.106169 0.000000
0.019854 0.105104 0.000000
0.061886 0.104276 0.000000
0.103952 0.103447 0.000000
0.146344 0.102611 0.000000
0.188907 0.101773 0.000000
0.231567 0.100932 0.000000
0.274290 0.100090 0.000000
0.317053 0.099247 0.000000
0.359844 0.098404 0.000000
0.402655 0.097560 0.000000
0.445481 0.096716 0.000000
0.488319 0.095872 0.000000
0.531165 0.095027 0.000000
0.574018 0.094183 0.000000
0.616877 0.093338 0.000000
0.659740 0.092493 0.000000
0.702607 0.091648 0.000000
0.745477 0.090804 0.000000
0.788349 0.089959 0.000000
0.831224 0.089114 0.000000
0.874100 0.088269 0.000000
0.916978 0.087424 0.000000
0.959858 0.086579 0.000000
1.000000 0.085733 0.000000
1.000000 0.084888 0.000000
1.000000 0.084043 0.000000
1.000000 0.083738 0.000000
1.000000 0.083738 0.000000
1.000000 0.083738 0.000000
1.000000 0.083738 0.000000
1.000000 0.083738 0.000000
1.000000 0.083738 0.000000
0.000000 0.140189 0.000000
0.019544 0.139132 0.000000
0.060886 0.138317 0.000000
0.102581 0.137496 0.000000
0.144744 0.136665 0.000000
0.187154 0.135829 0.000000
0.229708 0.134990 0.000000
0.272351 0.134150 0.000000
0.315054 0.133308 0.000000
0.357798 0.132466 0.000000
0.400572 0.131623 0.000000
0.443367 0.130779 0.000000
0.486179 0.129936 0.000000
0.529004 0.129092 0.000000
0.571839 0.128247 0.000000
0.614682 0.127403 0.000000
0.657532 0.126559 0.000000
0.700387 0.125714 0.000000
0.743246 0.124869 0.000000
0.786109 0.124025 0.000000
0.828976 0.123180 0.000000
0.871845 0.122335 0.000000
0.914716 0.121490 0.000000
0.957589 0.120645 0.000000
1.000000 0.119800 0.000000
1.000000 0.118955 0.000000
1.000000 0.118110 0.000000
1.000000 0.117806 0.000000
1.000000 0.117806 0.000000
1.000000 0.117806 0.000000
1.000000 0.117806 0.000000
1.000000 0.117806 0.000000
1.000000 0.117806 0.000000
0.000000 0.174197 0.000000
0.019644 0.173152 0.000000
0.060180 0.172353 0.000000
0.101430 0.171540 0.000000
0.143316 0.170715 0.000000
0.185541 0.169882 0.000000
0.227964 0.169046 0.000000
0.270511 0.168208 0.000000
0.313140 0.167368 0.000000
0.355827 0.166526 0.000000
0.398554 0.165684 0.000000
0.441312 0.164842 0.000000
0.484092 0.163998 0.000000
0.526891 0.163155 0.000000
0.569704 0.162311 0.000000
0.612527 0.161467 0.000000
0.655360 0.160623 0.000000
0.698201 0.159779 0.000000
0.741047 0.158934 0.000000
0.783899 0.158090 0.000000
0.826755 0.157245 0.000000
0.869615 0.156400 0.000000
0.912478 0.155556 0.000000
0.955344 0.154711 0.000000
0.998213 0.153866 0.000000
1.000000 0.153021 0.000000
1.000000 0.152176 0.000000
1.000000 0.151875 0.000000
1.000000 0.151875 0.000000
1.000000 0.151875 0.000000
1.000000 0.151875 0.000000
1.000000 0.151875 0.000000
1.000000 0.151875 0.000000
0.000000 0.208193 0.000000
0.020148 0.207164 0.000000
0.059774 0.206383 0.000000
0.100507 0.205580 0.000000
0.142069 0.204761 0.000000
0.184075 0.203933 0.000000
0.226342 0.203100 0.000000
0.268774 0.202264 0.000000
0.311316 0.201425 0.000000
0.353933 0.200585 0.000000
0.396605 0.199744 0.000000
0.439318 0.198903 0.000000
0.482061 0.198060 0.000000
0.524828 0.197217 0.000000
0.567614 0.196374 0.000000
0.610415 0.195531 0.000000
0.653228 0.194687 0.000000
0.696051 0.193843 0.000000
0.738882 0.192999 0.000000
0.781720 0.192154 0.000000
0.824564 0.191310 0.000000
0.867414 0.190466 0.000000
0.910267 0.189621 0.000000
0.953124 0.188776 0.000000
0.995984 0.187932 0.000000
1.000000 0.187087 0.000000
1.000000 0.186242 0.000000
1.000000 0.185943 0.000000
1.000000 0.185943 0.000000
1.000000 0.185943 0.000000
1.000000 0.185943 0.000000
1.000000 0.185943 0.000000
1.000000 0.185943 0.000000
0.000000 0.242177 0.000000
0.021039 0.241168 0.000000
0.059668 0.240406 0.000000
0.099818 0.239615 0.000000
0.141007 0.238803 0.000000
0.182760 0.237981 0.000000
0.224847 0.237151 0.000000
0.267145 0.236317 0.000000
0.309584 0.235481 0.000000
0.352121 0.234643 0.000000
0.394729 0.233803 0.000000
0.437389 0.232962 0.000000
0.480088 0.232121 0.000000
0.522818 0.231279 0.000000
0.565573 0.230436 0.000000
0.608347 0.229593 0.000000
0.651136 0.228750 0.000000
0.693939 0.227906 0.000000
0.736752 0.227062 0.000000
0.779574 0.226218 0.000000
0.822404 0.225374 0.000000
0.865241 0.224530 0.000000
0.908083 0.223686 0.000000
0.950929 0.222841 0.000000
0.993780 0.221997 0.000000
1.000000 0.221152 0.000000
1.000000 0.220308 0.000000
1.000000 0.220012 0.000000
1.000000 0.220012 0.000000
1.000000 0.220012 0.000000
1.000000 0.220012 0.000000
1.000000 0.220012 0.000000
1.000000 0.220012 0.000000
0.000000 0.276148 0.000000
0.022300 0.275165 0.000000
0.059860 0.274424 0.000000
0.099364 0.273646 0.000000
0.140134 0.272842 0.000000
0.181601 0.272025 0.000000
0.223482 0.271200 0.000000
0.265627 0.270369 0.000000
0.307949 0.269535 0.000000
0.350394 0.268699 0.000000
0.392927 0.267860 0.000000
0.435527 0.267021 0.000000
0.478176 0.266180 0.000000
0.520863 0.265339 0.000000
0.563582 0.264497 0.000000
0.606325 0.263655 0.000000
0.649087 0.262812 0.000000
0.691866 0.261969 0.000000
0.734659 0.261125 0.000000
0.777463 0.260282 0.000000
0.820276 0.259438 0.000000
0.863098 0.258594 0.000000
0.905927 0.257750 0.000000
0.948762 0.256906 0.000000
0.991602 0.256061 0.000000
1.000000 0.255217 0.000000
1.000000 0.254373 0.000000
1.000000 0.254080 0.000000
1.000000 0.254080 0.000000
1.000000 0.254080 0.000000
1.000000 0.254080 0.000000
1.000000 0.254080 0.000000
1.000000 0.254080 0.000000
0.000000 0.310105 0.000000
0.023908 0.309155 0.000000
0.060346 0.308437 0.000000
0.099149 0.307672 0.000000
0.139455 0.306877 0.000000
0.180602 0.306067 0.000000
0.222252 0.305246 0.000000
0.264225 0.304418 0.000000
0.306414 0.303587 0.000000
0.348755 0.302753 0.000000
0.391204 0.301916 0.000000
0.433734 0.301078 0.000000
0.476326 0.300238 0.000000
0.518966 0.299398 0.000000
0.561643 0.298557 0.000000
0.604351 0.297715 0.000000
0.647083 0.296873 0.000000
0.689835 0.296030 0.000000
0.732604 0.295188 0.000000
0.775387 0.294344 0.000000
0.818182 0.293501 0.000000
0.860987 0.292657 0.000000
0.903801 0.291814 0.000000
0.946622 0.290970 0.000000
0.989450 0.290126 0.000000
1.000000 0.289281 0.000000
1.000000 0.288437 0.000000
1.000000 0.288148 0.000000
1.000000 0.288148 0.000000
1.000000 0.288148 0.000000
1.000000 0.288148 0.000000
1.000000 0.288148 0.000000
1.000000 0.288148 0.000000
0.000000 0.344048 0.000000
0.025837 0.343138 0.000000
0.061117 0.342443 0.000000
0.099170 0.341693 0.000000
0.138972 0.340909 0.000000
0.179765 0.340105 0.000000
0.221160 0.339289 0.000000
0.262941 0.338465 0.000000
0.304982 0.337637 0.000000
0.347206 0.336805 0.000000
0.389561 0.335970 0.000000
0.432014 0.335133 0.000000
0.474541 0.334295 0.000000
0.517127 0.333456 0.000000
0.559758 0.332616 0.000000
0.602426 0.331775 0.000000
0.645124 0.330933 0.000000
0.687846 0.330091 0.000000
0.730588 0.329249 0.000000
0.773348 0.328406 0.000000
0.816122 0.327563 0.000000
0.858908 0.326720 0.000000
0.901705 0.325877 0.000000
0.944511 0.325033 0.000000
0.987325 0.324189 0.000000
1.000000 0.323345 0.000000
1.000000 0.322501 0.000000
1.000000 0.322217 0.000000
1.000000 0.322217 0.000000
1.000000 0.322217 0.000000
1.000000 0.322217 0.000000
1.000000 0.322217 0.000000
1.000000 0.322217 0.000000
0.000000 0.377976 0.000000
0.028064 0.377116 0.000000
0.062164 0.376444 0.000000
0.099425 0.375710 0.000000
0.138684 0.374936 0.000000
0.179094 0.374140 0.000000
0.220208 0.373329 0.000000
0.261778 0.372510 0.000000
0.303655 0.371685 0.000000
0.345749 0.370855 0.000000
0.388000 0.370022 0.000000
0.430367 0.369188 0.000000
0.472824 0.368351 0.000000
0.515349 0.367513 0.000000
0.557929 0.366674 0.000000
0.600553 0.365833 0.000000
0.643212 0.364993 0.000000
0.685901 0.364151 0.000000
0.728614 0.363310 0.000000
0.771347 0.362467 0.000000
0.814098 0.361625 0.000000
0.856863 0.360782 0.000000
0.899641 0.359939 0.000000
0.942430 0.359096 0.000000
0.985228 0.358252 0.000000
1.000000 0.357409 0.000000
1.000000 0.356565 0.000000
1.000000 0.356285 0.000000
1.000000 0.356285 0.000000
1.000000 0.356285 0.000000
1.000000 0.356285 0.000000
1.000000 0.356285 0.000000
1.000000 0.356285 0.000000
0.000000 0.411894 0.000000
0.030562 0.411089 0.000000
0.063477 0.410440 0.000000
0.099912 0.409722 0.000000
0.138593 0.408960 0.000000
0.178589 0.408171 0.000000
0.219398 0.407367 0.000000
0.260737 0.406552 0.000000
0.302436 0.405731 0.000000
0.344388 0.404904 0.000000
0.386524 0.404073 0.000000
0.428797 0.403240 0.000000
0.471175 0.402405 0.000000
0.513634 0.401568 0.000000
0.556157 0.400730 0.000000
0.598732 0.399891 0.000000
0.641349 0.399051 0.000000
0.684001 0.398211 0.000000
0.726681 0.397369 0.000000
0.769385 0.396528 0.000000
0.812110 0.395686 0.000000
0.854852 0.394843 0.000000
0.897609 0.394001 0.000000
0.940380 0.393158 0.000000
0.983161 0.392315 0.000000
1.000000 0.391471 0.000000
1.000000 0.390628 0.000000
1.000000 0.390354 0.000000
1.000000 0.390354 0.000000
1.000000 0.390354 0.000000
1.000000 0.390354 0.000000
1.000000 0.390354 0.000000
1.000000 0.390354 0.000000
0.000000 0.445811 0.000000
0.033307 0.445056 0.000000
0.065042 0.444431 0.000000
0.100626 0.443730 0.000000
0.138697 0.442979 0.000000
0.178251 0.442200 0.000000
0.218732 0.441402 0.000000
0.259822 0.440592 0.000000
0.301326 0.439774 0.000000
0.343123 0.438950 0.000000
0.385134 0.438122 0.000000
0.427304 0.437291 0.000000
0.469596 0.436458 0.000000
0.511982 0.435622 0.000000
0.554444 0.434786 0.000000
0.596965 0.433948 0.000000
0.639536 0.433109 0.000000
0.682147 0.432269 0.000000
0.724791 0.431428 0.000000
0.767464 0.430587 0.000000
0.810160 0.429746 0.000000
0.852877 0.428904 0.000000
0.895611 0.428062 0.000000
0.938361 0.427219 0.000000
0.981123 0.426377 0.000000
1.000000 0.425534 0.000000
1.000000 0.424690 0.000000
1.000000 0.424422 0.000000
1.000000 0.424422 0.000000
1.000000 0.424422 0.000000
1.000000 0.424422 0.000000
1.000000 0.424422 0.000000
1.000000 0.424422 0.000000
0.000345 0.479728 0.000000
0.036277 0.479019 0.000000
0.066847 0.478417 0.000000
0.101560 0.477733 0.000000
0.138994 0.476995 0.000000
0.178080 0.476225 0.000000
0.218211 0.475434 0.000000
0.259033 0.474629 0.000000
0.300327 0.473815 0.000000
0.341957 0.472995 0.000000
0.383832 0.472170 0.000000
0.425890 0.471341 0.000000
0.468089 0.470509 0.000000
0.510396 0.469675 0.000000
0.552790 0.468840 0.000000
0.595254 0.468003 0.000000
0.637774 0.467165 0.000000
0.680340 0.466326 0.000000
0.722946 0.465486 0.000000
0.765584 0.464646 0.000000
0.808249 0.463805 0.000000
0.850938 0.462964 0.000000
0.893648 0.462122 0.000000
0.936374 0.461280 0.000000
0.979116 0.460438 0.000000
1.000000 0.459595 0.000000
1.000000 0.458752 0.000000
1.000000 0.458490 0.000000
1.000000 0.458490 0.000000
1.000000 0.458490 0.000000
1.000000 0.458490 0.000000
1.000000 0.458490 0.000000
1.000000 0.458490 0.000000
0.005659 0.513645 0.000000
0.039450 0.512979 0.000000
0.068878 0.512399 0.000000
0.102708 0.511732 0.000000
0.139482 0.511007 0.000000
0.178076 0.510247 0.000000
0.217836 0.509463 0.000000
0.258371 0.508664 0.000000
0.299441 0.507855 0.000000
0.340891 0.507038 0.000000
0.382620 0.506215 0.000000
0.424557 0.505389 0.000000
0.466655 0.504559 0.000000
0.508877 0.503727 0.000000
0.551198 0.502893 0.000000
0.593598 0.502057 0.000000
0.636063 0.501220 0.000000
0.678582 0.500382 0.000000
0.721145 0.499544 0.000000
0.763746 0.498704 0.000000
0.806378 0.497864 0.000000
0.849037 0.497023 0.000000
0.891719 0.496182 0.000000
0.934421 0.495340 0.000000
0.977141 0.494498 0.000000
1.000000 0.493656 0.000000
1.000000 0.492814 0.000000
1.000000 0.492559 0.000000
1.000000 0.492559 0.000000
1.000000 0.492559 0.000000
1.000000 0.492559 0.000000
1.000000 0.492559 0.000000
1.000000 0.492559 0.000000
0.010973 0.547562 0.000000
0.042806 0.546934 0.000000
0.071122 0.546376 0.000000
0.104063 0.545727 0.000000
0.140157 0.545016 0.000000
0.178238 0.544265 0.000000
0.217606 0.543489 0.000000
0.257838 0.542696 0.000000
0.298668 0.541892 0.000000
0.339926 0.541078 0.000000
0.381498 0.540259 0.000000
0.423306 0.539435 0.000000
0.465295 0.538608 0.000000
0.507425 0.537777 0.000000
0.549668 0.536945 0.000000
0.592000 0.536111 0.000000
0.634407 0.535275 0.000000
0.676873 0.534438 0.000000
0.719391 0.533600 0.000000
0.761951 0.532761 0.000000
0.804546 0.531922 0.000000
0.847173 0.531082 0.000000
0.889826 0.530241 0.000000
0.932502 0.529400 0.000000
0.975197 0.528558 0.000000
1.000000 0.527717 0.000000
1.000000 0.526875 0.000000
1.000000 0.526627 0.000000
1.000000 0.526627 0.000000
1.000000 0.526627 0.000000
1.000000 0.526627 0.000000
1.000000 0.526627 0.000000
1.000000 0.526627 0.000000
0.016288 0.581479 0.000000
0.046327 0.580886 0.000000
0.073566 0.580350 0.000000
0.105616 0.579718 0.000000
0.141016 0.579020 0.000000
0.178564 0.578280 0.000000
0.217522 0.577513 0.000000
0.257433 0.576726 0.000000
0.298010 0.575926 0.000000
0.339064 0.575117 0.000000
0.380469 0.574301 0.000000
0.422138 0.573480 0.000000
0.464011 0.572655 0.000000
0.506043 0.571826 0.000000
0.548201 0.570995 0.000000
0.590461 0.570163 0.000000
0.632804 0.569328 0.000000
0.675215 0.568492 0.000000
0.717683 0.567655 0.000000
0.760200 0.566817 0.000000
0.802756 0.565979 0.000000
0.845348 0.565139 0.000000
0.887970 0.564299 0.000000
0.930617 0.563459 0.000000
0.973287 0.562618 0.000000
1.000000 0.561776 0.000000
1.000000 0.560935 0.000000
1.000000 0.560696 0.000000
1.000000 0.560696 0.000000
1.000000 0.560696 0.000000
1.000000 0.560696 0.000000
1.000000 0.560696 0.000000
1.000000 0.560696 0.000000
0.021602 0.615395 0.000000
0.049997 0.614836 0.000000
0.076196 0.614320 0.000000
0.107361 0.613705 0.000000
0.142054 0.613022 0.000000
0.179052 0.612292 0.000000
0.217582 0.611533 0.000000
0.257158 0.610753 0.000000
0.297467 0.609959 0.000000
0.338304 0.609154 0.000000
0.379532 0.608341 0.000000
0.421054 0.607523 0.000000
0.462804 0.606700 0.000000
0.504730 0.605874 0.000000
0.546799 0.605045 0.000000
0.588981 0.604213 0.000000
0.631256 0.603380 0.000000
0.673608 0.602546 0.000000
0.716024 0.601710 0.000000
0.758493 0.600873 0.000000
0.801008 0.600035 0.000000
0.843563 0.599196 0.000000
0.886150 0.598357 0.000000
0.928767 0.597517 0.000000
0.971409 0.596677 0.000000
1.000000 0.595836 0.000000
1.000000 0.594994 0.000000
1.000000 0.594764 0.000000
1.000000 0.594764 0.000000
1.000000 0.594764 0.000000
1.000000 0.594764 0.000000
1.000000 0.594764 0.000000
1.000000 0.594764 0.000000
0.026916 0.649312 0.000000
0.053801 0.648783 0.000000
0.079000 0.648286 0.000000
0.109289 0.647689 0.000000
0.143267 0.647019 0.000000
0.179700 0.646301 0.000000
0.217787 0.645551 0.000000
0.257012 0.644778 0.000000
0.297039 0.643989 0.000000
0.337649 0.643189 0.000000
0.378689 0.642380 0.000000
0.420056 0.641564 0.000000
0.461674 0.640744 0.000000
0.503489 0.639920 0.000000
0.545462 0.639093 0.000000
0.587561 0.638263 0.000000
0.629764 0.637431 0.000000
0.672053 0.636598 0.000000
0.714413 0.635763 0.000000
0.756832 0.634927 0.000000
0.799303 0.634090 0.000000
0.841817 0.633252 0.000000
0.884369 0.632414 0.000000
0.926953 0.631574 0.000000
0.969566 0.630735 0.000000
1.000000 0.629894 0.000000
1.000000 0.629054 0.000000
1.000000 0.628832 0.000000
1.000000 0.628832 0.000000
1.000000 0.628832 0.000000
1.000000 0.628832 0.000000
1.000000 0.628832 0.000000
1.000000 0.628832 0.000000
0.032230 0.683229 0.000000
0.057726 0.682727 0.000000
0.081966 0.682249 0.000000
0.111391 0.681669 0.000000
0.144649 0.681014 0.000000
0.180506 0.680307 0.000000
0.218135 0.679566 0.000000
0.256994 0.678800 0.000000
0.296728 0.678017 0.000000
0.337098 0.677221 0.000000
0.377941 0.676416 0.000000
0.419143 0.675604 0.000000
0.460622 0.674787 0.000000
0.502320 0.673965 0.000000
0.544191 0.673140 0.000000
0.586203 0.672312 0.000000
0.628329 0.671481 0.000000
0.670550 0.670649 0.000000
0.712851 0.669816 0.000000
0.755218 0.668981 0.000000
0.797641 0.668145 0.000000
0.840113 0.667308 0.000000
0.882627 0.666470 0.000000
0.925176 0.665631 0.000000
0.967757 0.664792 0.000000
1.000000 0.663952 0.000000
1.000000 0.663112 0.000000
1.000000 0.662901 0.000000
1.000000 0.662901 0.000000
1.000000 0.662901 0.000000
1.000000 0.662901 0.000000
1.000000 0.662901 0.000000
1.000000 0.662901 0.000000
0.037544 0.717146 0.000000
0.061760 0.716669 0.000000
0.085082 0.716210 0.000000
0.113658 0.715646 0.000000
0.146196 0.715005 0.000000
0.181466 0.714310 0.000000
0.218623 0.713578 0.000000
0.257104 0.712819 0.000000
0.296532 0.712042 0.000000
0.336652 0.711252 0.000000
0.377288 0.710451 0.000000
0.418317 0.709642 0.000000
0.459650 0.708827 0.000000
0.501223 0.708008 0.000000
0.542987 0.707185 0.000000
0.584906 0.706359 0.000000
0.626952 0.705530 0.000000
0.669102 0.704700 0.000000
0.711339 0.703867 0.000000
0.753650 0.703033 0.000000
0.796023 0.702198 0.000000
0.838450 0.701362 0.000000
0.880923 0.700525 0.000000
0.923436 0.699687 0.000000
0.965983 0.698849 0.000000
1.000000 0.698009 0.000000
1.000000 0.697170 0.000000
1.000000 0.696969 0.000000
1.000000 0.696969 0.000000
1.000000 0.696969 0.000000
1.000000 0.696969 0.000000
1.000000 0.696969 0.000000
1.000000 0.696969 0.000000
0.042859 0.751063 0.000000
0.065892 0.750609 0.000000
0.088338 0.750167 0.000000
0.116084 0.749620 0.000000
0.147901 0.748993 0.000000
0.182576 0.748310 0.000000
0.219252 0.747587 0.000000
0.257342 0.746836 0.000000
0.296452 0.746066 0.000000
0.336310 0.745280 0.000000
0.376730 0.744483 0.000000
0.417578 0.743678 0.000000
0.458758 0.742867 0.000000
0.500200 0.742050 0.000000
0.541851 0.741229 0.000000
0.583673 0.740405 0.000000
0.625632 0.739578 0.000000
0.667707 0.738749 0.000000
0.709878 0.737918 0.000000
0.752130 0.737085 0.000000
0.794450 0.736251 0.000000
0.836829 0.735416 0.000000
0.879259 0.734579 0.000000
0.921733 0.733742 0.000000
0.964245 0.732905 0.000000
1.000000 0.732066 0.000000
1.000000 0.731227 0.000000
1.000000 0.731038 0.000000
1.000000 0.731038 0.000000
1.000000 0.731038 0.000000
1.000000 0.731038 0.000000
1.000000 0.731038 0.000000
1.000000 0.731038 0.000000
0.048173 0.784980 0.000000
0.070113 0.784548 0.000000
0.091723 0.784122 0.000000
0.118658 0.783591 0.000000
0.149759 0.782978 0.000000
0.183835 0.782307 0.000000
0.220018 0.781594 0.000000
0.257706 0.780851 0.000000
0.296487 0.780087 0.000000
0.336074 0.779306 0.000000
0.376268 0.778514 0.000000
0.416927 0.777713 0.000000
0.457946 0.776904 0.000000
0.499251 0.776090 0.000000
0.540784 0.775272 0.000000
0.582502 0.774450 0.000000
0.624372 0.773625 0.000000
0.666368 0.772797 0.000000
0.708468 0.771967 0.000000
0.750658 0.771136 0.000000
0.792922 0.770303 0.000000
0.835251 0.769468 0.000000
0.877636 0.768633 0.000000
0.920068 0.767797 0.000000
0.962543 0.766960 0.000000
1.000000 0.766122 0.000000
1.000000 0.765284 0.000000
1.000000 0.765106 0.000000
1.000000 0.765106 0.000000
1.000000 0.765106 0.000000
1.000000 0.765106 0.000000
1.000000 0.765106 0.000000
1.000000 0.765106 0.000000
0.053487 0.818897 0.000000
0.074415 0.818485 0.000000
0.095229 0.818075 0.000000
0.121374 0.817559 0.000000
0.151765 0.816960 0.000000
0.185236 0.816301 0.000000
0.220919 0.815598 0.000000
0.258195 0.814863 0.000000
0.296637 0.814105 0.000000
0.335943 0.813331 0.000000
0.375903 0.812543 0.000000
0.416363 0.811746 0.000000
0.457215 0.810941 0.000000
0.498376 0.810129 0.000000
0.539785 0.809313 0.000000
0.581396 0.808493 0.000000
0.623171 0.807670 0.000000
0.665084 0.806844 0.000000
0.707111 0.806016 0.000000
0.749235 0.805185 0.000000
0.791440 0.804354 0.000000
0.833716 0.803520 0.000000
0.876053 0.802686 0.000000
0.918443 0.801851 0.000000
0.960878 0.801014 0.000000
1.000000 0.800177 0.000000
1.000000 0.799339 0.000000
1.000000 0.799174 0.000000
1.000000 0.799174 0.000000
1.000000 0.799174 0.000000
1.000000 0.799174 0.000000
1.000000 0.799174 0.000000
1.000000 0.799174 0.000000
0.058801 0.852814 0.000000
0.078789 0.852420 0.000000
0.098845 0.852025 0.000000
0.124224 0.851525 0.000000
0.153912 0.850940 0.000000
0.186778 0.850292 0.000000
0.221952 0.849599 0.000000
0.258808 0.848873 0.000000
0.296901 0.848122 0.000000
0.335917 0.847353 0.000000
0.375633 0.846570 0.000000
0.415889 0.845777 0.000000
0.456566 0.844975 0.000000
0.497577 0.844167 0.000000
0.538856 0.843353 0.000000
0.580354 0.842535 0.000000
0.622031 0.841714 0.000000
0.663856 0.840890 0.000000
0.705806 0.840063 0.000000
0.747861 0.839234 0.000000
0.790005 0.838404 0.000000
0.832225 0.837572 0.000000
0.874512 0.836738 0.000000
0.916856 0.835904 0.000000
