UWC_LUTs/UWC_01_EauVerte_Legere.cube
# UWC Eau verte - legere
# UWC — correction couleur sous-marine · entree Rec.709
TITLE "UWC Eau verte - legere"
LUT_3D_SIZE 5
DOMAIN_MIN 0 0 0
DOMAIN_MAX 1 1 1
0.000000 0.000000 0.000000
0.303186 0.000000 0.000000
0.618410 0.000000 0.000000
0.933634 0.000000 0.000000
1.000000 0.000000 0.000000
0.000000 0.234254 0.000000
0.290563 0.229216 0.000000
0.604876 0.224187 0.000000
0.919817 0.219148 0.000000
1.000000 0.216554 0.000000
0.000000 0.490695 0.000000
0.281289 0.486084 0.000000
0.592733 0.481100 0.000000
0.906771 0.476076 0.000000
1.000000 0.473503 0.000000
0.025079 0.746902 0.000000
0.276311 0.742883 0.000000
0.582550 0.737983 0.000000
0.894902 0.732985 0.000000
1.000000 0.730453 0.000000
0.057117 1.000000 0.000000
0.275900 0.999609 0.000000
0.574596 0.994829 0.000000
0.884389 0.989873 0.000000
1.000000 0.987402 0.000000
0.000000 0.000000 0.254542
0.303408 0.000000 0.249511
0.617669 0.000000 0.244483
0.932595 0.000000 0.239444
1.000000 0.000000 0.236851
0.000000 0.232610 0.240151
0.290775 0.227712 0.235253
0.604134 0.222698 0.230240
0.918777 0.217664 0.225205
1.000000 0.215077 0.222619
0.001637 0.489057 0.225275
0.281470 0.484580 0.220798
0.591988 0.479612 0.215830
0.905731 0.474592 0.210810
1.000000 0.472026 0.208245
0.029820 0.745326 0.210220
0.276438 0.741380 0.206275
0.581799 0.736494 0.201389
0.893860 0.731501 0.196396
1.000000 0.728976 0.193871
0.059956 1.000000 0.195134
0.275952 0.998107 0.191678
0.573836 0.993341 0.186912
0.883345 0.988389 0.181960
1.000000 0.985925 0.179496
0.021023 0.000000 0.530027
0.307302 0.000000 0.525446
0.618540 0.000000 0.520466
0.932513 0.000000 0.515443
1.000000 0.000000 0.512872
0.016107 0.230598 0.515645
0.294639 0.226142 0.511189
0.605001 0.221176 0.506223
0.918695 0.216157 0.501204
1.000000 0.213593 0.498640
0.026159 0.487157 0.500881
0.285240 0.483012 0.496735
0.592845 0.478090 0.491813
0.905646 0.473085 0.486809
1.000000 0.470542 0.484266
0.046256 0.743555 0.485955
0.280040 0.739814 0.482214
0.582637 0.734973 0.477373
0.893770 0.729995 0.472395
1.000000 0.727492 0.469892
0.071505 0.999870 0.470947
0.279321 0.996545 0.467622
0.574645 0.991820 0.462896
0.883247 0.986882 0.457959
1.000000 0.984441 0.455518
0.067019 0.000000 0.805288
0.315714 0.000000 0.801309
0.621478 0.000000 0.796417
0.933673 0.000000 0.791422
1.000000 0.000000 0.788893
0.058511 0.228412 0.790964
0.302998 0.224500 0.787053
0.607933 0.219621 0.782174
0.919853 0.214631 0.777183
1.000000 0.212109 0.774661
0.060791 0.485095 0.776324
0.293431 0.481373 0.772602
0.595757 0.476536 0.767764
0.906799 0.471559 0.762788
1.000000 0.469058 0.760287
0.072965 0.741620 0.761525
0.287936 0.738180 0.758085
0.585514 0.733419 0.753324
0.894915 0.728468 0.748374
1.000000 0.726008 0.745913
0.092008 0.998034 0.746616
0.286805 0.994918 0.743499
0.577467 0.990267 0.738849
0.884378 0.985356 0.733938
1.000000 0.982957 0.731539
0.113004 0.000000 1.000000
0.328907 0.000000 1.000000
0.626763 0.000000 1.000000
0.936262 0.000000 1.000000
1.000000 0.000000 1.000000
0.102740 0.226197 1.000000
0.316116 0.222782 1.000000
0.613209 0.218029 1.000000
0.922439 0.213081 1.000000
1.000000 0.210625 1.000000
0.100417 0.482953 1.000000
0.306319 0.479659 1.000000
0.601004 0.474944 1.000000
0.909378 0.470010 1.000000
1.000000 0.467574 1.000000
0.106565 0.739574 1.000000
0.300414 0.736473 1.000000
0.590707 0.731828 1.000000
0.897480 0.726919 1.000000
1.000000 0.724523 1.000000
0.119771 0.996082 1.000000
0.298707 0.993219 1.000000
0.582579 0.988677 1.000000
0.886922 0.983808 1.000000
1.000000 0.981473 1.000000
