UWC_LUTs/UWC_02_EauVerte_Forte.cube
# UWC Eau verte - forte
# UWC — correction couleur sous-marine · entree Rec.709
TITLE "UWC Eau verte - forte"
LUT_3D_SIZE 33
DOMAIN_MIN 0 0 0
DOMAIN_MAX 1 1 1
0.000000 0.000000 0.000000
0.026384 0.000000 0.000000
0.073245 0.000000 0.000000
0.119325 0.000000 0.000000
0.165404 0.000000 0.000000
0.211483 0.000000 0.000000
0.257562 0.000000 0.000000
0.303641 0.000000 0.000000
0.349721 0.000000 0.000000
0.395800 0.000000 0.000000
0.441879 0.000000 0.000000
0.487958 0.000000 0.000000
0.534038 0.000000 0.000000
0.580117 0.000000 0.000000
0.626196 0.000000 0.000000
0.672275 0.000000 0.000000
0.718354 0.000000 0.000000
0.764434 0.000000 0.000000
0.810513 0.000000 0.000000
0.856592 0.000000 0.000000
0.902671 0.000000 0.000000
0.948751 0.000000 0.000000
0.994830 0.000000 0.000000
1.000000 0.000000 0.000000
1.000000 0.000000 0.000000
1.000000 0.000000 0.000000
1.000000 0.000000 0.000000
1.000000 0.000000 0.000000
1.000000 0.000000 0.000000
1.000000 0.000000 0.000000
1.000000 0.000000 0.000000
1.000000 0.000000 0.000000
1.000000 0.000000 0.000000
0.000000 0.000000 0.000000
0.024847 0.000000 0.000000
0.071451 0.000000 0.000000
0.117400 0.000000 0.000000
0.163401 0.000000 0.000000
0.209429 0.000000 0.000000
0.255472 0.000000 0.000000
0.301525 0.000000 0.000000
0.347584 0.000000 0.000000
0.393648 0.000000 0.000000
0.439714 0.000000 0.000000
0.485783 0.000000 0.000000
0.531854 0.000000 0.000000
0.577926 0.000000 0.000000
0.623999 0.000000 0.000000
0.670073 0.000000 0.000000
0.716148 0.000000 0.000000
0.762223 0.000000 0.000000
0.808299 0.000000 0.000000
0.854375 0.000000 0.000000
0.900452 0.000000 0.000000
0.946529 0.000000 0.000000
0.992606 0.000000 0.000000
1.000000 0.000000 0.000000
1.000000 0.000000 0.000000
1.000000 0.000000 0.000000
1.000000 0.000000 0.000000
1.000000 0.000000 0.000000
1.000000 0.000000 0.000000
1.000000 0.000000 0.000000
1.000000 0.000000 0.000000
1.000000 0.000000 0.000000
1.000000 0.000000 0.000000
0.000000 0.021857 0.000000
0.023194 0.020434 0.000000
0.069513 0.019354 0.000000
0.115315 0.018286 0.000000
0.161228 0.017216 0.000000
0.207198 0.016145 0.000000
0.253200 0.015072 0.000000
0.299223 0.013999 0.000000
0.345260 0.012926 0.000000
0.391306 0.011853 0.000000
0.437358 0.010780 0.000000
0.483416 0.009706 0.000000
0.529477 0.008632 0.000000
0.575541 0.007559 0.000000
0.621608 0.006485 0.000000
0.667676 0.005411 0.000000
0.713745 0.004337 0.000000
0.759816 0.003263 0.000000
0.805888 0.002189 0.000000
0.851961 0.001115 0.000000
0.898034 0.000041 0.000000
0.944108 0.000000 0.000000
0.990183 0.000000 0.000000
1.000000 0.000000 0.000000
1.000000 0.000000 0.000000
1.000000 0.000000 0.000000
1.000000 0.000000 0.000000
1.000000 0.000000 0.000000
1.000000 0.000000 0.000000
1.000000 0.000000 0.000000
1.000000 0.000000 0.000000
1.000000 0.000000 0.000000
1.000000 0.000000 0.000000
0.000000 0.053295 0.000000
0.021732 0.051878 0.000000
0.067649 0.050807 0.000000
0.113244 0.049744 0.000000
0.159031 0.048677 0.000000
0.204918 0.047608 0.000000
0.250862 0.046537 0.000000
0.296843 0.045465 0.000000
0.342847 0.044393 0.000000
0.388868 0.043320 0.000000
0.434900 0.042247 0.000000
0.480941 0.041174 0.000000
0.526988 0.040100 0.000000
0.573041 0.039027 0.000000
0.619098 0.037953 0.000000
0.665157 0.036880 0.000000
0.711220 0.035806 0.000000
0.757284 0.034732 0.000000
0.803351 0.033658 0.000000
0.849418 0.032585 0.000000
0.895487 0.031511 0.000000
0.941558 0.030437 0.000000
0.987629 0.029363 0.000000
1.000000 0.028289 0.000000
1.000000 0.027215 0.000000
1.000000 0.026141 0.000000
1.000000 0.025818 0.000000
1.000000 0.025818 0.000000
1.000000 0.025818 0.000000
1.000000 0.025818 0.000000
1.000000 0.025818 0.000000
1.000000 0.025818 0.000000
1.000000 0.025818 0.000000
0.000000 0.084722 0.000000
0.020641 0.083313 0.000000
0.066035 0.082255 0.000000
0.111355 0.081198 0.000000
0.156975 0.080135 0.000000
0.202751 0.079068 0.000000
0.248618 0.077999 0.000000
0.294541 0.076928 0.000000
0.340502 0.075857 0.000000
0.386489 0.074785 0.000000
0.432494 0.073713 0.000000
0.478513 0.072640 0.000000
0.524542 0.071567 0.000000
0.570579 0.070494 0.000000
0.616622 0.069421 0.000000
0.662671 0.068347 0.000000
0.708724 0.067274 0.000000
0.754780 0.066200 0.000000
0.800838 0.065127 0.000000
0.846900 0.064053 0.000000
0.892963 0.062980 0.000000
0.939027 0.061906 0.000000
0.985094 0.060832 0.000000
1.000000 0.059758 0.000000
1.000000 0.058684 0.000000
1.000000 0.057610 0.000000
1.000000 0.057289 0.000000
1.000000 0.057289 0.000000
1.000000 0.057289 0.000000
1.000000 0.057289 0.000000
1.000000 0.057289 0.000000
1.000000 0.057289 0.000000
1.000000 0.057289 0.000000
0.000000 0.116137 0.000000
0.019935 0.114739 0.000000
0.064685 0.113696 0.000000
0.109660 0.112648 0.000000
0.155069 0.111589 0.000000
0.200705 0.110526 0.000000
0.246474 0.109459 0.000000
0.292325 0.108390 0.000000
0.338230 0.107320 0.000000
0.384174 0.106249 0.000000
0.430144 0.105177 0.000000
0.476135 0.104105 0.000000
0.522140 0.103033 0.000000
0.568158 0.101960 0.000000
0.614185 0.100888 0.000000
0.660219 0.099815 0.000000
0.706259 0.098741 0.000000
0.752304 0.097668 0.000000
0.798354 0.096595 0.000000
0.844406 0.095521 0.000000
0.890462 0.094448 0.000000
0.936520 0.093374 0.000000
0.982580 0.092300 0.000000
1.000000 0.091227 0.000000
1.000000 0.090153 0.000000
1.000000 0.089079 0.000000
1.000000 0.088760 0.000000
1.000000 0.088760 0.000000
1.000000 0.088760 0.000000
1.000000 0.088760 0.000000
1.000000 0.088760 0.000000
1.000000 0.088760 0.000000
1.000000 0.088760 0.000000
0.000000 0.147539 0.000000
0.019616 0.146157 0.000000
0.063608 0.145131 0.000000
0.108169 0.144092 0.000000
0.153322 0.143040 0.000000
0.198788 0.141980 0.000000
0.244436 0.140916 0.000000
0.290198 0.139849 0.000000
0.336036 0.138781 0.000000
0.381926 0.137711 0.000000
0.427855 0.136641 0.000000
0.473811 0.135570 0.000000
0.519788 0.134498 0.000000
0.565781 0.133426 0.000000
0.611787 0.132353 0.000000
0.657804 0.131281 0.000000
0.703829 0.130208 0.000000
0.749861 0.129135 0.000000
0.795898 0.128062 0.000000
0.841940 0.126989 0.000000
0.887987 0.125915 0.000000
0.934036 0.124842 0.000000
0.980089 0.123768 0.000000
1.000000 0.122695 0.000000
1.000000 0.121621 0.000000
1.000000 0.120548 0.000000
1.000000 0.120230 0.000000
1.000000 0.120230 0.000000
1.000000 0.120230 0.000000
1.000000 0.120230 0.000000
1.000000 0.120230 0.000000
1.000000 0.120230 0.000000
1.000000 0.120230 0.000000
0.000000 0.178927 0.000000
0.019680 0.177565 0.000000
0.062811 0.176560 0.000000
0.106890 0.175532 0.000000
0.151742 0.174487 0.000000
0.197006 0.173432 0.000000
0.242510 0.172371 0.000000
0.288167 0.171307 0.000000
0.333924 0.170240 0.000000
0.379751 0.169172 0.000000
0.425628 0.168103 0.000000
0.471543 0.167032 0.000000
0.517486 0.165961 0.000000
0.563450 0.164890 0.000000
0.609432 0.163818 0.000000
0.655427 0.162746 0.000000
0.701434 0.161674 0.000000
0.747450 0.160601 0.000000
0.793473 0.159528 0.000000
0.839503 0.158455 0.000000
0.885538 0.157382 0.000000
0.931578 0.156309 0.000000
0.977622 0.155236 0.000000
1.000000 0.154163 0.000000
1.000000 0.153089 0.000000
1.000000 0.152016 0.000000
1.000000 0.151701 0.000000
1.000000 0.151701 0.000000
1.000000 0.151701 0.000000
1.000000 0.151701 0.000000
1.000000 0.151701 0.000000
1.000000 0.151701 0.000000
1.000000 0.151701 0.000000
0.000000 0.210301 0.000000
0.020119 0.208965 0.000000
0.062296 0.207982 0.000000
0.105828 0.206967 0.000000
0.150334 0.205929 0.000000
0.195363 0.204880 0.000000
0.240701 0.203823 0.000000
0.286235 0.202762 0.000000
0.331898 0.201697 0.000000
0.377651 0.200631 0.000000
0.423469 0.199563 0.000000
0.469335 0.198494 0.000000
0.515237 0.197424 0.000000
0.561168 0.196353 0.000000
0.607121 0.195282 0.000000
0.653092 0.194210 0.000000
0.699077 0.193139 0.000000
0.745074 0.192066 0.000000
0.791081 0.190994 0.000000
0.837096 0.189921 0.000000
0.883118 0.188849 0.000000
0.929146 0.187776 0.000000
0.975180 0.186703 0.000000
1.000000 0.185630 0.000000
1.000000 0.184556 0.000000
1.000000 0.183483 0.000000
1.000000 0.183172 0.000000
1.000000 0.183172 0.000000
1.000000 0.183172 0.000000
1.000000 0.183172 0.000000
1.000000 0.183172 0.000000
1.000000 0.183172 0.000000
1.000000 0.183172 0.000000
0.000000 0.241660 0.000000
0.020917 0.240356 0.000000
0.062064 0.239397 0.000000
0.104987 0.238396 0.000000
0.149102 0.237368 0.000000
0.193865 0.236325 0.000000
0.239013 0.235272 0.000000
0.284405 0.234214 0.000000
0.329960 0.233152 0.000000
0.375628 0.232088 0.000000
0.421378 0.231021 0.000000
0.467188 0.229954 0.000000
0.513045 0.228885 0.000000
0.558936 0.227815 0.000000
0.604856 0.226745 0.000000
0.650798 0.225674 0.000000
0.696759 0.224602 0.000000
0.742734 0.223531 0.000000
0.788722 0.222459 0.000000
0.834720 0.221387 0.000000
0.880728 0.220314 0.000000
0.926742 0.219242 0.000000
0.972763 0.218169 0.000000
1.000000 0.217096 0.000000
1.000000 0.216023 0.000000
1.000000 0.214950 0.000000
1.000000 0.214643 0.000000
1.000000 0.214643 0.000000
1.000000 0.214643 0.000000
1.000000 0.214643 0.000000
1.000000 0.214643 0.000000
1.000000 0.214643 0.000000
1.000000 0.214643 0.000000
0.000000 0.273004 0.000000
0.022056 0.271739 0.000000
0.062111 0.270806 0.000000
0.104369 0.269821 0.000000
0.148049 0.268803 0.000000
0.192515 0.267766 0.000000
0.237449 0.266719 0.000000
0.282682 0.265664 0.000000
0.328115 0.264605 0.000000
0.373687 0.263543 0.000000
0.419359 0.262478 0.000000
0.465106 0.261412 0.000000
0.510910 0.260344 0.000000
0.556757 0.259276 0.000000
0.602639 0.258206 0.000000
0.648549 0.257136 0.000000
0.694481 0.256065 0.000000
0.740432 0.254994 0.000000
0.786399 0.253923 0.000000
0.832378 0.252851 0.000000
0.878368 0.251779 0.000000
0.924367 0.250707 0.000000
0.970374 0.249635 0.000000
1.000000 0.248562 0.000000
1.000000 0.247489 0.000000
1.000000 0.246416 0.000000
1.000000 0.246113 0.000000
1.000000 0.246113 0.000000
1.000000 0.246113 0.000000
1.000000 0.246113 0.000000
1.000000 0.246113 0.000000
1.000000 0.246113 0.000000
1.000000 0.246113 0.000000
0.000000 0.304331 0.000000
0.023515 0.303115 0.000000
0.062433 0.302208 0.000000
0.103975 0.301240 0.000000
0.147180 0.300233 0.000000
0.191316 0.299204 0.000000
0.236013 0.298162 0.000000
0.281068 0.297112 0.000000
0.326364 0.296056 0.000000
0.371828 0.294996 0.000000
0.417414 0.293934 0.000000
0.463090 0.292869 0.000000
0.508834 0.291803 0.000000
0.554632 0.290735 0.000000
0.600472 0.289667 0.000000
0.646345 0.288597 0.000000
0.692246 0.287528 0.000000
0.738169 0.286457 0.000000
0.784111 0.285386 0.000000
0.830069 0.284315 0.000000
0.876040 0.283243 0.000000
0.922022 0.282172 0.000000
0.968014 0.281099 0.000000
1.000000 0.280027 0.000000
1.000000 0.278955 0.000000
1.000000 0.277882 0.000000
1.000000 0.277584 0.000000
1.000000 0.277584 0.000000
1.000000 0.277584 0.000000
1.000000 0.277584 0.000000
1.000000 0.277584 0.000000
1.000000 0.277584 0.000000
1.000000 0.277584 0.000000
0.000000 0.335642 0.000000
0.025274 0.334484 0.000000
0.063023 0.333604 0.000000
0.103803 0.332654 0.000000
0.146494 0.331659 0.000000
0.190271 0.330638 0.000000
0.234707 0.329602 0.000000
0.279566 0.328557 0.000000
0.324711 0.327504 0.000000
0.370055 0.326448 0.000000
0.415545 0.325387 0.000000
0.461142 0.324324 0.000000
0.506821 0.323260 0.000000
0.552563 0.322193 0.000000
0.598356 0.321126 0.000000
0.644188 0.320058 0.000000
0.690054 0.318989 0.000000
0.735946 0.317919 0.000000
0.781861 0.316849 0.000000
0.827795 0.315778 0.000000
0.873744 0.314707 0.000000
0.919707 0.313635 0.000000
0.965682 0.312564 0.000000
1.000000 0.311492 0.000000
1.000000 0.310420 0.000000
1.000000 0.309348 0.000000
1.000000 0.309055 0.000000
1.000000 0.309055 0.000000
1.000000 0.309055 0.000000
1.000000 0.309055 0.000000
1.000000 0.309055 0.000000
1.000000 0.309055 0.000000
1.000000 0.309055 0.000000
0.000000 0.366936 0.000000
0.027309 0.365847 0.000000
0.063871 0.364994 0.000000
0.103852 0.364063 0.000000
0.145993 0.363080 0.000000
0.189381 0.362069 0.000000
0.233533 0.361040 0.000000
0.278178 0.359999 0.000000
0.323157 0.358951 0.000000
0.368370 0.357897 0.000000
0.413753 0.356839 0.000000
0.459263 0.355778 0.000000
0.504870 0.354715 0.000000
0.550551 0.353650 0.000000
0.596292 0.352584 0.000000
0.642080 0.351517 0.000000
0.687907 0.350448 0.000000
0.733765 0.349380 0.000000
0.779650 0.348310 0.000000
0.825557 0.347240 0.000000
0.871483 0.346169 0.000000
0.917424 0.345099 0.000000
0.963380 0.344027 0.000000
1.000000 0.342956 0.000000
1.000000 0.341884 0.000000
1.000000 0.340812 0.000000
1.000000 0.340526 0.000000
1.000000 0.340526 0.000000
1.000000 0.340526 0.000000
1.000000 0.340526 0.000000
1.000000 0.340526 0.000000
1.000000 0.340526 0.000000
1.000000 0.340526 0.000000
0.000000 0.398227 0.000000
0.029598 0.397203 0.000000
0.064968 0.396379 0.000000
0.104118 0.395466 0.000000
0.145677 0.394498 0.000000
0.188648 0.393496 0.000000
0.232493 0.392474 0.000000
0.276905 0.391439 0.000000
0.321704 0.390394 0.000000
0.366774 0.389344 0.000000
0.412042 0.388289 0.000000
0.457457 0.387230 0.000000
0.502984 0.386169 0.000000
0.548599 0.385106 0.000000
0.594282 0.384041 0.000000
0.640021 0.382975 0.000000
0.685805 0.381907 0.000000
0.731626 0.380839 0.000000
0.777478 0.379771 0.000000
0.823356 0.378701 0.000000
0.869256 0.377631 0.000000
0.915174 0.376561 0.000000
0.961108 0.375490 0.000000
1.000000 0.374419 0.000000
1.000000 0.373348 0.000000
1.000000 0.372276 0.000000
1.000000 0.371997 0.000000
1.000000 0.371997 0.000000
1.000000 0.371997 0.000000
1.000000 0.371997 0.000000
1.000000 0.371997 0.000000
1.000000 0.371997 0.000000
1.000000 0.371997 0.000000
0.000000 0.429517 0.000000
0.032121 0.428554 0.000000
0.066303 0.427758 0.000000
0.104597 0.426865 0.000000
0.145545 0.425911 0.000000
0.188072 0.424919 0.000000
0.231588 0.423905 0.000000
0.275750 0.422875 0.000000
0.320354 0.421836 0.000000
0.365269 0.420789 0.000000
0.410411 0.419737 0.000000
0.455723 0.418680 0.000000
0.501164 0.417621 0.000000
0.546706 0.416560 0.000000
0.592327 0.415496 0.000000
0.638013 0.414431 0.000000
0.683750 0.413365 0.000000
0.729531 0.412298 0.000000
0.775347 0.411230 0.000000
0.821193 0.410161 0.000000
0.867064 0.409092 0.000000
0.912957 0.408022 0.000000
0.958868 0.406952 0.000000
1.000000 0.405882 0.000000
1.000000 0.404811 0.000000
1.000000 0.403740 0.000000
1.000000 0.403467 0.000000
1.000000 0.403467 0.000000
1.000000 0.403467 0.000000
1.000000 0.403467 0.000000
1.000000 0.403467 0.000000
1.000000 0.403467 0.000000
1.000000 0.403467 0.000000
0.000000 0.460808 0.000000
0.034856 0.459901 0.000000
0.067865 0.459131 0.000000
0.105285 0.458259 0.000000
0.145594 0.457319 0.000000
0.187654 0.456339 0.000000
0.230820 0.455333 0.000000
0.274714 0.454310 0.000000
0.319109 0.453275 0.000000
0.363857 0.452232 0.000000
0.408864 0.451183 0.000000
0.454064 0.450129 0.000000
0.499412 0.449072 0.000000
0.544875 0.448012 0.000000
0.590429 0.446950 0.000000
0.636056 0.445887 0.000000
0.681744 0.444822 0.000000
0.727480 0.443756 0.000000
0.773257 0.442689 0.000000
0.819068 0.441621 0.000000
0.864909 0.440552 0.000000
0.910774 0.439483 0.000000
0.956661 0.438414 0.000000
1.000000 0.437344 0.000000
1.000000 0.436273 0.000000
1.000000 0.435203 0.000000
1.000000 0.434938 0.000000
1.000000 0.434938 0.000000
1.000000 0.434938 0.000000
1.000000 0.434938 0.000000
1.000000 0.434938 0.000000
1.000000 0.434938 0.000000
1.000000 0.434938 0.000000
0.001042 0.492099 0.000000
0.037785 0.491242 0.000000
0.069641 0.490500 0.000000
0.106174 0.489648 0.000000
0.145824 0.488724 0.000000
0.187393 0.487755 0.000000
0.230188 0.486757 0.000000
0.273798 0.485741 0.000000
0.317969 0.484711 0.000000
0.362539 0.483672 0.000000
0.407400 0.482627 0.000000
0.452480 0.481576 0.000000
0.497728 0.480521 0.000000
0.543106 0.479463 0.000000
0.588588 0.478403 0.000000
0.634153 0.477341 0.000000
0.679786 0.476277 0.000000
0.725474 0.475212 0.000000
0.771209 0.474146 0.000000
0.816984 0.473079 0.000000
0.862791 0.472012 0.000000
0.908626 0.470943 0.000000
0.954486 0.469874 0.000000
1.000000 0.468805 0.000000
1.000000 0.467735 0.000000
1.000000 0.466665 0.000000
1.000000 0.466409 0.000000
1.000000 0.466409 0.000000
1.000000 0.466409 0.000000
1.000000 0.466409 0.000000
1.000000 0.466409 0.000000
1.000000 0.466409 0.000000
1.000000 0.466409 0.000000
0.006157 0.523389 0.000000
0.040890 0.522580 0.000000
0.071621 0.521863 0.000000
0.107260 0.521033 0.000000
0.146230 0.520124 0.000000
0.187288 0.519167 0.000000
0.229694 0.518179 0.000000
0.273003 0.517169 0.000000
0.316936 0.516145 0.000000
0.361316 0.515111 0.000000
0.406022 0.514069 0.000000
0.450974 0.513021 0.000000
0.496114 0.511969 0.000000
0.541402 0.510913 0.000000
0.586806 0.509855 0.000000
0.632303 0.508794 0.000000
0.677878 0.507732 0.000000
0.723515 0.506668 0.000000
0.769205 0.505603 0.000000
0.814939 0.504537 0.000000
0.860711 0.503470 0.000000
0.906514 0.502402 0.000000
0.952345 0.501334 0.000000
0.998199 0.500265 0.000000
1.000000 0.499196 0.000000
1.000000 0.498126 0.000000
1.000000 0.497880 0.000000
1.000000 0.497880 0.000000
1.000000 0.497880 0.000000
1.000000 0.497880 0.000000
1.000000 0.497880 0.000000
1.000000 0.497880 0.000000
1.000000 0.497880 0.000000
0.011272 0.554680 0.000000
0.044155 0.553914 0.000000
0.073791 0.553223 0.000000
0.108536 0.552413 0.000000
0.146811 0.551521 0.000000
0.187338 0.550576 0.000000
0.229337 0.549597 0.000000
0.272329 0.548595 0.000000
0.316011 0.547577 0.000000
0.360188 0.546547 0.000000
0.404730 0.545509 0.000000
0.449545 0.544464 0.000000
0.494571 0.543415 0.000000
0.539762 0.542361 0.000000
0.585082 0.541305 0.000000
0.630509 0.540246 0.000000
0.676021 0.539185 0.000000
0.721603 0.538123 0.000000
0.767245 0.537059 0.000000
0.812936 0.535994 0.000000
0.858669 0.534928 0.000000
0.904438 0.533861 0.000000
0.950238 0.532793 0.000000
0.996064 0.531725 0.000000
1.000000 0.530656 0.000000
1.000000 0.529587 0.000000
1.000000 0.529351 0.000000
1.000000 0.529351 0.000000
1.000000 0.529351 0.000000
1.000000 0.529351 0.000000
1.000000 0.529351 0.000000
1.000000 0.529351 0.000000
1.000000 0.529351 0.000000
0.016387 0.585971 0.000000
0.047564 0.585244 0.000000
0.076141 0.584578 0.000000
0.109993 0.583789 0.000000
0.147562 0.582913 0.000000
0.187542 0.581981 0.000000
0.229117 0.581012 0.000000
0.271776 0.580018 0.000000
0.315194 0.579006 0.000000
0.359158 0.577981 0.000000
0.403525 0.576947 0.000000
0.448196 0.575905 0.000000
0.493100 0.574859 0.000000
0.538187 0.573808 0.000000
0.583420 0.572753 0.000000
0.628769 0.571696 0.000000
0.674215 0.570637 0.000000
0.719739 0.569576 0.000000
0.765329 0.568513 0.000000
0.810974 0.567449 0.000000
0.856667 0.566384 0.000000
0.902399 0.565318 0.000000
0.948165 0.564251 0.000000
0.993962 0.563184 0.000000
1.000000 0.562116 0.000000
1.000000 0.561047 0.000000
1.000000 0.560821 0.000000
1.000000 0.560821 0.000000
1.000000 0.560821 0.000000
1.000000 0.560821 0.000000
1.000000 0.560821 0.000000
1.000000 0.560821 0.000000
1.000000 0.560821 0.000000
0.021502 0.617261 0.000000
0.051106 0.616571 0.000000
0.078660 0.615929 0.000000
0.111626 0.615161 0.000000
0.148478 0.614302 0.000000
0.187897 0.613383 0.000000
0.229032 0.612424 0.000000
0.271345 0.611438 0.000000
0.314486 0.610432 0.000000
0.358226 0.609412 0.000000
0.402408 0.608383 0.000000
0.446926 0.607345 0.000000
0.491701 0.606301 0.000000
0.536679 0.605253 0.000000
0.581818 0.604201 0.000000
0.627087 0.603145 0.000000
0.672462 0.602088 0.000000
0.717924 0.601028 0.000000
0.763459 0.599967 0.000000
0.809056 0.598904 0.000000
0.854704 0.597840 0.000000
0.900397 0.596775 0.000000
0.946129 0.595709 0.000000
0.991893 0.594642 0.000000
1.000000 0.593575 0.000000
1.000000 0.592507 0.000000
1.000000 0.592292 0.000000
1.000000 0.592292 0.000000
1.000000 0.592292 0.000000
1.000000 0.592292 0.000000
1.000000 0.592292 0.000000
1.000000 0.592292 0.000000
1.000000 0.592292 0.000000
0.026617 0.648552 0.000000
0.054766 0.647896 0.000000
0.081335 0.647277 0.000000
0.113426 0.646529 0.000000
0.149557 0.645686 0.000000
0.188401 0.644781 0.000000
0.229083 0.643833 0.000000
0.271035 0.642855 0.000000
0.313886 0.641856 0.000000
0.357391 0.640842 0.000000
0.401380 0.639816 0.000000
0.445737 0.638783 0.000000
0.490376 0.637742 0.000000
0.535239 0.636696 0.000000
0.580279 0.635646 0.000000
0.625461 0.634593 0.000000
0.670761 0.633537 0.000000
0.716158 0.632479 0.000000
0.761635 0.631419 0.000000
0.807180 0.630357 0.000000
0.852782 0.629295 0.000000
0.898434 0.628230 0.000000
0.944128 0.627165 0.000000
0.989859 0.626099 0.000000
1.000000 0.625033 0.000000
1.000000 0.623965 0.000000
1.000000 0.623763 0.000000
1.000000 0.623763 0.000000
1.000000 0.623763 0.000000
1.000000 0.623763 0.000000
1.000000 0.623763 0.000000
1.000000 0.623763 0.000000
1.000000 0.623763 0.000000
0.031732 0.679843 0.000000
0.058534 0.679218 0.000000
0.084158 0.678621 0.000000
0.115387 0.677893 0.000000
0.150793 0.677067 0.000000
0.189052 0.676176 0.000000
0.229267 0.675238 0.000000
0.270846 0.674269 0.000000
0.313396 0.673277 0.000000
0.356655 0.672269 0.000000
0.400441 0.671248 0.000000
0.444629 0.670218 0.000000
0.489126 0.669181 0.000000
0.533866 0.668138 0.000000
0.578802 0.667091 0.000000
0.623894 0.666040 0.000000
0.669115 0.664986 0.000000
0.714442 0.663929 0.000000
0.759858 0.662870 0.000000
0.805348 0.661810 0.000000
0.850902 0.660748 0.000000
0.896510 0.659685 0.000000
0.942164 0.658621 0.000000
0.987859 0.657556 0.000000
1.000000 0.656490 0.000000
1.000000 0.655423 0.000000
1.000000 0.655234 0.000000
1.000000 0.655234 0.000000
1.000000 0.655234 0.000000
1.000000 0.655234 0.000000
1.000000 0.655234 0.000000
1.000000 0.655234 0.000000
1.000000 0.655234 0.000000
0.036847 0.711133 0.000000
0.062401 0.710538 0.000000
0.087118 0.709962 0.000000
0.117500 0.709253 0.000000
0.152181 0.708445 0.000000
0.189847 0.707567 0.000000
0.229584 0.706641 0.000000
0.270777 0.705681 0.000000
0.313015 0.704696 0.000000
0.356018 0.703694 0.000000
0.399592 0.702678 0.000000
0.443602 0.701652 0.000000
0.487950 0.700618 0.000000
0.532563 0.699579 0.000000
0.577388 0.698534 0.000000
0.622385 0.697485 0.000000
0.667523 0.696433 0.000000
0.712777 0.695378 0.000000
0.758128 0.694321 0.000000
0.803561 0.693262 0.000000
0.849063 0.692201 0.000000
0.894624 0.691139 0.000000
0.940237 0.690076 0.000000
0.985894 0.689012 0.000000
1.000000 0.687946 0.000000
1.000000 0.686881 0.000000
1.000000 0.686705 0.000000
1.000000 0.686705 0.000000
1.000000 0.686705 0.000000
1.000000 0.686705 0.000000
1.000000 0.686705 0.000000
1.000000 0.686705 0.000000
1.000000 0.686705 0.000000
0.041962 0.742424 0.000000
0.066357 0.741855 0.000000
0.090206 0.741300 0.000000
0.119759 0.740611 0.000000
0.153717 0.739819 0.000000
0.190783 0.738955 0.000000
0.230031 0.738040 0.000000
0.270828 0.737089 0.000000
0.312743 0.736112 0.000000
0.355480 0.735116 0.000000
0.398833 0.734106 0.000000
0.442658 0.733084 0.000000
0.486849 0.732054 0.000000
0.531328 0.731017 0.000000
0.576039 0.729975 0.000000
0.620936 0.728928 0.000000
0.665986 0.727878 0.000000
0.711163 0.726825 0.000000
0.756446 0.725770 0.000000
0.801818 0.724712 0.000000
0.847266 0.723653 0.000000
0.892779 0.722592 0.000000
0.938348 0.721530 0.000000
0.983965 0.720466 0.000000
1.000000 0.719402 0.000000
1.000000 0.718337 0.000000
1.000000 0.718175 0.000000
1.000000 0.718175 0.000000
1.000000 0.718175 0.000000
1.000000 0.718175 0.000000
1.000000 0.718175 0.000000
1.000000 0.718175 0.000000
1.000000 0.718175 0.000000
0.047077 0.773715 0.000000
0.070395 0.773171 0.000000
0.093414 0.772635 0.000000
0.122156 0.771965 0.000000
0.155395 0.771190 0.000000
0.191856 0.770340 0.000000
0.230607 0.769437 0.000000
0.270997 0.768495 0.000000
0.312579 0.767526 0.000000
0.355040 0.766536 0.000000
0.398165 0.765531 0.000000
0.441797 0.764514 0.000000
0.485824 0.763488 0.000000
0.530164 0.762454 0.000000
0.574754 0.761415 0.000000
0.619546 0.760371 0.000000
0.664505 0.759323 0.000000
0.709601 0.758272 0.000000
0.754813 0.757218 0.000000
0.800121 0.756162 0.000000
0.845512 0.755104 0.000000
0.890974 0.754044 0.000000
0.936496 0.752983 0.000000
0.982072 0.751921 0.000000
1.000000 0.750857 0.000000
