UWC_LUTs/UWC_01_EauVerte_Legere.cube
# UWC Eau verte - legere
# UWC — correction couleur sous-marine · entree Rec.709
TITLE "UWC Eau verte - legere"
LUT_3D_SIZE 9
DOMAIN_MIN 0 0 0
DOMAIN_MAX 1 1 1
0.000000 0.000000 0.000000
0.145574 0.000000 0.000000
0.303186 0.000000 0.000000
0.460798 0.000000 0.000000
0.618410 0.000000 0.000000
0.776022 0.000000 0.000000
0.933634 0.000000 0.000000
1.000000 0.000000 0.000000
1.000000 0.000000 0.000000
0.000000 0.105893 0.000000
0.139478 0.103273 0.000000
0.296596 0.100760 0.000000
0.454034 0.098240 0.000000
0.611562 0.095720 0.000000
0.769125 0.093199 0.000000
0.926706 0.090678 0.000000
1.000000 0.088156 0.000000
1.000000 0.088079 0.000000
0.000000 0.234254 0.000000
0.134685 0.231710 0.000000
0.290563 0.229216 0.000000
0.447563 0.226704 0.000000
0.604876 0.224187 0.000000
0.762315 0.221668 0.000000
0.919817 0.219148 0.000000
1.000000 0.216627 0.000000
1.000000 0.216554 0.000000
0.000000 0.362526 0.000000
0.131682 0.360118 0.000000
0.285423 0.357658 0.000000
0.441648 0.355158 0.000000
0.598581 0.352647 0.000000
0.755800 0.350132 0.000000
0.913160 0.347614 0.000000
1.000000 0.345095 0.000000
1.000000 0.345029 0.000000
0.000000 0.490695 0.000000
0.130600 0.488495 0.000000
0.281289 0.486084 0.000000
0.436368 0.483602 0.000000
0.592733 0.481100 0.000000
0.749622 0.478590 0.000000
0.906771 0.476076 0.000000
1.000000 0.473559 0.000000
1.000000 0.473503 0.000000
0.009060 0.618799 0.000000
0.131452 0.616841 0.000000
0.278236 0.614492 0.000000
0.431782 0.612035 0.000000
0.587377 0.609546 0.000000
0.743818 0.607043 0.000000
0.900677 0.604533 0.000000
1.000000 0.602019 0.000000
1.000000 0.601978 0.000000
0.025079 0.746902 0.000000
0.134157 0.745157 0.000000
0.276311 0.742883 0.000000
0.427936 0.740457 0.000000
0.582550 0.737983 0.000000
0.738414 0.735489 0.000000
0.894902 0.732985 0.000000
1.000000 0.730476 0.000000
1.000000 0.730453 0.000000
0.041098 0.875006 0.000000
0.138572 0.873446 0.000000
0.275533 0.871255 0.000000
0.424862 0.868865 0.000000
0.578282 0.866411 0.000000
0.733438 0.863928 0.000000
0.889467 0.861432 0.000000
1.000000 0.858928 0.000000
1.000000 0.858928 0.000000
0.057117 1.000000 0.000000
0.144523 1.000000 0.000000
0.275900 0.999609 0.000000
0.422586 0.997262 0.000000
0.574596 0.994829 0.000000
0.728909 0.992360 0.000000
0.884389 0.989873 0.000000
1.000000 0.987402 0.000000
1.000000 0.987402 0.000000
0.000000 0.000000 0.116652
0.145841 0.000000 0.114034
0.302931 0.000000 0.111520
0.460360 0.000000 0.109001
0.617883 0.000000 0.106481
0.775444 0.000000 0.103960
0.933023 0.000000 0.101439
1.000000 0.000000 0.098917
1.000000 0.000000 0.098840
0.000000 0.105111 0.109562
0.139740 0.102522 0.106973
0.296340 0.100017 0.104468
0.453596 0.097501 0.101952
0.611035 0.094982 0.099433
0.768547 0.092461 0.096912
0.926095 0.089941 0.094392
1.000000 0.087420 0.091870
1.000000 0.087344 0.091795
0.000000 0.233472 0.102261
0.134932 0.230959 0.099748
0.290306 0.228473 0.097262
0.447124 0.225964 0.094753
0.604348 0.223448 0.092237
0.761736 0.220930 0.089719
0.919205 0.218411 0.087200
1.000000 0.215890 0.084679
1.000000 0.215819 0.084608
0.000000 0.361744 0.094871
0.131905 0.359367 0.092495
0.285162 0.356915 0.090042
0.441208 0.354418 0.087546
0.598053 0.351909 0.085036
0.755221 0.349394 0.082521
0.912549 0.346877 0.080004
1.000000 0.344358 0.077485
1.000000 0.344294 0.077421
0.000000 0.489913 0.087379
0.130790 0.487745 0.085210
0.281023 0.485341 0.082807
0.435927 0.482863 0.080328
0.592204 0.480362 0.077828
0.749043 0.477853 0.075318
0.906159 0.475339 0.072804
1.000000 0.472822 0.070288
1.000000 0.472768 0.070234
0.010583 0.618028 0.079832
0.131600 0.616092 0.077895
0.277963 0.613750 0.075553
0.431339 0.611296 0.073099
0.586848 0.608807 0.070611
0.743238 0.606305 0.068109
0.900065 0.603796 0.065600
1.000000 0.601283 0.063087
1.000000 0.601243 0.063047
0.026134 0.746139 0.072281
0.134258 0.744409 0.070551
0.276029 0.742140 0.068282
0.427490 0.739717 0.065859
0.582020 0.737244 0.063386
0.737835 0.734751 0.060893
0.894290 0.732248 0.058390
1.000000 0.729739 0.055881
1.000000 0.729718 0.055860
0.041829 0.874247 0.064728
0.138623 0.872699 0.063179
0.275241 0.870513 0.060993
0.424414 0.868126 0.058606
0.577750 0.865672 0.056153
0.732858 0.863191 0.053671
0.888854 0.860695 0.051175
1.000000 0.858193 0.048673
1.000000 0.858193 0.048673
0.057613 1.000000 0.057173
0.144524 1.000000 0.055782
0.275597 0.998867 0.053685
0.422134 0.996522 0.051341
0.574063 0.994091 0.048910
0.728328 0.991623 0.046441
0.883776 0.989136 0.043954
1.000000 0.986667 0.041486
1.000000 0.986667 0.041486
0.000000 0.000000 0.254542
0.147624 0.000000 0.252004
0.303408 0.000000 0.249511
0.460373 0.000000 0.247000
0.617669 0.000000 0.244483
0.775099 0.000000 0.241964
0.932595 0.000000 0.239444
1.000000 0.000000 0.236924
1.000000 0.000000 0.236851
0.000000 0.104249 0.247452
0.141508 0.101740 0.244944
0.296815 0.099255 0.242459
0.453608 0.096747 0.239950
0.610821 0.094231 0.237435
0.768202 0.091713 0.234917
0.925667 0.089194 0.232397
1.000000 0.086673 0.229877
1.000000 0.086602 0.229806
0.000000 0.232610 0.240151
0.136664 0.230177 0.237719
0.290775 0.227712 0.235253
0.447135 0.225210 0.232752
0.604134 0.222698 0.230240
0.761392 0.220182 0.227723
0.918777 0.217664 0.225205
1.000000 0.215144 0.222686
1.000000 0.215077 0.222619
0.000000 0.360881 0.232761
0.133577 0.358587 0.230466
0.285623 0.356154 0.228034
0.441217 0.353664 0.225544
0.597838 0.351158 0.223038
0.754876 0.348646 0.220526
0.912121 0.346130 0.218010
1.000000 0.343612 0.215492
1.000000 0.343552 0.215432
0.001637 0.489057 0.225275
0.132378 0.486965 0.223184
0.281470 0.484580 0.220798
0.435932 0.482109 0.218327
0.591988 0.479612 0.215830
0.748698 0.477104 0.213322
0.905731 0.474592 0.210810
1.000000 0.472076 0.208294
1.000000 0.472026 0.208245
0.015351 0.617198 0.217754
0.133086 0.615314 0.215870
0.278393 0.612989 0.213545
0.431339 0.610542 0.211098
0.586630 0.608057 0.208613
0.742892 0.605557 0.206113
0.899636 0.603049 0.203605
1.000000 0.600537 0.201093
1.000000 0.600501 0.201058
0.029820 0.745326 0.210220
0.135627 0.743633 0.208528
0.276438 0.741380 0.206275
0.427484 0.738963 0.203858
0.581799 0.736494 0.201389
0.737487 0.734003 0.198898
0.893860 0.731501 0.196396
1.000000 0.728993 0.193888
1.000000 0.728976 0.193871
0.044743 0.873447 0.202680
0.139869 0.871925 0.201158
0.275625 0.869753 0.198985
0.424400 0.867372 0.196605
0.577527 0.864922 0.194155
0.732509 0.862442 0.191675
0.888424 0.859948 0.189181
1.000000 0.857451 0.186683
1.000000 0.857451 0.186683
0.059956 1.000000 0.195134
0.145643 1.000000 0.193763
0.275952 0.998107 0.191678
0.422111 0.995768 0.189340
0.573836 0.993341 0.186912
0.727977 0.990875 0.184446
0.883345 0.988389 0.181960
1.000000 0.985925 0.179496
1.000000 0.985925 0.179496
0.001621 0.000000 0.392338
0.151290 0.000000 0.389944
0.304825 0.000000 0.387487
0.460974 0.000000 0.384989
0.617869 0.000000 0.382478
0.775066 0.000000 0.379963
0.932413 0.000000 0.377446
1.000000 0.000000 0.374927
1.000000 0.000000 0.374862
0.000000 0.103292 0.385249
0.145150 0.100928 0.382884
0.298229 0.098479 0.380435
0.454208 0.095983 0.377939
0.611020 0.093474 0.375430
0.768169 0.090960 0.372916
0.925485 0.088443 0.370399
1.000000 0.085924 0.367880
1.000000 0.085860 0.367816
0.000000 0.231653 0.377948
0.140247 0.229366 0.375661
0.292181 0.226935 0.373230
0.447732 0.224446 0.370741
0.604332 0.221941 0.368235
0.761358 0.219428 0.365723
0.918595 0.216912 0.363207
1.000000 0.214395 0.360689
1.000000 0.214335 0.360629
0.002756 0.359926 0.370558
0.137057 0.357777 0.368409
0.287013 0.355378 0.366010
0.441810 0.352901 0.363533
0.598034 0.350401 0.361034
0.754842 0.347892 0.358525
0.911938 0.345379 0.356011
1.000000 0.342863 0.353495
1.000000 0.342810 0.353442
0.012197 0.488134 0.363105
0.135717 0.486158 0.361129
0.282837 0.483804 0.358775
0.436518 0.481345 0.356316
0.592182 0.478855 0.353825
0.748662 0.476351 0.351322
0.905548 0.473841 0.348812
1.000000 0.471327 0.346298
1.000000 0.471284 0.346255
0.023717 0.616310 0.355619
0.136250 0.614509 0.353818
0.279730 0.612214 0.351523
0.431917 0.609779 0.349088
0.586820 0.607300 0.346609
0.742854 0.604803 0.344113
0.899452 0.602298 0.341607
1.000000 0.599787 0.339096
1.000000 0.599759 0.339068
0.036563 0.744464 0.348111
0.138593 0.742831 0.346479
0.277737 0.740605 0.344252
0.428051 0.738200 0.341847
0.581985 0.735737 0.339384
0.737448 0.733250 0.336897
0.893675 0.730750 0.334397
1.000000 0.728243 0.331891
1.000000 0.728234 0.331881
0.050272 0.872604 0.340590
0.142622 0.871127 0.339112
0.276880 0.868979 0.336964
0.424953 0.866609 0.334595
0.577707 0.864165 0.332151
0.732467 0.861689 0.329675
0.888237 0.859197 0.327182
1.000000 0.856708 0.324694
1.000000 0.856708 0.324694
0.064556 1.000000 0.333059
0.148180 0.999397 0.331721
0.277157 0.997334 0.329658
0.422649 0.995006 0.327330
0.574010 0.992584 0.324908
0.727933 0.990121 0.322445
0.883156 0.987638 0.319962
1.000000 0.985183 0.317507
1.000000 0.985183 0.317507
0.021023 0.000000 0.530027
0.156972 0.000000 0.527852
0.307302 0.000000 0.525446
0.462244 0.000000 0.522967
0.618540 0.000000 0.520466
0.775390 0.000000 0.517957
0.932513 0.000000 0.515443
1.000000 0.000000 0.512926
1.000000 0.000000 0.512872
0.016727 0.102229 0.522938
0.150799 0.100084 0.520792
0.300701 0.097685 0.518394
0.455477 0.095209 0.515918
0.611691 0.092709 0.513418
0.768492 0.090200 0.510909
0.925585 0.087687 0.508396
1.000000 0.085171 0.505880
1.000000 0.085118 0.505827
0.016107 0.230598 0.515645
0.145812 0.228523 0.513570
0.294639 0.226142 0.511189
0.448997 0.223672 0.508719
0.605001 0.221176 0.506223
0.761681 0.218669 0.503716
0.918695 0.216157 0.501204
1.000000 0.213642 0.498689
1.000000 0.213593 0.498640
0.019477 0.358904 0.508289
0.142481 0.356936 0.506321
0.289449 0.354585 0.503970
0.443068 0.352127 0.501512
0.598701 0.349637 0.499022
0.755163 0.347133 0.496518
0.912037 0.344623 0.494008
1.000000 0.342109 0.491495
1.000000 0.342068 0.491453
0.026159 0.487157 0.500881
0.140944 0.485320 0.499044
0.285240 0.483012 0.496735
0.437767 0.480571 0.494295
0.592845 0.478090 0.491813
0.748982 0.475592 0.489315
0.905646 0.473085 0.486809
1.000000 0.470574 0.484297
1.000000 0.470542 0.484266
0.035322 0.615370 0.493432
0.141233 0.613676 0.491737
0.282088 0.611422 0.489484
0.433153 0.609005 0.487067
0.587478 0.606536 0.484597
0.743172 0.604044 0.482106
0.899549 0.601542 0.479604
1.000000 0.599034 0.477096
1.000000 0.599017 0.477079
0.046256 0.743555 0.485955
0.143297 0.742002 0.484402
0.280040 0.739814 0.482214
0.429270 0.737427 0.479827
0.582637 0.734973 0.477373
0.737762 0.732491 0.474891
0.893770 0.729995 0.472395
1.000000 0.727492 0.469892
1.000000 0.727492 0.469892
0.058438 0.871720 0.478458
0.147026 0.870302 0.477040
0.279118 0.868189 0.474927
0.426153 0.865836 0.472574
0.578351 0.863401 0.470139
0.732777 0.860930 0.467668
0.888330 0.858441 0.465180
1.000000 0.855966 0.462705
1.000000 0.855966 0.462705
0.071505 0.999870 0.470947
0.152276 0.998578 0.469654
0.279321 0.996545 0.467622
0.423825 0.994233 0.465310
0.574645 0.991820 0.462896
0.728239 0.989363 0.460439
0.883247 0.986882 0.457959
1.000000 0.984441 0.455518
1.000000 0.984441 0.455518
0.044026 0.000000 0.667657
0.164670 0.000000 0.665727
0.310917 0.000000 0.663387
0.464245 0.000000 0.660934
0.619730 0.000000 0.658446
0.776106 0.000000 0.655944
0.932925 0.000000 0.653435
1.000000 0.000000 0.650922
1.000000 0.000000 0.650883
0.039056 0.101118 0.660579
0.158456 0.099207 0.658669
0.304308 0.096874 0.656335
0.457476 0.094423 0.653884
0.612880 0.091936 0.651398
0.769208 0.089435 0.648896
0.925996 0.086926 0.646388
1.000000 0.084414 0.643875
1.000000 0.084376 0.643837
0.036954 0.229511 0.653311
0.153368 0.227648 0.651448
0.298230 0.225331 0.649130
0.450992 0.222886 0.646686
0.606189 0.220403 0.644203
0.762396 0.217904 0.641703
0.919105 0.215396 0.639196
1.000000 0.212885 0.636684
1.000000 0.212851 0.636650
0.038229 0.357850 0.645988
0.149864 0.356064 0.644202
0.293009 0.353774 0.641912
0.445054 0.351341 0.639479
0.599885 0.348864 0.637002
0.755877 0.346368 0.634506
0.912447 0.343863 0.632001
1.000000 0.341352 0.629490
1.000000 0.341326 0.629463
0.042606 0.486140 0.638616
0.148085 0.484452 0.636928
0.288755 0.482202 0.634678
0.439740 0.479786 0.632262
0.594024 0.477317 0.629793
0.749693 0.474826 0.627303
0.906054 0.472325 0.624801
1.000000 0.469817 0.622293
1.000000 0.469800 0.622276
0.049562 0.614388 0.631203
0.148070 0.612812 0.629627
0.285545 0.610613 0.627427
0.435108 0.608220 0.625034
0.588650 0.605763 0.622577
0.743880 0.603279 0.620094
0.899956 0.600782 0.617596
1.000000 0.598277 0.615091
1.000000 0.598275 0.615089
0.058539 0.742604 0.623757
0.149785 0.741144 0.622297
0.283424 0.739006 0.620159
0.431203 0.736642 0.617794
0.583800 0.734200 0.615353
0.738466 0.731726 0.612878
0.894175 0.729234 0.610387
1.000000 0.726750 0.607902
1.000000 0.726750 0.607902
0.069053 0.870796 0.616287
0.153137 0.869451 0.614941
0.282415 0.867382 0.612873
0.428059 0.865052 0.610543
0.579504 0.862629 0.608119
0.733476 0.860165 0.605656
0.888733 0.857681 0.603172
1.000000 0.855224 0.600715
1.000000 0.855224 0.600715
0.080721 0.998969 0.608798
0.157994 0.997733 0.607562
0.282521 0.995740 0.605569
0.425699 0.993449 0.603278
0.575784 0.991048 0.600877
0.728931 0.988597 0.598427
0.883646 0.986122 0.595951
1.000000 0.983699 0.593528
1.000000 0.983699 0.593528
0.067019 0.000000 0.805288
0.174291 0.000000 0.803572
0.315714 0.000000 0.801309
0.467025 0.000000 0.798888
0.621478 0.000000 0.796417
0.777247 0.000000 0.793924
0.933673 0.000000 0.791422
1.000000 0.000000 0.788913
1.000000 0.000000 0.788893
0.061618 0.100003 0.798217
0.168031 0.098300 0.796514
0.309097 0.096043 0.794257
0.460254 0.093624 0.791838
0.614627 0.091154 0.789369
0.770348 0.088663 0.786877
0.926744 0.086161 0.784375
1.000000 0.083652 0.781866
1.000000 0.083634 0.781848
0.058511 0.228412 0.790964
0.162829 0.226743 0.789295
0.302998 0.224500 0.787053
0.453763 0.222088 0.784640
0.607933 0.219621 0.782174
0.763535 0.217132 0.779684
0.919853 0.214631 0.777183
1.000000 0.212123 0.774675
1.000000 0.212109 0.774661
0.058255 0.356776 0.783666
0.159130 0.355162 0.782052
0.297740 0.352944 0.779835
0.447815 0.350543 0.777433
0.601625 0.348082 0.774972
0.757013 0.345596 0.772486
0.913193 0.343097 0.769987
1.000000 0.340591 0.767481
1.000000 0.340583 0.767474
0.060791 0.485095 0.776324
0.157074 0.483554 0.774783
0.293431 0.481373 0.772602
0.442484 0.478988 0.770217
0.595757 0.476536 0.767764
0.750827 0.474054 0.765283
0.906799 0.471559 0.762788
1.000000 0.469058 0.760287
1.000000 0.469058 0.760287
0.065826 0.613374 0.768941
0.156713 0.611920 0.767487
0.290148 0.609785 0.765352
0.437830 0.607422 0.762989
0.590375 0.604981 0.760548
0.745009 0.602507 0.758074
0.900698 0.600016 0.755583
1.000000 0.597533 0.753100
1.000000 0.597533 0.753100
0.072965 0.741620 0.761525
0.158026 0.740259 0.760164
0.287936 0.738180 0.758085
0.433896 0.735845 0.755750
0.585514 0.733419 0.753324
0.739590 0.730954 0.750859
0.894915 0.728468 0.748374
1.000000 0.726008 0.745913
1.000000 0.726008 0.745913
0.081810 0.869838 0.754081
0.160937 0.868572 0.752815
0.286821 0.866558 0.750801
0.430718 0.864255 0.748499
0.581203 0.861848 0.746091
0.734594 0.859393 0.743637
0.889468 0.856915 0.741159
1.000000 0.854482 0.738726
1.000000 0.854482 0.738726
0.092008 0.998034 0.746616
0.165334 0.996861 0.745443
0.286805 0.994918 0.743499
0.428318 0.992653 0.741235
0.577467 0.990267 0.738849
0.730041 0.987826 0.736407
0.884378 0.985356 0.733938
1.000000 0.982957 0.731539
1.000000 0.982957 0.731539
0.090012 0.000000 0.942919
0.185676 0.000000 0.941388
0.321713 0.000000 0.939212
0.470618 0.000000 0.936829
0.623814 0.000000 0.934378
0.778837 0.000000 0.931898
0.934779 0.000000 0.929403
1.000000 0.000000 0.926904
1.000000 0.000000 0.926904
0.084313 0.098886 0.935852
0.179368 0.097365 0.934331
0.315086 0.095193 0.932160
0.463844 0.092813 0.929780
0.616961 0.090363 0.927330
0.771938 0.087884 0.924850
0.927850 0.085389 0.922356
1.000000 0.082892 0.919859
1.000000 0.082892 0.919859
0.080491 0.227306 0.928611
0.174044 0.225810 0.927115
0.308962 0.223651 0.924956
0.457346 0.221277 0.922582
0.610265 0.218830 0.920135
0.765123 0.216352 0.917657
0.920958 0.213859 0.915164
1.000000 0.211367 0.912672
1.000000 0.211367 0.912672
0.079097 0.355688 0.921332
0.170138 0.354232 0.919875
0.303660 0.352095 0.917739
0.451384 0.349732 0.915375
0.603951 0.347291 0.912934
0.758599 0.344816 0.910460
0.914297 0.342325 0.907968
1.000000 0.339841 0.905485
1.000000 0.339841 0.905485
0.080182 0.484031 0.914012
0.167788 0.482629 0.912611
0.299287 0.480525 0.910507
0.446033 0.478177 0.908159
0.598076 0.475744 0.905726
0.752408 0.473275 0.903257
0.907901 0.470787 0.900769
1.000000 0.468316 0.898297
1.000000 0.468316 0.898297
0.083601 0.612336 0.906655
0.167053 0.611001 0.905320
0.295918 0.608939 0.903258
0.441352 0.606612 0.900931
0.592682 0.604190 0.898510
0.746586 0.601728 0.896048
0.901797 0.599245 0.893564
1.000000 0.596791 0.891110
1.000000 0.596791 0.891110
0.089098 0.740608 0.899265
0.167929 0.739346 0.898004
0.293600 0.737336 0.895993
0.437384 0.735035 0.893693
0.587807 0.732628 0.891286
0.741160 0.730175 0.888832
0.896010 0.727697 0.886355
1.000000 0.725265 0.883923
1.000000 0.725265 0.883923
0.096368 0.868851 0.891847
0.170357 0.867667 0.890663
0.292358 0.865715 0.888711
0.434165 0.863446 0.886442
0.583480 0.861057 0.884053
0.736156 0.858614 0.881610
0.890560 0.856144 0.879140
1.000000 0.853740 0.876736
1.000000 0.853740 0.876736
0.105113 0.997071 0.884405
0.174243 0.995965 0.883299
0.292199 0.994077 0.881412
0.431716 0.991845 0.879179
0.579724 0.989477 0.876811
0.731593 0.987047 0.874381
0.885463 0.984585 0.871919
1.000000 0.982215 0.869549
1.000000 0.982215 0.869549
0.113004 0.000000 1.000000
0.198634 0.000000 1.000000
0.328907 0.000000 1.000000
0.475048 0.000000 1.000000
0.626763 0.000000 1.000000
0.780898 0.000000 1.000000
0.936262 0.000000 1.000000
1.000000 0.000000 1.000000
1.000000 0.000000 1.000000
0.107089 0.097767 1.000000
0.192278 0.096404 1.000000
0.322269 0.094324 1.000000
0.468270 0.091988 1.000000
0.619909 0.089562 1.000000
0.773999 0.087097 1.000000
0.929332 0.084611 1.000000
1.000000 0.082150 1.000000
1.000000 0.082150 1.000000
0.102740 0.226197 1.000000
0.186832 0.224851 1.000000
0.316116 0.222782 1.000000
0.461763 0.220452 1.000000
0.613209 0.218029 1.000000
0.767182 0.215565 1.000000
0.922439 0.213081 1.000000
1.000000 0.210625 1.000000
1.000000 0.210625 1.000000
0.100481 0.354592 1.000000
0.182715 0.353277 1.000000
0.310765 0.351228 1.000000
0.455785 0.348907 1.000000
0.606889 0.346490 1.000000
0.760655 0.344030 1.000000
0.915777 0.341548 1.000000
1.000000 0.339099 1.000000
1.000000 0.339099 1.000000
0.100417 0.482953 1.000000
0.180064 0.481679 1.000000
0.306319 0.479659 1.000000
0.450411 0.477353 1.000000
0.601004 0.474944 1.000000
0.754460 0.472488 1.000000
0.909378 0.470010 1.000000
1.000000 0.467574 1.000000
1.000000 0.467574 1.000000
0.102498 0.611280 1.000000
0.178945 0.610056 1.000000
0.302853 0.608074 1.000000
0.445698 0.605788 1.000000
0.595598 0.603390 1.000000
0.748632 0.600941 1.000000
0.903272 0.598467 1.000000
1.000000 0.596049 1.000000
1.000000 0.596049 1.000000
0.106565 0.739574 1.000000
0.179367 0.738409 1.000000
0.300414 0.736473 1.000000
0.441691 0.734212 1.000000
0.590707 0.731828 1.000000
0.743198 0.729388 1.000000
0.897480 0.726919 1.000000
1.000000 0.724523 1.000000
1.000000 0.724523 1.000000
0.112402 0.867840 1.000000
0.181288 0.866738 1.000000
0.299030 0.864854 1.000000
0.438423 0.862624 1.000000
0.586359 0.860257 1.000000
0.738184 0.857828 1.000000
0.892024 0.855366 1.000000
1.000000 0.852998 1.000000
1.000000 0.852998 1.000000
0.119771 0.996082 1.000000
0.184633 0.995044 1.000000
0.298707 0.993219 1.000000
0.435917 0.991024 1.000000
0.582579 0.988677 1.000000
0.733610 0.986261 1.000000
0.886922 0.983808 1.000000
1.000000 0.981473 1.000000
1.000000 0.981473 1.000000
