UWC_LUTs/UWC_05_Recif_Punch.cube
# UWC Recif punch (look)
# UWC — correction couleur sous-marine · entree Rec.709
TITLE "UWC Recif punch (look)"
LUT_3D_SIZE 9
DOMAIN_MIN 0 0 0
DOMAIN_MAX 1 1 1
0.000000 0.000000 0.000000
0.112047 0.000000 0.000000
0.274094 0.000000 0.000000
0.436142 0.000000 0.000000
0.598189 0.000000 0.000000
0.760236 0.000000 0.000000
0.922283 0.000000 0.000000
1.000000 0.000000 0.000000
1.000000 0.000000 0.000000
0.000000 0.097974 0.000000
0.092022 0.092022 0.000000
0.254069 0.086069 0.000000
0.416116 0.080116 0.000000
0.578163 0.074163 0.000000
0.740210 0.068210 0.000000
0.902258 0.062258 0.000000
1.000000 0.056305 0.000000
1.000000 0.050352 0.000000
0.000000 0.245949 0.000000
0.071996 0.239996 0.000000
0.234043 0.234043 0.000000
0.396090 0.228090 0.000000
0.558138 0.222138 0.000000
0.720185 0.216185 0.000000
0.882232 0.210232 0.000000
1.000000 0.204279 0.000000
1.000000 0.198326 0.000000
0.000000 0.393923 0.000000
0.051970 0.387970 0.000000
0.214018 0.382018 0.000000
0.376065 0.376065 0.000000
0.538112 0.370112 0.000000
0.700159 0.364159 0.000000
0.862206 0.358206 0.000000
1.000000 0.352254 0.000000
1.000000 0.346301 0.000000
0.000000 0.541898 0.000000
0.031945 0.535945 0.000000
0.193992 0.529992 0.000000
0.356039 0.524039 0.000000
0.518086 0.518086 0.000000
0.680134 0.512134 0.000000
0.842181 0.506181 0.000000
1.000000 0.500228 0.000000
1.000000 0.494275 0.000000
0.000000 0.689872 0.000000
0.011919 0.683919 0.000000
0.173966 0.677966 0.000000
0.336014 0.672014 0.000000
0.498061 0.666061 0.000000
0.660108 0.660108 0.000000
0.822155 0.654155 0.000000
0.984202 0.648202 0.000000
1.000000 0.642250 0.000000
0.000000 0.837846 0.000000
0.000000 0.831894 0.000000
0.153941 0.825941 0.000000
0.315988 0.819988 0.000000
0.478035 0.814035 0.000000
0.640082 0.808082 0.000000
0.802130 0.802130 0.000000
0.964177 0.796177 0.000000
1.000000 0.790224 0.000000
0.000000 0.985821 0.000000
0.000000 0.979868 0.000000
0.133915 0.973915 0.000000
0.295962 0.967962 0.000000
0.458010 0.962010 0.000000
0.620057 0.956057 0.000000
0.782104 0.950104 0.000000
0.944151 0.944151 0.000000
1.000000 0.938198 0.000000
0.000000 1.000000 0.000000
0.000000 1.000000 0.000000
0.113890 1.000000 0.000000
0.275937 1.000000 0.000000
0.437984 1.000000 0.000000
0.600031 1.000000 0.000000
0.762078 1.000000 0.000000
0.924126 1.000000 0.000000
1.000000 1.000000 0.000000
0.000000 0.000000 0.115978
0.110026 0.000000 0.110026
0.272073 0.000000 0.104073
0.434120 0.000000 0.098120
0.596167 0.000000 0.092167
0.758214 0.000000 0.086214
0.920262 0.000000 0.080262
1.000000 0.000000 0.074309
1.000000 0.000000 0.068356
0.000000 0.095953 0.095953
0.090000 0.090000 0.090000
0.252047 0.084047 0.084047
0.414094 0.078094 0.078094
0.576142 0.072142 0.072142
0.738189 0.066189 0.066189
0.900236 0.060236 0.060236
1.000000 0.054283 0.054283
1.000000 0.048330 0.048330
0.000000 0.243927 0.075927
0.069974 0.237974 0.069974
0.232022 0.232022 0.064022
0.394069 0.226069 0.058069
0.556116 0.220116 0.052116
0.718163 0.214163 0.046163
0.880210 0.208210 0.040210
1.000000 0.202258 0.034258
1.000000 0.196305 0.028305
0.000000 0.391902 0.055902
0.049949 0.385949 0.049949
0.211996 0.379996 0.043996
0.374043 0.374043 0.038043
0.536090 0.368090 0.032090
0.698138 0.362138 0.026138
0.860185 0.356185 0.020185
1.000000 0.350232 0.014232
1.000000 0.344279 0.008279
0.000000 0.539876 0.035876
0.029923 0.533923 0.029923
0.191970 0.527970 0.023970
0.354018 0.522018 0.018018
0.516065 0.516065 0.012065
0.678112 0.510112 0.006112
0.840159 0.504159 0.000159
1.000000 0.498206 0.000000
1.000000 0.492254 0.000000
0.000000 0.687850 0.015850
0.009898 0.681898 0.009898
0.171945 0.675945 0.003945
0.333992 0.669992 0.000000
0.496039 0.664039 0.000000
0.658086 0.658086 0.000000
0.820134 0.652134 0.000000
0.982181 0.646181 0.000000
1.000000 0.640228 0.000000
0.000000 0.835825 0.000000
0.000000 0.829872 0.000000
0.151919 0.823919 0.000000
0.313966 0.817966 0.000000
0.476014 0.812014 0.000000
0.638061 0.806061 0.000000
0.800108 0.800108 0.000000
0.962155 0.794155 0.000000
1.000000 0.788202 0.000000
0.000000 0.983799 0.000000
0.000000 0.977846 0.000000
0.131894 0.971894 0.000000
0.293941 0.965941 0.000000
0.455988 0.959988 0.000000
0.618035 0.954035 0.000000
0.780082 0.948082 0.000000
0.942130 0.942130 0.000000
1.000000 0.936177 0.000000
0.000000 1.000000 0.000000
0.000000 1.000000 0.000000
0.111868 1.000000 0.000000
0.273915 1.000000 0.000000
0.435962 1.000000 0.000000
0.598010 1.000000 0.000000
0.760057 1.000000 0.000000
0.922104 1.000000 0.000000
1.000000 1.000000 0.000000
0.000000 0.000000 0.281957
0.108004 0.000000 0.276004
0.270051 0.000000 0.270051
0.432098 0.000000 0.264098
0.594146 0.000000 0.258146
0.756193 0.000000 0.252193
0.918240 0.000000 0.246240
1.000000 0.000000 0.240287
1.000000 0.000000 0.234334
0.000000 0.093931 0.261931
0.087978 0.087978 0.255978
0.250026 0.082026 0.250026
0.412073 0.076073 0.244073
0.574120 0.070120 0.238120
0.736167 0.064167 0.232167
0.898214 0.058214 0.226214
1.000000 0.052262 0.220262
1.000000 0.046309 0.214309
0.000000 0.241906 0.241906
0.067953 0.235953 0.235953
0.230000 0.230000 0.230000
0.392047 0.224047 0.224047
0.554094 0.218094 0.218094
0.716142 0.212142 0.212142
0.878189 0.206189 0.206189
1.000000 0.200236 0.200236
1.000000 0.194283 0.194283
0.000000 0.389880 0.221880
0.047927 0.383927 0.215927
0.209974 0.377974 0.209974
0.372022 0.372022 0.204022
0.534069 0.366069 0.198069
0.696116 0.360116 0.192116
0.858163 0.354163 0.186163
1.000000 0.348210 0.180210
1.000000 0.342258 0.174258
0.000000 0.537854 0.201854
0.027902 0.531902 0.195902
0.189949 0.525949 0.189949
0.351996 0.519996 0.183996
0.514043 0.514043 0.178043
0.676090 0.508090 0.172090
0.838138 0.502138 0.166138
1.000000 0.496185 0.160185
1.000000 0.490232 0.154232
0.000000 0.685829 0.181829
0.007876 0.679876 0.175876
0.169923 0.673923 0.169923
0.331970 0.667970 0.163970
0.494018 0.662018 0.158018
0.656065 0.656065 0.152065
0.818112 0.650112 0.146112
0.980159 0.644159 0.140159
1.000000 0.638206 0.134206
0.000000 0.833803 0.161803
0.000000 0.827850 0.155850
0.149898 0.821898 0.149898
0.311945 0.815945 0.143945
0.473992 0.809992 0.137992
0.636039 0.804039 0.132039
0.798086 0.798086 0.126086
0.960134 0.792134 0.120134
1.000000 0.786181 0.114181
0.000000 0.981778 0.141778
0.000000 0.975825 0.135825
0.129872 0.969872 0.129872
0.291919 0.963919 0.123919
0.453966 0.957966 0.117966
0.616014 0.952014 0.112014
0.778061 0.946061 0.106061
0.940108 0.940108 0.100108
1.000000 0.934155 0.094155
0.000000 1.000000 0.121752
0.000000 1.000000 0.115799
0.109846 1.000000 0.109846
0.271894 1.000000 0.103894
0.433941 1.000000 0.097941
0.595988 1.000000 0.091988
0.758035 1.000000 0.086035
0.920082 1.000000 0.080082
1.000000 1.000000 0.074130
0.000000 0.000000 0.447935
0.105982 0.000000 0.441982
0.268030 0.000000 0.436030
0.430077 0.000000 0.430077
0.592124 0.000000 0.424124
0.754171 0.000000 0.418171
0.916218 0.000000 0.412218
1.000000 0.000000 0.406266
1.000000 0.000000 0.400313
0.000000 0.091910 0.427910
0.085957 0.085957 0.421957
0.248004 0.080004 0.416004
0.410051 0.074051 0.410051
0.572098 0.068098 0.404098
0.734146 0.062146 0.398146
0.896193 0.056193 0.392193
1.000000 0.050240 0.386240
1.000000 0.044287 0.380287
0.000000 0.239884 0.407884
0.065931 0.233931 0.401931
0.227978 0.227978 0.395978
0.390026 0.222026 0.390026
0.552073 0.216073 0.384073
0.714120 0.210120 0.378120
0.876167 0.204167 0.372167
1.000000 0.198214 0.366214
1.000000 0.192262 0.360262
0.000000 0.387858 0.387858
0.045906 0.381906 0.381906
0.207953 0.375953 0.375953
0.370000 0.370000 0.370000
0.532047 0.364047 0.364047
0.694094 0.358094 0.358094
0.856142 0.352142 0.352142
1.000000 0.346189 0.346189
1.000000 0.340236 0.340236
0.000000 0.535833 0.367833
0.025880 0.529880 0.361880
0.187927 0.523927 0.355927
0.349974 0.517974 0.349974
0.512022 0.512022 0.344022
0.674069 0.506069 0.338069
0.836116 0.500116 0.332116
0.998163 0.494163 0.326163
1.000000 0.488210 0.320210
0.000000 0.683807 0.347807
0.005854 0.677854 0.341854
0.167902 0.671902 0.335902
0.329949 0.665949 0.329949
0.491996 0.659996 0.323996
0.654043 0.654043 0.318043
0.816090 0.648090 0.312090
0.978138 0.642138 0.306138
1.000000 0.636185 0.300185
0.000000 0.831782 0.327782
0.000000 0.825829 0.321829
0.147876 0.819876 0.315876
0.309923 0.813923 0.309923
0.471970 0.807970 0.303970
0.634018 0.802018 0.298018
0.796065 0.796065 0.292065
0.958112 0.790112 0.286112
1.000000 0.784159 0.280159
0.000000 0.979756 0.307756
0.000000 0.973803 0.301803
0.127850 0.967850 0.295850
0.289898 0.961898 0.289898
0.451945 0.955945 0.283945
0.613992 0.949992 0.277992
0.776039 0.944039 0.272039
0.938086 0.938086 0.266086
1.000000 0.932134 0.260134
0.000000 1.000000 0.287730
0.000000 1.000000 0.281778
0.107825 1.000000 0.275825
0.269872 1.000000 0.269872
0.431919 1.000000 0.263919
0.593966 1.000000 0.257966
0.756014 1.000000 0.252014
0.918061 1.000000 0.246061
1.000000 1.000000 0.240108
0.000000 0.000000 0.613914
0.103961 0.000000 0.607961
0.266008 0.000000 0.602008
0.428055 0.000000 0.596055
0.590102 0.000000 0.590102
0.752150 0.000000 0.584150
0.914197 0.000000 0.578197
1.000000 0.000000 0.572244
1.000000 0.000000 0.566291
0.000000 0.089888 0.593888
0.083935 0.083935 0.587935
0.245982 0.077982 0.581982
0.408030 0.072030 0.576030
0.570077 0.066077 0.570077
0.732124 0.060124 0.564124
0.894171 0.054171 0.558171
1.000000 0.048218 0.552218
1.000000 0.042266 0.546266
0.000000 0.237862 0.573862
0.063910 0.231910 0.567910
0.225957 0.225957 0.561957
0.388004 0.220004 0.556004
0.550051 0.214051 0.550051
0.712098 0.208098 0.544098
0.874146 0.202146 0.538146
1.000000 0.196193 0.532193
1.000000 0.190240 0.526240
0.000000 0.385837 0.553837
0.043884 0.379884 0.547884
0.205931 0.373931 0.541931
0.367978 0.367978 0.535978
0.530026 0.362026 0.530026
0.692073 0.356073 0.524073
0.854120 0.350120 0.518120
1.000000 0.344167 0.512167
1.000000 0.338214 0.506214
0.000000 0.533811 0.533811
0.023858 0.527858 0.527858
0.185906 0.521906 0.521906
0.347953 0.515953 0.515953
0.510000 0.510000 0.510000
0.672047 0.504047 0.504047
0.834094 0.498094 0.498094
0.996142 0.492142 0.492142
1.000000 0.486189 0.486189
0.000000 0.681786 0.513786
0.003833 0.675833 0.507833
0.165880 0.669880 0.501880
0.327927 0.663927 0.495927
0.489974 0.657974 0.489974
0.652022 0.652022 0.484022
0.814069 0.646069 0.478069
0.976116 0.640116 0.472116
1.000000 0.634163 0.466163
0.000000 0.829760 0.493760
0.000000 0.823807 0.487807
0.145854 0.817854 0.481854
0.307902 0.811902 0.475902
0.469949 0.805949 0.469949
0.631996 0.799996 0.463996
0.794043 0.794043 0.458043
0.956090 0.788090 0.452090
1.000000 0.782138 0.446138
0.000000 0.977734 0.473734
0.000000 0.971782 0.467782
0.125829 0.965829 0.461829
0.287876 0.959876 0.455876
0.449923 0.953923 0.449923
0.611970 0.947970 0.443970
0.774018 0.942018 0.438018
0.936065 0.936065 0.432065
1.000000 0.930112 0.426112
0.000000 1.000000 0.453709
0.000000 1.000000 0.447756
0.105803 1.000000 0.441803
0.267850 1.000000 0.435850
0.429898 1.000000 0.429898
0.591945 1.000000 0.423945
0.753992 1.000000 0.417992
0.916039 1.000000 0.412039
1.000000 1.000000 0.406086
0.000000 0.000000 0.779892
0.101939 0.000000 0.773939
0.263986 0.000000 0.767986
0.426034 0.000000 0.762034
0.588081 0.000000 0.756081
0.750128 0.000000 0.750128
0.912175 0.000000 0.744175
1.000000 0.000000 0.738222
1.000000 0.000000 0.732270
0.000000 0.087866 0.759866
0.081914 0.081914 0.753914
0.243961 0.075961 0.747961
0.406008 0.070008 0.742008
0.568055 0.064055 0.736055
0.730102 0.058102 0.730102
0.892150 0.052150 0.724150
1.000000 0.046197 0.718197
1.000000 0.040244 0.712244
0.000000 0.235841 0.739841
0.061888 0.229888 0.733888
0.223935 0.223935 0.727935
0.385982 0.217982 0.721982
0.548030 0.212030 0.716030
0.710077 0.206077 0.710077
0.872124 0.200124 0.704124
1.000000 0.194171 0.698171
1.000000 0.188218 0.692218
0.000000 0.383815 0.719815
0.041862 0.377862 0.713862
0.203910 0.371910 0.707910
0.365957 0.365957 0.701957
0.528004 0.360004 0.696004
0.690051 0.354051 0.690051
0.852098 0.348098 0.684098
1.000000 0.342146 0.678146
1.000000 0.336193 0.672193
0.000000 0.531790 0.699790
0.021837 0.525837 0.693837
0.183884 0.519884 0.687884
0.345931 0.513931 0.681931
0.507978 0.507978 0.675978
0.670026 0.502026 0.670026
0.832073 0.496073 0.664073
0.994120 0.490120 0.658120
1.000000 0.484167 0.652167
0.000000 0.679764 0.679764
0.001811 0.673811 0.673811
0.163858 0.667858 0.667858
0.325906 0.661906 0.661906
0.487953 0.655953 0.655953
0.650000 0.650000 0.650000
0.812047 0.644047 0.644047
0.974094 0.638094 0.638094
1.000000 0.632142 0.632142
0.000000 0.827738 0.659738
0.000000 0.821786 0.653786
0.143833 0.815833 0.647833
0.305880 0.809880 0.641880
0.467927 0.803927 0.635927
0.629974 0.797974 0.629974
0.792022 0.792022 0.624022
0.954069 0.786069 0.618069
1.000000 0.780116 0.612116
0.000000 0.975713 0.639713
0.000000 0.969760 0.633760
0.123807 0.963807 0.627807
0.285854 0.957854 0.621854
0.447902 0.951902 0.615902
0.609949 0.945949 0.609949
0.771996 0.939996 0.603996
0.934043 0.934043 0.598043
1.000000 0.928090 0.592090
0.000000 1.000000 0.619687
0.000000 1.000000 0.613734
0.103782 1.000000 0.607782
0.265829 1.000000 0.601829
0.427876 1.000000 0.595876
0.589923 1.000000 0.589923
0.751970 1.000000 0.583970
0.914018 1.000000 0.578018
1.000000 1.000000 0.572065
0.000000 0.000000 0.945870
0.099918 0.000000 0.939918
0.261965 0.000000 0.933965
0.424012 0.000000 0.928012
0.586059 0.000000 0.922059
0.748106 0.000000 0.916106
0.910154 0.000000 0.910154
1.000000 0.000000 0.904201
1.000000 0.000000 0.898248
0.000000 0.085845 0.925845
0.079892 0.079892 0.919892
0.241939 0.073939 0.913939
0.403986 0.067986 0.907986
0.566034 0.062034 0.902034
0.728081 0.056081 0.896081
0.890128 0.050128 0.890128
1.000000 0.044175 0.884175
1.000000 0.038222 0.878222
0.000000 0.233819 0.905819
0.059866 0.227866 0.899866
0.221914 0.221914 0.893914
0.383961 0.215961 0.887961
0.546008 0.210008 0.882008
0.708055 0.204055 0.876055
0.870102 0.198102 0.870102
1.000000 0.192150 0.864150
1.000000 0.186197 0.858197
0.000000 0.381794 0.885794
0.039841 0.375841 0.879841
0.201888 0.369888 0.873888
0.363935 0.363935 0.867935
0.525982 0.357982 0.861982
0.688030 0.352030 0.856030
0.850077 0.346077 0.850077
1.000000 0.340124 0.844124
1.000000 0.334171 0.838171
0.000000 0.529768 0.865768
0.019815 0.523815 0.859815
0.181862 0.517862 0.853862
0.343910 0.511910 0.847910
0.505957 0.505957 0.841957
0.668004 0.500004 0.836004
0.830051 0.494051 0.830051
0.992098 0.488098 0.824098
1.000000 0.482146 0.818146
0.000000 0.677742 0.845742
0.000000 0.671790 0.839790
0.161837 0.665837 0.833837
0.323884 0.659884 0.827884
0.485931 0.653931 0.821931
0.647978 0.647978 0.815978
0.810026 0.642026 0.810026
0.972073 0.636073 0.804073
1.000000 0.630120 0.798120
0.000000 0.825717 0.825717
0.000000 0.819764 0.819764
0.141811 0.813811 0.813811
0.303858 0.807858 0.807858
0.465906 0.801906 0.801906
0.627953 0.795953 0.795953
0.790000 0.790000 0.790000
0.952047 0.784047 0.784047
1.000000 0.778094 0.778094
0.000000 0.973691 0.805691
0.000000 0.967738 0.799738
0.121786 0.961786 0.793786
0.283833 0.955833 0.787833
0.445880 0.949880 0.781880
0.607927 0.943927 0.775927
0.769974 0.937974 0.769974
0.932022 0.932022 0.764022
1.000000 0.926069 0.758069
0.000000 1.000000 0.785666
0.000000 1.000000 0.779713
0.101760 1.000000 0.773760
0.263807 1.000000 0.767807
0.425854 1.000000 0.761854
0.587902 1.000000 0.755902
0.749949 1.000000 0.749949
0.911996 1.000000 0.743996
1.000000 1.000000 0.738043
0.000000 0.000000 1.000000
0.097896 0.000000 1.000000
0.259943 0.000000 1.000000
0.421990 0.000000 1.000000
0.584038 0.000000 1.000000
0.746085 0.000000 1.000000
0.908132 0.000000 1.000000
1.000000 0.000000 1.000000
1.000000 0.000000 1.000000
0.000000 0.083823 1.000000
0.077870 0.077870 1.000000
0.239918 0.071918 1.000000
0.401965 0.065965 1.000000
0.564012 0.060012 1.000000
0.726059 0.054059 1.000000
0.888106 0.048106 1.000000
1.000000 0.042154 1.000000
1.000000 0.036201 1.000000
0.000000 0.231798 1.000000
0.057845 0.225845 1.000000
0.219892 0.219892 1.000000
0.381939 0.213939 1.000000
0.543986 0.207986 1.000000
0.706034 0.202034 1.000000
0.868081 0.196081 1.000000
1.000000 0.190128 1.000000
1.000000 0.184175 1.000000
0.000000 0.379772 1.000000
0.037819 0.373819 1.000000
0.199866 0.367866 1.000000
0.361914 0.361914 1.000000
0.523961 0.355961 1.000000
0.686008 0.350008 1.000000
0.848055 0.344055 1.000000
1.000000 0.338102 1.000000
1.000000 0.332150 1.000000
0.000000 0.527746 1.000000
0.017794 0.521794 1.000000
0.179841 0.515841 1.000000
0.341888 0.509888 1.000000
0.503935 0.503935 1.000000
0.665982 0.497982 1.000000
0.828030 0.492030 0.996030
0.990077 0.486077 0.990077
1.000000 0.480124 0.984124
0.000000 0.675721 1.000000
0.000000 0.669768 1.000000
0.159815 0.663815 0.999815
0.321862 0.657862 0.993862
0.483910 0.651910 0.987910
0.645957 0.645957 0.981957
0.808004 0.640004 0.976004
0.970051 0.634051 0.970051
1.000000 0.628098 0.964098
0.000000 0.823695 0.991695
0.000000 0.817742 0.985742
0.139790 0.811790 0.979790
0.301837 0.805837 0.973837
0.463884 0.799884 0.967884
0.625931 0.793931 0.961931
0.787978 0.787978 0.955978
0.950026 0.782026 0.950026
1.000000 0.776073 0.944073
0.000000 0.971670 0.971670
0.000000 0.965717 0.965717
0.119764 0.959764 0.959764
0.281811 0.953811 0.953811
0.443858 0.947858 0.947858
0.605906 0.941906 0.941906
0.767953 0.935953 0.935953
0.930000 0.930000 0.930000
1.000000 0.924047 0.924047
0.000000 1.000000 0.951644
0.000000 1.000000 0.945691
0.099738 1.000000 0.939738
0.261786 1.000000 0.933786
0.423833 1.000000 0.927833
0.585880 1.000000 0.921880
0.747927 1.000000 0.915927
0.909974 1.000000 0.909974
1.000000 1.000000 0.904022
0.000000 0.000000 1.000000
0.095874 0.000000 1.000000
0.257922 0.000000 1.000000
0.419969 0.000000 1.000000
0.582016 0.000000 1.000000
0.744063 0.000000 1.000000
0.906110 0.000000 1.000000
1.000000 0.000000 1.000000
1.000000 0.000000 1.000000
0.000000 0.081802 1.000000
0.075849 0.075849 1.000000
0.237896 0.069896 1.000000
0.399943 0.063943 1.000000
0.561990 0.057990 1.000000
0.724038 0.052038 1.000000
0.886085 0.046085 1.000000
1.000000 0.040132 1.000000
1.000000 0.034179 1.000000
0.000000 0.229776 1.000000
0.055823 0.223823 1.000000
0.217870 0.217870 1.000000
0.379918 0.211918 1.000000
0.541965 0.205965 1.000000
0.704012 0.200012 1.000000
0.866059 0.194059 1.000000
1.000000 0.188106 1.000000
1.000000 0.182154 1.000000
0.000000 0.377750 1.000000
0.035798 0.371798 1.000000
0.197845 0.365845 1.000000
0.359892 0.359892 1.000000
0.521939 0.353939 1.000000
0.683986 0.347986 1.000000
0.846034 0.342034 1.000000
1.000000 0.336081 1.000000
1.000000 0.330128 1.000000
0.000000 0.525725 1.000000
0.015772 0.519772 1.000000
0.177819 0.513819 1.000000
0.339866 0.507866 1.000000
0.501914 0.501914 1.000000
0.663961 0.495961 1.000000
0.826008 0.490008 1.000000
0.988055 0.484055 1.000000
1.000000 0.478102 1.000000
0.000000 0.673699 1.000000
0.000000 0.667746 1.000000
0.157794 0.661794 1.000000
0.319841 0.655841 1.000000
0.481888 0.649888 1.000000
0.643935 0.643935 1.000000
0.805982 0.637982 1.000000
0.968030 0.632030 1.000000
1.000000 0.626077 1.000000
0.000000 0.821674 1.000000
0.000000 0.815721 1.000000
0.137768 0.809768 1.000000
0.299815 0.803815 1.000000
0.461862 0.797862 1.000000
0.623910 0.791910 1.000000
0.785957 0.785957 1.000000
0.948004 0.780004 1.000000
1.000000 0.774051 1.000000
0.000000 0.969648 1.000000
0.000000 0.963695 1.000000
0.117742 0.957742 1.000000
0.279790 0.951790 1.000000
0.441837 0.945837 1.000000
0.603884 0.939884 1.000000
0.765931 0.933931 1.000000
0.927978 0.927978 1.000000
1.000000 0.922026 1.000000
0.000000 1.000000 1.000000
0.000000 1.000000 1.000000
0.097717 1.000000 1.000000
0.259764 1.000000 1.000000
0.421811 1.000000 1.000000
0.583858 1.000000 1.000000
0.745906 1.000000 1.000000
0.907953 1.000000 1.000000
1.000000 1.000000 1.000000
