UWC_LUTs/UWC_02_EauVerte_Forte.cube
# UWC Eau verte - forte
# UWC — correction couleur sous-marine · entree Rec.709
TITLE "UWC Eau verte - forte"
LUT_3D_SIZE 5
DOMAIN_MIN 0 0 0
DOMAIN_MAX 1 1 1
0.000000 0.000000 0.000000
0.349721 0.000000 0.000000
0.718354 0.000000 0.000000
1.000000 0.000000 0.000000
1.000000 0.000000 0.000000
0.000000 0.210301 0.000000
0.331898 0.201697 0.000000
0.699077 0.193139 0.000000
1.000000 0.184556 0.000000
1.000000 0.183172 0.000000
0.000000 0.460808 0.000000
0.319109 0.453275 0.000000
0.681744 0.444822 0.000000
1.000000 0.436273 0.000000
1.000000 0.434938 0.000000
0.036847 0.711133 0.000000
0.313015 0.704696 0.000000
0.667523 0.696433 0.000000
1.000000 0.687946 0.000000
1.000000 0.686705 0.000000
0.077766 0.961459 0.000000
0.313833 0.955956 0.000000
0.656812 0.947962 0.000000
1.000000 0.939569 0.000000
1.000000 0.938471 0.000000
0.000000 0.000000 0.245594
0.350426 0.000000 0.237037
0.717421 0.000000 0.228483
1.000000 0.000000 0.219902
1.000000 0.000000 0.218519
0.000000 0.207632 0.224778
0.332580 0.199439 0.216586
0.698141 0.190918 0.208065
1.000000 0.182348 0.199494
1.000000 0.180981 0.198127
0.008015 0.458284 0.202771
0.319721 0.451018 0.195505
0.680800 0.442602 0.187088
1.000000 0.434065 0.178551
1.000000 0.432747 0.177234
0.043490 0.708736 0.180563
0.313507 0.702442 0.174269
0.666565 0.694213 0.166040
1.000000 0.685738 0.157565
1.000000 0.684513 0.156340
0.081712 0.959125 0.158292
0.314164 0.953706 0.152873
0.655833 0.945742 0.144909
1.000000 0.937361 0.136528
1.000000 0.936280 0.135447
0.039877 0.000000 0.528721
0.357329 0.000000 0.521321
0.719217 0.000000 0.512886
1.000000 0.000000 0.504343
1.000000 0.000000 0.503016
0.031450 0.204189 0.508050
0.339413 0.197010 0.500871
0.699929 0.188607 0.492468
1.000000 0.180074 0.483935
1.000000 0.178763 0.482624
0.042270 0.455216 0.486417
0.326340 0.448594 0.479795
0.682564 0.440291 0.471492
1.000000 0.431791 0.462992
1.000000 0.430529 0.461730
0.066575 0.705929 0.464470
0.319756 0.700027 0.458568
0.668285 0.691903 0.450444
1.000000 0.683465 0.442006
1.000000 0.682295 0.440837
0.097959 0.956476 0.442358
0.319916 0.951303 0.437184
0.657488 0.943434 0.429315
1.000000 0.935088 0.420970
1.000000 0.934062 0.419943
0.102659 0.000000 0.811702
0.371697 0.000000 0.805431
0.724514 0.000000 0.797207
1.000000 0.000000 0.788734
1.000000 0.000000 0.787512
0.089611 0.200563 0.791139
0.353663 0.194408 0.784984
0.705213 0.186214 0.776789
1.000000 0.177751 0.768327
1.000000 0.176545 0.767120
0.090206 0.451829 0.769744
0.340224 0.446001 0.763917
0.687804 0.437899 0.755815
1.000000 0.429468 0.747384
1.000000 0.428311 0.746227
0.103834 0.702790 0.748046
0.333005 0.697449 0.742704
0.673443 0.689513 0.734769
1.000000 0.681142 0.726398
1.000000 0.680077 0.725333
0.126700 0.953537 0.726133
0.332304 0.948744 0.721340
0.662523 0.941047 0.713643
1.000000 0.932767 0.705363
1.000000 0.931844 0.704440
0.165440 0.000000 1.000000
0.393669 0.000000 1.000000
0.733745 0.000000 1.000000
1.000000 0.000000 1.000000
1.000000 0.000000 1.000000
0.150136 0.196883 1.000000
0.375478 0.191630 1.000000
0.714423 0.183730 1.000000
1.000000 0.175372 1.000000
1.000000 0.174327 1.000000
0.144745 0.448288 1.000000
0.361556 0.443234 1.000000
0.696948 0.435416 1.000000
1.000000 0.427090 1.000000
1.000000 0.426093 1.000000
0.150397 0.699435 1.000000
0.353490 0.694701 1.000000
0.682466 0.687033 1.000000
1.000000 0.678764 1.000000
1.000000 0.677859 1.000000
0.165397 0.950365 1.000000
0.351628 0.946024 1.000000
0.671366 0.938571 0.997881
1.000000 0.930390 0.989700
1.000000 0.929626 0.988936
