UWC_LUTs/UWC_03_EauBleue_Tropicale.cube
# UWC Eau bleue tropicale
# UWC — correction couleur sous-marine · entree Rec.709
TITLE "UWC Eau bleue tropicale"
LUT_3D_SIZE 9
DOMAIN_MIN 0 0 0
DOMAIN_MAX 1 1 1
0.000000 0.000000 0.000000
0.154168 0.000000 0.000000
0.325737 0.000000 0.000000
0.497305 0.000000 0.000000
0.668874 0.000000 0.000000
0.840442 0.000000 0.000000
1.000000 0.000000 0.000000
1.000000 0.000000 0.000000
1.000000 0.000000 0.000000
0.000000 0.106169 0.000000
0.146344 0.102611 0.000000
0.317053 0.099247 0.000000
0.488319 0.095872 0.000000
0.659740 0.092493 0.000000
0.831224 0.089114 0.000000
1.000000 0.085733 0.000000
1.000000 0.083738 0.000000
1.000000 0.083738 0.000000
0.000000 0.242177 0.000000
0.141007 0.238803 0.000000
0.309584 0.235481 0.000000
0.480088 0.232121 0.000000
0.651136 0.228750 0.000000
0.822404 0.225374 0.000000
0.993780 0.221997 0.000000
1.000000 0.220012 0.000000
1.000000 0.220012 0.000000
0.000000 0.377976 0.000000
0.138684 0.374936 0.000000
0.303655 0.371685 0.000000
0.472824 0.368351 0.000000
0.643212 0.364993 0.000000
0.814098 0.361625 0.000000
0.985228 0.358252 0.000000
1.000000 0.356285 0.000000
1.000000 0.356285 0.000000
0.005659 0.513645 0.000000
0.139482 0.511007 0.000000
0.299441 0.507855 0.000000
0.466655 0.504559 0.000000
0.636063 0.501220 0.000000
0.806378 0.497864 0.000000
0.977141 0.494498 0.000000
1.000000 0.492559 0.000000
1.000000 0.492559 0.000000
0.026916 0.649312 0.000000
0.143267 0.647019 0.000000
0.297039 0.643989 0.000000
0.461674 0.640744 0.000000
0.629764 0.637431 0.000000
0.799303 0.634090 0.000000
0.969566 0.630735 0.000000
1.000000 0.628832 0.000000
1.000000 0.628832 0.000000
0.048173 0.784980 0.000000
0.149759 0.782978 0.000000
0.296487 0.780087 0.000000
0.457946 0.776904 0.000000
0.624372 0.773625 0.000000
0.792922 0.770303 0.000000
0.962543 0.766960 0.000000
1.000000 0.765106 0.000000
1.000000 0.765106 0.000000
0.069430 0.920648 0.000000
0.158608 0.918891 0.000000
0.297768 0.916148 0.000000
0.455512 0.913039 0.000000
0.619931 0.909799 0.000000
0.787275 0.906501 0.000000
0.956106 0.903174 0.000000
1.000000 0.901380 0.000000
1.000000 0.901380 0.000000
0.090686 1.000000 0.000000
0.169451 1.000000 0.000000
0.300823 1.000000 0.000000
0.454389 1.000000 0.000000
0.616474 1.000000 0.000000
0.782391 1.000000 0.000000
0.950284 1.000000 0.000000
1.000000 1.000000 0.000000
1.000000 1.000000 0.000000
0.000000 0.000000 0.096198
0.154657 0.000000 0.092626
0.325536 0.000000 0.089258
0.496863 0.000000 0.085881
0.668314 0.000000 0.082503
0.839814 0.000000 0.079123
1.000000 0.000000 0.075742
1.000000 0.000000 0.073746
1.000000 0.000000 0.073746
0.000000 0.105251 0.086617
0.146821 0.101751 0.083117
0.316851 0.098400 0.079766
0.487876 0.095030 0.076395
0.659180 0.091654 0.073019
0.830596 0.088275 0.069641
1.000000 0.084896 0.066262
1.000000 0.082904 0.064269
1.000000 0.082904 0.064269
0.000000 0.241259 0.076875
0.141454 0.237944 0.073560
0.309378 0.234634 0.070250
0.479644 0.231279 0.066895
0.650576 0.227910 0.063526
0.821776 0.224536 0.060152
0.993109 0.221159 0.056775
1.000000 0.219177 0.054793
1.000000 0.219177 0.054793
0.000000 0.377059 0.066925
0.139083 0.374077 0.063943
0.303442 0.370838 0.060704
0.472378 0.367509 0.057375
0.642651 0.364153 0.054019
0.813469 0.360786 0.050652
0.984557 0.357415 0.047280
1.000000 0.355451 0.045317
1.000000 0.355451 0.045317
0.007828 0.512751 0.056867
0.139815 0.510150 0.054266
0.299217 0.507008 0.051124
0.466206 0.503717 0.047833
0.635501 0.500381 0.044497
0.805749 0.497025 0.041141
0.976469 0.493661 0.037777
1.000000 0.491724 0.035840
1.000000 0.491724 0.035840
0.028355 0.648433 0.046799
0.143525 0.646164 0.044529
0.296802 0.643143 0.041509
0.461221 0.639902 0.038268
0.629200 0.636592 0.034958
0.798674 0.633252 0.031618
0.968893 0.629897 0.028263
1.000000 0.627998 0.026364
1.000000 0.627998 0.026364
0.049139 0.784111 0.036726
0.149937 0.782124 0.034740
0.296233 0.779241 0.031857
0.457488 0.776063 0.028679
0.623806 0.772785 0.025401
0.792292 0.769464 0.022080
0.961870 0.766122 0.018738
1.000000 0.764272 0.016887
1.000000 0.764272 0.016887
0.070069 0.919785 0.026651
0.158705 0.918038 0.024904
0.297494 0.915303 0.022169
0.455048 0.912198 0.019063
0.619363 0.908959 0.015825
0.786643 0.905663 0.012528
0.955433 0.902336 0.009202
1.000000 0.900545 0.007411
1.000000 0.900545 0.007411
0.091089 1.000000 0.016573
0.169471 1.000000 0.015028
0.300529 1.000000 0.012446
0.453918 1.000000 0.009423
0.615903 1.000000 0.006230
0.781758 1.000000 0.002961
0.949610 1.000000 0.000000
1.000000 1.000000 0.000000
1.000000 1.000000 0.000000
0.000000 0.000000 0.227923
0.157110 0.000000 0.224498
0.326273 0.000000 0.221164
0.496988 0.000000 0.217800
0.668140 0.000000 0.214427
0.839468 0.000000 0.211050
1.000000 0.000000 0.207672
1.000000 0.000000 0.205684
1.000000 0.000000 0.205684
0.000000 0.104167 0.218342
0.149244 0.100815 0.214990
0.317583 0.097497 0.211672
0.488001 0.094138 0.208314
0.659006 0.090768 0.204943
0.830250 0.087393 0.201569
1.000000 0.084016 0.198191
1.000000 0.082032 0.196207
1.000000 0.082032 0.196207
0.000000 0.240175 0.208600
0.143803 0.237009 0.205434
0.310100 0.233731 0.202157
0.479766 0.230387 0.198813
0.650401 0.227025 0.195450
0.821429 0.223654 0.192079
0.992652 0.220279 0.188705
1.000000 0.218306 0.186731
1.000000 0.218306 0.186731
0.000000 0.375992 0.198668
0.141312 0.373145 0.195820
0.304145 0.369935 0.192611
0.472494 0.366618 0.189293
0.642474 0.363268 0.185943
0.813121 0.359904 0.182580
0.984099 0.356535 0.179210
1.000000 0.354579 0.177255
1.000000 0.354579 0.177255
0.014219 0.511736 0.188662
0.141884 0.509220 0.186146
0.299893 0.506106 0.183031
0.466314 0.502826 0.179752
0.635321 0.499495 0.176421
0.805400 0.496143 0.173069
0.976011 0.492781 0.169706
1.000000 0.490853 0.167778
1.000000 0.490853 0.167778
0.033084 0.647451 0.178627
0.145408 0.645238 0.176413
0.297443 0.642241 0.173417
0.461319 0.639012 0.170187
0.629016 0.635707 0.166882
0.798322 0.632370 0.163545
0.968434 0.629017 0.160193
1.000000 0.627126 0.158302
1.000000 0.627126 0.158302
0.052750 0.783150 0.168576
0.151620 0.781202 0.166627
0.296833 0.778340 0.163765
0.457574 0.775172 0.160598
0.623617 0.771900 0.157325
0.791938 0.768582 0.154008
0.961410 0.765242 0.150668
1.000000 0.763400 0.148825
1.000000 0.763400 0.148825
0.072890 0.918840 0.158516
0.160188 0.917120 0.156795
0.298046 0.914403 0.154078
0.455118 0.911307 0.150983
0.619168 0.908074 0.147750
0.786286 0.904781 0.144456
0.954971 0.901456 0.141132
1.000000 0.899674 0.139349
1.000000 0.899674 0.139349
0.093328 1.000000 0.148450
0.170761 1.000000 0.146924
0.301028 1.000000 0.144356
0.453971 1.000000 0.141342
0.615701 1.000000 0.138155
0.781398 1.000000 0.134889
0.949146 1.000000 0.131583
1.000000 1.000000 0.129873
1.000000 1.000000 0.129873
0.001702 0.000000 0.359482
0.162019 0.000000 0.356322
0.328248 0.000000 0.353046
0.497889 0.000000 0.349703
0.668511 0.000000 0.346340
0.839533 0.000000 0.342969
1.000000 0.000000 0.339595
1.000000 0.000000 0.337622
1.000000 0.000000 0.337622
0.000000 0.102916 0.349901
0.154103 0.099830 0.346815
0.319551 0.096569 0.343554
0.488899 0.093232 0.340217
0.659376 0.089872 0.336857
0.830314 0.086503 0.333488
1.000000 0.083130 0.330115
1.000000 0.081160 0.328145
1.000000 0.081160 0.328145
0.001157 0.238931 0.340166
0.148540 0.236026 0.337261
0.312049 0.232804 0.334039
0.480659 0.229481 0.330716
0.650769 0.226128 0.327363
0.821493 0.222764 0.323999
0.992519 0.219393 0.320628
1.000000 0.217434 0.318669
1.000000 0.217434 0.318669
0.011163 0.374821 0.330306
0.145848 0.372166 0.327651
0.306062 0.369009 0.324494
0.473378 0.365711 0.321196
0.642839 0.362372 0.317856
0.813183 0.359014 0.314499
0.983966 0.355649 0.311133
1.000000 0.353707 0.309192
1.000000 0.353707 0.309192
0.025178 0.510631 0.320366
0.146151 0.508247 0.317982
0.301763 0.505180 0.314915
0.467185 0.501920 0.311655
0.635681 0.498599 0.308334
0.805459 0.495253 0.304988
0.975876 0.491895 0.301630
1.000000 0.489981 0.299716
1.000000 0.489981 0.299716
0.041622 0.646394 0.310379
0.149358 0.644271 0.308256
0.299253 0.641317 0.305302
0.462172 0.638106 0.302091
0.629369 0.634811 0.298796
0.798378 0.631480 0.295465
0.968298 0.628131 0.292116
1.000000 0.626255 0.290240
1.000000 0.626255 0.290240
0.059548 0.782128 0.300363
0.155231 0.780242 0.298477
0.298569 0.777417 0.295652
0.458404 0.774267 0.292502
0.623961 0.771004 0.289239
0.791990 0.767693 0.285927
0.961271 0.764356 0.282591
1.000000 0.762528 0.280763
1.000000 0.762528 0.280763
0.078408 0.917843 0.290328
0.163456 0.916167 0.288652
0.299698 0.913482 0.285966
0.455921 0.910403 0.282888
0.619500 0.907179 0.279664
0.786333 0.903891 0.276376
0.954829 0.900570 0.273055
1.000000 0.898802 0.271287
1.000000 0.898802 0.271287
0.097881 1.000000 0.280281
0.173697 1.000000 0.278787
0.302588 1.000000 0.276246
0.454743 1.000000 0.273248
0.616020 1.000000 0.270069
0.781439 1.000000 0.266809
0.949001 1.000000 0.263507
1.000000 1.000000 0.261810
1.000000 1.000000 0.261810
0.028000 0.000000 0.490884
0.169519 0.000000 0.488095
0.331610 0.000000 0.484900
0.499670 0.000000 0.481588
0.669504 0.000000 0.478241
0.840067 0.000000 0.474880
1.000000 0.000000 0.471511
1.000000 0.000000 0.469559
1.000000 0.000000 0.469559
0.022764 0.101529 0.481324
0.161535 0.098795 0.478589
0.322902 0.095614 0.475409
0.490677 0.092308 0.472102
0.660368 0.088963 0.468758
0.830848 0.085604 0.465398
1.000000 0.082236 0.462031
1.000000 0.080289 0.460083
1.000000 0.080289 0.460083
0.023283 0.237606 0.471651
0.155806 0.234994 0.469039
0.315373 0.231850 0.465894
0.482429 0.228557 0.462602
0.651758 0.225220 0.459265
0.822025 0.221864 0.455909
0.992758 0.218500 0.452544
1.000000 0.216562 0.450607
1.000000 0.216562 0.450607
0.029481 0.373571 0.461865
0.152838 0.371140 0.459434
0.309339 0.368055 0.456350
0.475135 0.364788 0.453082
0.643822 0.361463 0.449758
0.813713 0.358115 0.446410
0.984203 0.354755 0.443049
1.000000 0.352836 0.441130
1.000000 0.352836 0.441130
0.040077 0.509449 0.451993
0.152772 0.507228 0.449772
0.304973 0.504228 0.446773
0.468922 0.500997 0.443542
0.636657 0.497691 0.440236
0.805985 0.494354 0.436899
0.976112 0.491001 0.433546
1.000000 0.489109 0.431654
1.000000 0.489109 0.431654
0.053761 0.645266 0.442060
0.155540 0.643260 0.440055
0.302373 0.640366 0.437161
0.463882 0.637183 0.433978
0.630334 0.633903 0.430697
0.798900 0.630581 0.427375
0.968531 0.627237 0.424032
1.000000 0.625383 0.422177
1.000000 0.625383 0.422177
0.069535 0.781042 0.432086
0.160938 0.779241 0.430285
0.301582 0.776469 0.427513
0.460080 0.773345 0.424389
0.624912 0.770096 0.421141
0.792505 0.766793 0.417838
0.961501 0.763463 0.414507
1.000000 0.761657 0.412701
1.000000 0.761657 0.412701
0.086727 0.916790 0.422084
0.168678 0.915175 0.420469
0.302588 0.912536 0.417830
0.457557 0.909482 0.414776
0.620436 0.906271 0.411566
0.786840 0.902992 0.408286
0.955055 0.899677 0.404971
1.000000 0.897930 0.403225
1.000000 0.897930 0.403225
0.104895 1.000000 0.412063
0.178447 1.000000 0.410614
0.305342 1.000000 0.408113
0.456333 1.000000 0.405137
0.616937 1.000000 0.401972
0.781937 1.000000 0.398720
0.949222 1.000000 0.395423
1.000000 1.000000 0.393748
1.000000 1.000000 0.393748
0.055133 0.000000 0.622270
0.179564 0.000000 0.619818
0.336453 0.000000 0.616726
0.502410 0.000000 0.613455
0.671180 0.000000 0.610129
0.841120 0.000000 0.606780
1.000000 0.000000 0.603419
1.000000 0.000000 0.601497
1.000000 0.000000 0.601497
0.048876 0.100126 0.612730
0.171499 0.097709 0.610313
0.327731 0.094630 0.607234
0.493413 0.091365 0.603969
0.662043 0.088042 0.600646
0.831900 0.084694 0.597298
1.000000 0.081334 0.593938
1.000000 0.079417 0.592021
1.000000 0.079417 0.592021
0.047200 0.236246 0.603100
0.165571 0.233913 0.600767
0.320166 0.230866 0.597720
0.485155 0.227615 0.594469
0.653428 0.224298 0.591152
0.823075 0.220955 0.587809
0.993408 0.217598 0.584452
1.000000 0.215690 0.582544
1.000000 0.215690 0.582544
0.050469 0.372268 0.593372
0.162270 0.370065 0.591169
0.314071 0.367073 0.588177
0.477843 0.363845 0.584950
0.645486 0.360542 0.581646
0.814760 0.357205 0.578310
0.984851 0.353853 0.574957
1.000000 0.351964 0.573068
1.000000 0.351964 0.573068
0.058041 0.508206 0.583560
0.161752 0.506162 0.581516
0.309615 0.503248 0.578602
0.471603 0.500055 0.575409
0.638309 0.496770 0.572124
0.807027 0.493445 0.568799
0.976757 0.490100 0.565454
1.000000 0.488238 0.563592
1.000000 0.488238 0.563592
0.068991 0.644077 0.573681
0.163982 0.642205 0.571809
0.306898 0.639388 0.568992
0.466527 0.636242 0.565846
0.631973 0.632982 0.562586
0.799935 0.629671 0.559275
0.969172 0.626336 0.555940
1.000000 0.624511 0.554115
1.000000 0.624511 0.554115
0.082452 0.779898 0.563753
0.168788 0.778197 0.562051
0.305965 0.775493 0.559348
0.462680 0.772405 0.556259
0.626533 0.769176 0.553030
0.793532 0.765884 0.549738
0.962137 0.762561 0.546416
1.000000 0.760785 0.544639
1.000000 0.760785 0.544639
0.097740 0.915684 0.553788
0.175919 0.914143 0.552247
0.306808 0.911564 0.549668
0.460103 0.908542 0.546647
0.622034 0.905351 0.543455
0.787856 0.902083 0.540187
0.955686 0.898775 0.536880
1.000000 0.897058 0.535162
1.000000 0.897058 0.535162
0.114354 1.000000 0.543797
0.185087 1.000000 0.542403
0.309383 1.000000 0.539954
0.458817 1.000000 0.537009
0.618509 1.000000 0.533862
0.782940 1.000000 0.530621
0.949846 1.000000 0.527331
1.000000 1.000000 0.525686
1.000000 1.000000 0.525686
0.082266 0.000000 0.753656
0.191982 0.000000 0.751494
0.342823 0.000000 0.748521
0.506168 0.000000 0.745302
0.673588 0.000000 0.742002
0.842730 0.000000 0.738668
1.000000 0.000000 0.735318
1.000000 0.000000 0.733435
1.000000 0.000000 0.733435
0.075344 0.098715 0.744129
0.183828 0.096577 0.741991
0.334084 0.093616 0.739030
0.497166 0.090402 0.735816
0.664449 0.087105 0.732519
0.833509 0.083773 0.729187
1.000000 0.080424 0.725838
1.000000 0.078545 0.723959
1.000000 0.078545 0.723959
0.072154 0.234865 0.734529
0.177679 0.232785 0.732449
0.326476 0.229853 0.729517
0.488895 0.226652 0.726316
0.655829 0.223362 0.723026
0.824683 0.220034 0.719698
0.994500 0.216687 0.716351
1.000000 0.214819 0.714482
1.000000 0.214819 0.714482
0.073214 0.370931 0.724845
0.174010 0.368945 0.722858
0.320305 0.366061 0.719975
0.481560 0.362883 0.716797
0.647878 0.359606 0.713519
0.816363 0.356285 0.710199
0.985941 0.352943 0.706857
1.000000 0.351092 0.705006
1.000000 0.351092 0.705006
0.078267 0.506918 0.715082
0.172988 0.505052 0.713215
0.315739 0.502238 0.710402
0.475286 0.499094 0.707258
0.640688 0.495834 0.703998
0.808624 0.492524 0.700688
0.977843 0.489189 0.697353
1.000000 0.487366 0.695530
1.000000 0.487366 0.695530
0.086721 0.642839 0.705252
0.174608 0.641106 0.703520
0.312879 0.638381 0.700795
0.470165 0.635282 0.697695
0.634332 0.632046 0.694460
0.801523 0.628751 0.691165
0.970254 0.625426 0.687839
1.000000 0.623639 0.686053
1.000000 0.623639 0.686053
0.097905 0.778705 0.695369
0.178736 0.777112 0.693776
0.311771 0.774490 0.691154
0.466261 0.771445 0.688109
0.628869 0.768241 0.684904
0.795108 0.764964 0.681628
0.963214 0.761651 0.678315
1.000000 0.759913 0.676577
1.000000 0.759913 0.676577
0.111206 0.914530 0.685443
0.185159 0.913072 0.683986
0.312413 0.910564 0.681478
0.463616 0.907584 0.678498
0.624343 0.904417 0.675330
0.789419 0.901163 0.672077
0.956755 0.897865 0.668779
1.000000 0.896187 0.667100
1.000000 0.896187 0.667100
0.126126 1.000000 0.675486
0.193621 1.000000 0.674156
0.314766 1.000000 0.671768
0.462250 1.000000 0.668862
0.620784 1.000000 0.665737
0.784487 1.000000 0.662511
0.950906 1.000000 0.659231
1.000000 1.000000 0.657624
1.000000 1.000000 0.657624
0.109399 0.000000 0.885042
0.206527 0.000000 0.883128
0.350729 0.000000 0.880286
0.510984 0.000000 0.877127
0.676767 0.000000 0.873860
0.844932 0.000000 0.870546
1.000000 0.000000 0.867208
1.000000 0.000000 0.865373
1.000000 0.000000 0.865373
0.102015 0.097301 0.875524
0.198281 0.095404 0.873627
0.341969 0.092572 0.870795
0.501976 0.089418 0.867642
0.667625 0.086154 0.864377
0.835710 0.082841 0.861064
1.000000 0.079504 0.857727
1.000000 0.077673 0.855897
1.000000 0.077673 0.855897
0.097739 0.233472 0.865945
0.191905 0.231616 0.864089
0.334311 0.228810 0.861283
0.493689 0.225669 0.858142
0.658999 0.222411 0.854884
0.826880 0.219102 0.851575
0.996064 0.215768 0.848241
1.000000 0.213947 0.846420
1.000000 0.213947 0.846420
0.097124 0.369571 0.856294
0.187852 0.367783 0.854506
0.328052 0.365020 0.851743
0.486326 0.361901 0.848624
0.651036 0.358654 0.845378
0.818555 0.355353 0.842076
0.987502 0.352023 0.838747
1.000000 0.350221 0.836944
1.000000 0.350221 0.836944
0.100126 0.505599 0.846572
0.186299 0.503900 0.844874
0.323358 0.501199 0.842172
0.480011 0.498112 0.839085
0.643830 0.494883 0.835856
0.810808 0.491592 0.832566
0.979400 0.488270 0.829243
1.000000 0.486494 0.827467
1.000000 0.486494 0.827467
0.106403 0.641562 0.836785
0.187268 0.639968 0.835191
0.320330 0.637346 0.832569
0.474835 0.634301 0.829524
0.637452 0.631096 0.826319
0.803696 0.627819 0.823043
0.971805 0.624506 0.819730
1.000000 0.622768 0.817991
1.000000 0.622768 0.817991
0.115468 0.777470 0.826943
0.190665 0.775988 0.825461
0.319018 0.773458 0.822932
0.470862 0.770466 0.819939
0.631961 0.767291 0.816764
0.797268 0.764033 0.813506
0.964757 0.760732 0.810205
1.000000 0.759041 0.808515
1.000000 0.759041 0.808515
0.126818 0.913333 0.817056
0.196313 0.911963 0.815687
0.319426 0.909537 0.813260
0.468135 0.906606 0.810330
0.627399 0.903468 0.807191
0.791562 0.900232 0.803955
0.958289 0.896946 0.800670
1.000000 0.895315 0.799038
1.000000 0.895315 0.799038
0.140000 1.000000 0.807133
0.203991 1.000000 0.805872
0.321518 1.000000 0.803556
0.466675 1.000000 0.800695
0.623800 1.000000 0.797599
0.786610 1.000000 0.794390
0.952429 1.000000 0.791122
1.000000 1.000000 0.789562
1.000000 1.000000 0.789562
0.136531 0.000000 1.000000
0.222926 0.000000 1.000000
0.360144 0.000000 1.000000
0.516881 0.000000 1.000000
0.680745 0.000000 1.000000
0.847751 0.000000 1.000000
1.000000 0.000000 0.999088
1.000000 0.000000 0.997311
1.000000 0.000000 0.997311
0.128812 0.095884 1.000000
0.214589 0.094193 1.000000
0.351362 0.091498 1.000000
0.507865 0.088413 0.999446
0.671600 0.085187 0.996219
0.838528 0.081897 0.992930
1.000000 0.078575 0.989608
1.000000 0.076802 0.987834
1.000000 0.076802 0.987834
0.123729 0.232071 0.997354
0.207987 0.230410 0.995693
0.343647 0.227737 0.993020
0.499560 0.224664 0.989947
0.662967 0.221444 0.986726
0.829694 0.218158 0.983440
0.998122 0.214838 0.980121
1.000000 0.213075 0.978358
1.000000 0.213075 0.978358
0.121822 0.368195 0.987728
0.203552 0.366585 0.986117
0.337290 0.363949 0.983482
0.492165 0.360897 0.980429
0.654991 0.357688 0.977220
0.821363 0.354409 0.973941
0.989556 0.351094 0.970627
1.000000 0.349349 0.968882
1.000000 0.349349 0.968882
0.123167 0.504256 0.978038
0.201465 0.502713 0.976495
0.332453 0.500131 0.973914
0.485803 0.497109 0.970892
0.647765 0.493917 0.967700
0.813607 0.490648 0.964431
0.981449 0.487340 0.961123
1.000000 0.485622 0.959405
1.000000 0.485622 0.959405
0.127585 0.640255 0.968288
0.201773 0.638793 0.966826
0.329238 0.636281 0.964314
0.480563 0.633299 0.961332
0.641362 0.630130 0.958163
0.806483 0.626876 0.954908
0.973848 0.623577 0.951610
1.000000 0.621896 0.949929
1.000000 0.621896 0.949929
0.134745 0.776201 0.958484
0.204415 0.774828 0.957111
0.327697 0.772398 0.954681
0.476511 0.769466 0.951748
0.635837 0.766326 0.948608
0.800038 0.763089 0.945372
0.966791 0.759803 0.942086
1.000000 0.758170 0.940452
1.000000 0.758170 0.940452
0.144257 0.912101 0.948633
0.209252 0.910820 0.947352
0.327839 0.908482 0.945015
0.473688 0.905608 0.942141
0.631234 0.902503 0.939036
0.794312 0.899289 0.935822
0.960312 0.896018 0.932550
1.000000 0.894443 0.930976
1.000000 0.894443 0.930976
0.155732 1.000000 0.938744
0.216097 1.000000 0.937554
0.329636 1.000000 0.935317
0.472116 1.000000 0.932509
0.627587 1.000000 0.929445
0.789336 1.000000 0.926257
0.954440 1.000000 0.923003
1.000000 1.000000 0.921500
1.000000 1.000000 0.921500
