UWC_LUTs/UWC_03_EauBleue_Tropicale.cube
# UWC Eau bleue tropicale
# UWC — correction couleur sous-marine · entree Rec.709
TITLE "UWC Eau bleue tropicale"
LUT_3D_SIZE 5
DOMAIN_MIN 0 0 0
DOMAIN_MAX 1 1 1
0.000000 0.000000 0.000000
0.325737 0.000000 0.000000
0.668874 0.000000 0.000000
1.000000 0.000000 0.000000
1.000000 0.000000 0.000000
0.000000 0.242177 0.000000
0.309584 0.235481 0.000000
0.651136 0.228750 0.000000
0.993780 0.221997 0.000000
1.000000 0.220012 0.000000
0.005659 0.513645 0.000000
0.299441 0.507855 0.000000
0.636063 0.501220 0.000000
0.977141 0.494498 0.000000
1.000000 0.492559 0.000000
0.048173 0.784980 0.000000
0.296487 0.780087 0.000000
0.624372 0.773625 0.000000
0.962543 0.766960 0.000000
1.000000 0.765106 0.000000
0.090686 1.000000 0.000000
0.300823 1.000000 0.000000
0.616474 1.000000 0.000000
0.950284 1.000000 0.000000
1.000000 1.000000 0.000000
0.000000 0.000000 0.227923
0.326273 0.000000 0.221164
0.668140 0.000000 0.214427
1.000000 0.000000 0.207672
1.000000 0.000000 0.205684
0.000000 0.240175 0.208600
0.310100 0.233731 0.202157
0.650401 0.227025 0.195450
0.992652 0.220279 0.188705
1.000000 0.218306 0.186731
0.014219 0.511736 0.188662
0.299893 0.506106 0.183031
0.635321 0.499495 0.176421
0.976011 0.492781 0.169706
1.000000 0.490853 0.167778
0.052750 0.783150 0.168576
0.296833 0.778340 0.163765
0.623617 0.771900 0.157325
0.961410 0.765242 0.150668
1.000000 0.763400 0.148825
0.093328 1.000000 0.148450
0.301028 1.000000 0.144356
0.615701 1.000000 0.138155
0.949146 1.000000 0.131583
1.000000 1.000000 0.129873
0.028000 0.000000 0.490884
0.331610 0.000000 0.484900
0.669504 0.000000 0.478241
1.000000 0.000000 0.471511
1.000000 0.000000 0.469559
0.023283 0.237606 0.471651
0.315373 0.231850 0.465894
0.651758 0.225220 0.459265
0.992758 0.218500 0.452544
1.000000 0.216562 0.450607
0.040077 0.509449 0.451993
0.304973 0.504228 0.446773
0.636657 0.497691 0.440236
0.976112 0.491001 0.433546
1.000000 0.489109 0.431654
0.069535 0.781042 0.432086
0.301582 0.776469 0.427513
0.624912 0.770096 0.421141
0.961501 0.763463 0.414507
1.000000 0.761657 0.412701
0.104895 1.000000 0.412063
0.305342 1.000000 0.408113
0.616937 1.000000 0.401972
0.949222 1.000000 0.395423
1.000000 1.000000 0.393748
0.082266 0.000000 0.753656
0.342823 0.000000 0.748521
0.673588 0.000000 0.742002
1.000000 0.000000 0.735318
1.000000 0.000000 0.733435
0.072154 0.234865 0.734529
0.326476 0.229853 0.729517
0.655829 0.223362 0.723026
0.994500 0.216687 0.716351
1.000000 0.214819 0.714482
0.078267 0.506918 0.715082
0.315739 0.502238 0.710402
0.640688 0.495834 0.703998
0.977843 0.489189 0.697353
1.000000 0.487366 0.695530
0.097905 0.778705 0.695369
0.311771 0.774490 0.691154
0.628869 0.768241 0.684904
0.963214 0.761651 0.678315
1.000000 0.759913 0.676577
0.126126 1.000000 0.675486
0.314766 1.000000 0.671768
0.620784 1.000000 0.665737
0.950906 1.000000 0.659231
1.000000 1.000000 0.657624
0.136531 0.000000 1.000000
0.360144 0.000000 1.000000
0.680745 0.000000 1.000000
1.000000 0.000000 0.999088
1.000000 0.000000 0.997311
0.123729 0.232071 0.997354
0.343647 0.227737 0.993020
0.662967 0.221444 0.986726
0.998122 0.214838 0.980121
1.000000 0.213075 0.978358
0.123167 0.504256 0.978038
0.332453 0.500131 0.973914
0.647765 0.493917 0.967700
0.981449 0.487340 0.961123
1.000000 0.485622 0.959405
0.134745 0.776201 0.958484
0.327697 0.772398 0.954681
0.635837 0.766326 0.948608
0.966791 0.759803 0.942086
1.000000 0.758170 0.940452
0.155732 1.000000 0.938744
0.329636 1.000000 0.935317
0.627587 1.000000 0.929445
0.954440 1.000000 0.923003
1.000000 1.000000 0.921500
