UWC_LUTs/UWC_05_Recif_Punch.cube
# UWC Recif punch (look)
# UWC — correction couleur sous-marine · entree Rec.709
TITLE "UWC Recif punch (look)"
LUT_3D_SIZE 5
DOMAIN_MIN 0 0 0
DOMAIN_MAX 1 1 1
0.000000 0.000000 0.000000
0.274094 0.000000 0.000000
0.598189 0.000000 0.000000
0.922283 0.000000 0.000000
1.000000 0.000000 0.000000
0.000000 0.245949 0.000000
0.234043 0.234043 0.000000
0.558138 0.222138 0.000000
0.882232 0.210232 0.000000
1.000000 0.198326 0.000000
0.000000 0.541898 0.000000
0.193992 0.529992 0.000000
0.518086 0.518086 0.000000
0.842181 0.506181 0.000000
1.000000 0.494275 0.000000
0.000000 0.837846 0.000000
0.153941 0.825941 0.000000
0.478035 0.814035 0.000000
0.802130 0.802130 0.000000
1.000000 0.790224 0.000000
0.000000 1.000000 0.000000
0.113890 1.000000 0.000000
0.437984 1.000000 0.000000
0.762078 1.000000 0.000000
1.000000 1.000000 0.000000
0.000000 0.000000 0.281957
0.270051 0.000000 0.270051
0.594146 0.000000 0.258146
0.918240 0.000000 0.246240
1.000000 0.000000 0.234334
0.000000 0.241906 0.241906
0.230000 0.230000 0.230000
0.554094 0.218094 0.218094
0.878189 0.206189 0.206189
1.000000 0.194283 0.194283
0.000000 0.537854 0.201854
0.189949 0.525949 0.189949
0.514043 0.514043 0.178043
0.838138 0.502138 0.166138
1.000000 0.490232 0.154232
0.000000 0.833803 0.161803
0.149898 0.821898 0.149898
0.473992 0.809992 0.137992
0.798086 0.798086 0.126086
1.000000 0.786181 0.114181
0.000000 1.000000 0.121752
0.109846 1.000000 0.109846
0.433941 1.000000 0.097941
0.758035 1.000000 0.086035
1.000000 1.000000 0.074130
0.000000 0.000000 0.613914
0.266008 0.000000 0.602008
0.590102 0.000000 0.590102
0.914197 0.000000 0.578197
1.000000 0.000000 0.566291
0.000000 0.237862 0.573862
0.225957 0.225957 0.561957
0.550051 0.214051 0.550051
0.874146 0.202146 0.538146
1.000000 0.190240 0.526240
0.000000 0.533811 0.533811
0.185906 0.521906 0.521906
0.510000 0.510000 0.510000
0.834094 0.498094 0.498094
1.000000 0.486189 0.486189
0.000000 0.829760 0.493760
0.145854 0.817854 0.481854
0.469949 0.805949 0.469949
0.794043 0.794043 0.458043
1.000000 0.782138 0.446138
0.000000 1.000000 0.453709
0.105803 1.000000 0.441803
0.429898 1.000000 0.429898
0.753992 1.000000 0.417992
1.000000 1.000000 0.406086
0.000000 0.000000 0.945870
0.261965 0.000000 0.933965
0.586059 0.000000 0.922059
0.910154 0.000000 0.910154
1.000000 0.000000 0.898248
0.000000 0.233819 0.905819
0.221914 0.221914 0.893914
0.546008 0.210008 0.882008
0.870102 0.198102 0.870102
1.000000 0.186197 0.858197
0.000000 0.529768 0.865768
0.181862 0.517862 0.853862
0.505957 0.505957 0.841957
0.830051 0.494051 0.830051
1.000000 0.482146 0.818146
0.000000 0.825717 0.825717
0.141811 0.813811 0.813811
0.465906 0.801906 0.801906
0.790000 0.790000 0.790000
1.000000 0.778094 0.778094
0.000000 1.000000 0.785666
0.101760 1.000000 0.773760
0.425854 1.000000 0.761854
0.749949 1.000000 0.749949
1.000000 1.000000 0.738043
0.000000 0.000000 1.000000
0.257922 0.000000 1.000000
0.582016 0.000000 1.000000
0.906110 0.000000 1.000000
1.000000 0.000000 1.000000
0.000000 0.229776 1.000000
0.217870 0.217870 1.000000
0.541965 0.205965 1.000000
0.866059 0.194059 1.000000
1.000000 0.182154 1.000000
0.000000 0.525725 1.000000
0.177819 0.513819 1.000000
0.501914 0.501914 1.000000
0.826008 0.490008 1.000000
1.000000 0.478102 1.000000
0.000000 0.821674 1.000000
0.137768 0.809768 1.000000
0.461862 0.797862 1.000000
0.785957 0.785957 1.000000
1.000000 0.774051 1.000000
0.000000 1.000000 1.000000
0.097717 1.000000 1.000000
0.421811 1.000000 1.000000
0.745906 1.000000 1.000000
1.000000 1.000000 1.000000
